/* XPM */
static const char *Splash[] = {
"585 424 8322 2 0 0",
"   c #002A2A",
"!  c #383838",
"#  c #373737",
"$  c #303030",
"%  c #585858",
"&  c #AFAFAF",
"'  c #D4D4D4",
"(  c #AEAEAE",
")  c #525252",
"*  c #313131",
"+  c #535353",
",  c #A0A0A0",
"-  c #CBCBCB",
".  c #B8B8B8",
"/  c #2C2C2C",
"0  c #353535",
"1  c #323232",
"2  c #344888",
"3  c #3B3930",
"4  c #3C3212",
"5  c #393321",
"6  c #5A574F",
"7  c #3A3A39",
"8  c #3B331A",
"9  c #383322",
":  c #59564C",
";  c #383C4F",
"<  c #39342B",
"=  c #383324",
">  c #575346",
"?  c #374063",
"@  c #39383E",
"A  c #3A3529",
"B  c #504A3A",
"C  c #35447C",
"D  c #3A3E58",
"E  c #3D3A32",
"F  c #403A25",
"G  c #2F2F2F",
"H  c #242424",
"I  c #C4C4C4",
"J  c #BCBCBC",
"K  c #8A8A8A",
"L  c #484848",
"M  c #2B2B2B",
"N  c #232323",
"O  c #C3C3C3",
"P  c #858586",
"Q  c #464545",
"R  c #292827",
"S  c #2F2E2C",
"T  c #344586",
"U  c #393F62",
"V  c #3E3A33",
"W  c #949494",
"X  c #4A4A4A",
"Y  c #292929",
"Z  c #272727",
"[  c #BDBDBD",
"]  c #C4C4C5",
"^  c #959596",
"_  c #4A4A49",
"`  c #282825",
"a  c #2F2F2C",
"b  c #2D2C28",
"c  c #211F1A",
"d  c #38436F",
"e  c #4E4E4E",
"f  c #B2B2B2",
"g  c #CECECE",
"h  c #A4A4A4",
"i  c #4F4F4F",
"j  c #282828",
"k  c #A3A3A3",
"l  c #4E4E4C",
"m  c #272724",
"n  c #2E2E2A",
"o  c #24231E",
"p  c #4A4944",
"q  c #B1B0AE",
"r  c #CDCDCE",
"s  c #A09F9C",
"t  c #454034",
"u  c #1A1100",
"v  c #201300",
"w  c #22202B",
"x  c #364986",
"y  c #2A2A2A",
"z  c #4B4B4B",
"{  c #A8A8A8",
"|  c #D8D8D8",
"}  c #B1B1B1",
"~  c #505050",
" ! c #252525",
"!! c #4C4C4C",
"#! c #ACACAC",
"$! c #B1B1B0",
"%! c #50504D",
"&! c #242421",
"'! c #2E2E2B",
"(! c #2F2F2B",
")! c #262620",
"*! c #494843",
"+! c #AAAAA8",
",! c #D8D8D9",
"-! c #AEACAA",
".! c #474239",
"/! c #170F00",
"0! c #201400",
"1! c #232027",
"2! c #354C93",
"3! c #BFBFBF",
"4! c #222222",
"5! c #333333",
"6! c #E1E1E1",
"7! c #BEBEBE",
"8! c #1F1F1F",
"9! c #2E2E2E",
":! c #474747",
";! c #9D9D9D",
"<! c #A9A9A9",
"=! c #E4E4E4",
">! c #AAAAAA",
"?! c #4F4F4E",
"@! c #1F1F1E",
"A! c #2C2C2B",
"B! c #2E2F2C",
"C! c #272622",
"D! c #474642",
"E! c #A6A7A5",
"F! c #E3E4E4",
"G! c #BAB9B8",
"H! c #47423D",
"I! c #130B00",
"J! c #1F1400",
"K! c #242023",
"L! c #212F6A",
"M! c #464646",
"N! c #919191",
"O! c #E2E2E2",
"P! c #666666",
"Q! c #343434",
"R! c #414141",
"S! c #838383",
"T! c #DDDDDD",
"U! c #656565",
"V! c #404040",
"W! c #3F3F3F",
"X! c #828282",
"Y! c #DCDCDC",
"Z! c #CCCCCC",
"[! c #696969",
"]! c #363636",
"^! c #2D2D2D",
"_! c #434343",
"`! c #8D8D8D",
"a! c #E0E0E0",
"b! c #686868",
"c! c #8E8E8E",
"d! c #E1E0E1",
"e! c #CAC9CA",
"f! c #636363",
"g! c #30302F",
"h! c #30312F",
"i! c #2E2E2C",
"j! c #292825",
"k! c #42413E",
"l! c #949492",
"m! c #E2E3E3",
"n! c #C6C6C6",
"o! c #5C5957",
"p! c #262018",
"q! c #251A08",
"r! c #231D1F",
"s! c #212A5C",
"t! c #5B5B5B",
"u! c #CFCFCF",
"v! c #D9D9D9",
"w! c #8C8C8C",
"x! c #595959",
"y! c #3E3E3E",
"z! c #565656",
"{! c #CDCDCD",
"|! c #3D3D3D",
"}! c #555555",
"~! c #9E9E9E",
" # c #545454",
"!# c #6A6A6A",
"## c #575757",
"$# c #CDCCCD",
"%# c #D8D7D8",
"&# c #8C8C8B",
"'# c #585856",
"(# c #3B3B39",
")# c #2C2C29",
"*# c #2B2B27",
"+# c #393935",
",# c #737370",
"-# c #D5D4D4",
".# c #D4D3D4",
"/# c #888787",
"0# c #514E48",
"1# c #302718",
"2# c #201A1A",
"3# c #21254D",
"4# c #424242",
"5# c #C2C2C2",
"6# c #DFDFDF",
"7# c #757575",
"8# c #747474",
"9# c #C0C0C0",
":# c #E3E3E3",
";# c #B9B9B9",
"<# c #858585",
"=# c #C1C0C0",
"># c #DFDDDE",
"?# c #747473",
"@# c #424140",
"A# c #2B2A27",
"B# c #2E2D29",
"C# c #33322E",
"D# c #595955",
"E# c #C8C8C6",
"F# c #DBDBDA",
"G# c #A6A6A6",
"H# c #6F6E69",
"I# c #383123",
"J# c #1E1611",
"K# c #211D33",
"L# c #212B61",
"M# c #BBBBBB",
"N# c #4D4D4D",
"O# c #DBDBDB",
"P# c #8F8F8F",
"Q# c #454545",
"R# c #B7B7B7",
"S# c #DADADA",
"T# c #494949",
"U# c #B5B5B5",
"V# c #909090",
"W# c #B6B6B6",
"X# c #424241",
"Y# c #484746",
"Z# c #282726",
"[# c #2F2E2B",
"]# c #43423D",
"^# c #B4B5B2",
"_# c #D8D8D7",
"`# c #8A8884",
"a# c #3F392C",
"b# c #1C1204",
"c# c #21130B",
"d# c #212139",
"e# c #2A2F5D",
"f# c #2B2820",
"g# c #2D270A",
"h# c #4F4C40",
"i# c #DFE0DF",
"j# c #A6A7A6",
"k# c #747472",
"l# c #474745",
"m# c #333231",
"n# c #363736",
"o# c #383938",
"p# c #CACACA",
"q# c #767676",
"r# c #393939",
"s# c #A5A5A5",
"t# c #D0D0D0",
"u# c #A7A7A7",
"v# c #444444",
"w# c #A2A2A2",
"x# c #313130",
"y# c #414140",
"z# c #4E4C4C",
"{# c #272524",
"|# c #2F2D2C",
"}# c #2E2C2A",
"~# c #3D3C38",
" $ c #A0A09E",
"!$ c #CDCDCF",
"#$ c #2A3474",
"$$ c #2D2A27",
"%$ c #282102",
"&$ c #3E3A2B",
"'$ c #C0C0BC",
"($ c #848482",
")$ c #4B4B48",
"*$ c #31312F",
"+$ c #373836",
",$ c #343534",
"-$ c #474746",
".$ c #868686",
"/$ c #C1C1C1",
"0$ c #BABABA",
"1$ c #888888",
"2$ c #C5C5C5",
"3$ c #979797",
"4$ c #9B9B9B",
"5$ c #C8C8C8",
"6$ c #B4B4B4",
"7$ c #9A9A9A",
"8$ c #C7C7C7",
"9$ c #B3B3B3",
":$ c #999999",
";$ c #515151",
"<$ c #262626",
"=$ c #C9C9C9",
">$ c #959595",
"?$ c #989898",
"@$ c #40403F",
"A$ c #B0B0B0",
"B$ c #4F4E4D",
"C$ c #232221",
"D$ c #2E2D2B",
"E$ c #3D3C37",
"F$ c #969593",
"G$ c #171000",
"H$ c #201500",
"I$ c #29367F",
"J$ c #2C2A2A",
"K$ c #292103",
"L$ c #403C2C",
"M$ c #BABAB7",
"N$ c #DEDEDE",
"O$ c #BBBBBA",
"P$ c #8B8A88",
"Q$ c #4C4C49",
"R$ c #31312D",
"S$ c #383835",
"T$ c #363634",
"U$ c #494948",
"V$ c #DEDEDF",
"W$ c #3A3A3A",
"X$ c #E5E5E5",
"Y$ c #939393",
"Z$ c #323231",
"[$ c #40403E",
"]$ c #4E4D4D",
"^$ c #1E1D1C",
"_$ c #2C2C2A",
"`$ c #3C3B37",
"a$ c #8E8F8C",
"b$ c #C2C3C2",
"c$ c #2B2A2E",
"d$ c #2A2003",
"e$ c #403B2B",
"f$ c #B1B0AC",
"g$ c #D7D8D7",
"h$ c #C3C3C2",
"i$ c #969594",
"j$ c #4F4E4B",
"k$ c #373735",
"l$ c #B3B3B4",
"m$ c #D7D7D8",
"n$ c #D2D2D2",
"o$ c #878787",
"p$ c #E6E6E6",
"q$ c #646464",
"r$ c #7F7F7F",
"s$ c #606060",
"t$ c #7E7E7E",
"u$ c #3B3B3B",
"v$ c #737373",
"w$ c #3B3B3A",
"x$ c #353534",
"y$ c #323230",
"z$ c #393835",
"{$ c #797977",
"|$ c #AFAFAE",
"}$ c #E2E2E3",
"~$ c #231E1F",
" % c #2A2932",
"!% c #291F03",
"#% c #3D3828",
"$% c #A2A19D",
"%% c #CECECD",
"&% c #A5A5A3",
"'% c #52524F",
"(% c #2E2D2A",
")% c #373634",
"*% c #464645",
"+% c #A5A4A4",
",% c #797979",
"-% c #5D5D5D",
".% c #D1D1D1",
"/% c #D6D6D6",
"0% c #D5D5D5",
"1% c #8B8B8B",
"2% c #6D6D6D",
"3% c #6B6B6B",
"4% c #2E2E2D",
"5% c #3E3F3D",
"6% c #2A2A27",
"7% c #343330",
"8% c #565653",
"9% c #8A8988",
":% c #202B62",
";% c #292A3E",
"<% c #29200E",
"=% c #3B3726",
">% c #989792",
"?% c #C8C8C7",
"@% c #D9D9D8",
"A% c #B2B3B1",
"B% c #555452",
"C% c #2B2B28",
"D% c #363633",
"E% c #373736",
"F% c #9C9C9C",
"G% c #626262",
"H% c #787878",
"I% c #ABABAB",
"J% c #676767",
"K% c #3C3C3C",
"L% c #D7D7D7",
"M% c #5C5C5C",
"N% c #5E5E5E",
"O% c #5F5F5F",
"P% c #929292",
"Q% c #717171",
"R% c #202020",
"S% c #1E1E1E",
"T% c #1D1D1D",
"U% c #858584",
"V% c #464644",
"W% c #282826",
"X% c #302F2C",
"Y% c #3B3A37",
"Z% c #6D6C69",
"[% c #C8C7C6",
"]% c #20244C",
"^% c #282C54",
"_% c #282224",
"`% c #3A3526",
"a% c #919089",
"b% c #C5C5C4",
"c% c #E4E4E3",
"d% c #BFBEBD",
"e% c #565552",
"f% c #282724",
"g% c #353431",
"h% c #454644",
"i% c #C9CACA",
"j% c #777777",
"k% c #707070",
"l% c #5A5A5A",
"m% c #232222",
"n% c #BCBCBB",
"o% c #8A8A89",
"p% c #282722",
"q% c #565652",
"r% c #BBBBB9",
"s% c #DBDCDA",
"t% c #B6B7B7",
"u% c #827F7C",
"v% c #3D3629",
"w% c #1C1206",
"x% c #211D2E",
"y% c #282F6A",
"z% c #28253A",
"{% c #383326",
"|% c #84827B",
"}% c #BABAB9",
"~% c #E5E5E4",
" & c #62605D",
"!& c #32302D",
"#& c #373734",
"$& c #898989",
"%& c #969696",
"&& c #302F2F",
"'& c #272626",
"(& c #525151",
")& c #B1B0B0",
"*& c #949493",
"+& c #2D2C29",
",& c #201F1A",
"-& c #4B4B46",
".& c #AEAEAB",
"/& c #D6D7D5",
"0& c #C3C4C4",
"1& c #92908C",
"2& c #413B2F",
"3& c #1B1100",
"4& c #21191D",
"5& c #292C59",
"6& c #342F24",
"7& c #625F56",
"8& c #D9D8D7",
"9& c #D2D1D1",
":& c #838280",
";& c #52514F",
"<& c #3F3E3C",
"=& c #383836",
">& c #363635",
"?& c #676766",
"@& c #CACAC9",
"A& c #7D7D7D",
"B& c #D3D3D3",
"C& c #A1A1A1",
"D& c #ADADAD",
"E& c #9F9F9F",
"F& c #4D4C4C",
"G& c #9E9D9D",
"H& c #4E4D4C",
"I& c #252423",
"J& c #2D2B2A",
"K& c #25241F",
"L& c #494944",
"M& c #9C9C99",
"N& c #D3D3D4",
"O& c #A6A6A3",
"P& c #454136",
"Q& c #181000",
"R& c #201A18",
"S& c #283068",
"T& c #2C281B",
"U& c #2E2B1A",
"V& c #626159",
"W& c #343331",
"X& c #373535",
"Y& c #2B2A2A",
"Z& c #585857",
"[& c #212121",
"]& c #484743",
"^& c #929190",
"_& c #E4E5E5",
"`& c #B9B8B8",
"a& c #45413D",
"b& c #120A00",
"c& c #201A16",
"d& c #212E68",
"e& c #283371",
"f& c #292519",
"g& c #1E1905",
"h& c #504E43",
"i& c #E3E4E3",
"j& c #B9B9B8",
"k& c #878784",
"l& c #32312F",
"m& c #373635",
"n& c #2F2E2D",
"o& c #616161",
"p& c #E7E7E7",
"q& c #808080",
"r& c #302F2D",
"s& c #292925",
"t& c #403F3B",
"u& c #71706D",
"v& c #A7A6A4",
"w& c #E0E0DF",
"x& c #615E5E",
"y& c #2B251F",
"z& c #241E1A",
"{& c #212B5D",
"|& c #28367E",
"}& c #29261C",
"~& c #211D08",
" ' c #525044",
"!' c #BBBBB6",
"#' c #E1E2E1",
"$' c #C6C5C4",
"%' c #959493",
"&' c #4F4E4C",
"'' c #2F2F2E",
"(' c #545453",
")' c #CFCFCE",
"*' c #A6A6A5",
"+' c #7B7B7B",
",' c #6C6C6C",
"-' c #3A3939",
".' c #373835",
"/' c #31302B",
"0' c #35332E",
"1' c #686662",
"2' c #CBCAC9",
"3' c #DCDBDC",
"4' c #9B9A9B",
"5' c #635F5C",
"6' c #2C2623",
"7' c #1F244D",
"8' c #2A261F",
"9' c #241E0A",
":' c #504D41",
";' c #ADACA8",
"<' c #D4D3D2",
"=' c #53524F",
">' c #525251",
"?' c #9B9B9A",
"@' c #C9C9C8",
"A' c #DADAD9",
"B' c #B4B4B3",
"C' c #575756",
"D' c #323131",
"E' c #2D2C2C",
"F' c #B9B9BA",
"G' c #3C3C3A",
"H' c #2B2925",
"I' c #1A1812",
"J' c #4B4944",
"K' c #BEBCBB",
"L' c #312A25",
"M' c #1F1C34",
"N' c #202A62",
"O' c #292521",
"P' c #251F0B",
"Q' c #49463A",
"R' c #979591",
"S' c #CAC9C9",
"T' c #E2E2E1",
"U' c #BCBBBA",
"V' c #575653",
"W' c #2A2926",
"X' c #363533",
"Y' c #323130",
"Z' c #50504F",
"[' c #959594",
"]' c #C6C6C5",
"^' c #DDDDDE",
"_' c #BCBCBD",
"`' c #2C2C28",
"a' c #1F1F19",
"b' c #4E4D48",
"c' c #B9B8B6",
"d' c #DDDCDD",
"e' c #BCBBBC",
"f' c #878481",
"g' c #312A1E",
"h' c #201411",
"i' c #212241",
"j' c #2A262C",
"k' c #251F0D",
"l' c #434032",
"m' c #83817D",
"n' c #E5E6E5",
"o' c #C8C9C7",
"p' c #62625E",
"q' c #32312D",
"r' c #4D4D4C",
"s' c #888887",
"t' c #E5E5E6",
"u' c #848484",
"v' c #3E3D3C",
"w' c #23221D",
"x' c #4E4D49",
"y' c #AFAEAC",
"z' c #D6D5D5",
"{' c #C3C2C3",
"|' c #918E8C",
"}' c #332B1D",
"~' c #201100",
" ( c #221E2E",
"!( c #6E6E6E",
"#( c #E9E9E9",
"$( c #F3F3F3",
"%( c #F6F6F6",
"&( c #727272",
"'( c #29283F",
"(( c #272211",
")( c #403C29",
"*( c #73716A",
"+( c #A8A7A6",
",( c #DFDEDD",
"-( c #CECDCC",
".( c #767573",
"/( c #464543",
"0( c #3A3937",
"1( c #494947",
"2( c #767675",
"3( c #A8A8A7",
"4( c #313030",
"5( c #282727",
"6( c #403F3E",
"7( c #4B4A45",
"8( c #A09F9E",
"9( c #CCCBCB",
":( c #CDCCCE",
";( c #A09E9B",
"<( c #362E20",
"=( c #211300",
">( c #221E28",
"?( c #EFEFEF",
"@( c #EEEEEE",
"A( c #EBEBEB",
"B( c #F0F0F0",
"C( c #292C57",
"D( c #292518",
"E( c #38331C",
"F( c #56544A",
"G( c #8A8987",
"H( c #D5D4D3",
"I( c #D6D5D4",
"J( c #8D8C8B",
"K( c #5C5B59",
"L( c #3D3C3A",
"M( c #353533",
"N( c #424240",
"O( c #2A2828",
"P( c #4C4B4B",
"Q( c #262520",
"R( c #494844",
"S( c #979695",
"T( c #C7C6C7",
"U( c #D8D8DA",
"V( c #ADACAA",
"W( c #352F23",
"X( c #231F24",
"Y( c #202E6B",
"Z( c #F7F7F7",
"[( c #ECECEC",
"]( c #28347C",
"^( c #2C2924",
"_( c #2C2508",
"`( c #292413",
"a( c #5C5A51",
"b( c #C5C5C1",
"c( c #ADADAC",
"d( c #7B7A79",
"e( c #41403F",
"f( c #383735",
"g( c #383736",
"h( c #818181",
"i( c #2C2B2B",
"j( c #4C4C4B",
"k( c #30302E",
"l( c #43423E",
"m( c #7E7D7B",
"n( c #B2B1B1",
"o( c #DFE0E0",
"p( c #C1C0C1",
"q( c #433D39",
"r( c #231807",
"s( c #231E21",
"t( c #212C62",
"u( c #F2F2F2",
"v( c #201C08",
"w( c #514F44",
"x( c #43433F",
"y( c #2B2B2A",
"z( c #2E2D2D",
"{( c #312F2F",
"|( c #343333",
"}( c #848483",
"~( c #31302C",
" ) c #35332F",
"!) c #686663",
"#) c #807D7C",
"$) c #342C1F",
"%) c #1E181A",
"&) c #F1F1F1",
"') c #E8E8E8",
"() c #2B292E",
")) c #231D09",
"*) c #444440",
"+) c #363735",
",) c #2D2E2C",
"-) c #7A7A7A",
".) c #292927",
"/) c #9B9A99",
"0) c #3D352A",
"1) c #1C1411",
"2) c #F5F5F5",
"3) c #F4F4F4",
"4) c #231D0A",
"5) c #4B483D",
"6) c #464542",
"7) c #A1A1A0",
"8) c #9F9D9B",
"9) c #3E372B",
":) c #1B1206",
";) c #212242",
"<) c #A1A1A2",
"=) c #CBCBCC",
">) c #292A3F",
"?) c #29200F",
"@) c #241D0C",
"A) c #484537",
"B) c #979691",
"C) c #C7C8C7",
"D) c #D8D9D8",
"E) c #474643",
"F) c #A6A4A2",
"G) c #403B2E",
"H) c #636364",
"I) c #909091",
"J) c #F9F9F9",
"K) c #282C55",
"L) c #282225",
"M) c #241F10",
"N) c #474331",
"O) c #909089",
"P) c #474543",
"Q) c #CDCDCC",
"R) c #B3B3B2",
"S) c #4E4C4B",
"T) c #B1AFAE",
"U) c #453F34",
"V) c #7F7F80",
"W) c #A7A7A8",
"X) c #282F6B",
"Y) c #28253B",
"Z) c #252015",
"[) c #433F2A",
"]) c #514F4C",
"^) c #343433",
"_) c #454544",
"`) c #6B6A6A",
"a) c #9D9C9C",
"b) c #292828",
"c) c #BBBABA",
"d) c #464139",
"e) c #202F6C",
"f) c #535453",
"g) c #5A5B5B",
"h) c #6A6A6B",
"i) c #929293",
"j) c #6F6F6F",
"k) c #273482",
"l) c #282B53",
"m) c #26221C",
"n) c #3F3923",
"o) c #727067",
"p) c #A7A7A5",
"q) c #DEDEDC",
"r) c #CFCDCC",
"s) c #646260",
"t) c #3C3C39",
"u) c #393736",
"v) c #3A3838",
"w) c #3C3B3B",
"x) c #6D6C6C",
"y) c #2A2929",
"z) c #110A00",
"{) c #1E1300",
"|) c #231F23",
"}) c #202E68",
"~) c #545555",
" * c #7A7A79",
"!* c #292E62",
"#* c #282521",
"$* c #373118",
"%* c #555247",
"&* c #8A8985",
"'* c #D5D4D2",
"(* c #787775",
")* c #42413F",
"** c #3A3938",
"+* c #353433",
",* c #262625",
"-* c #7C7C7C",
".* c #71706E",
"/* c #A7A5A5",
"0* c #2A251F",
"1* c #251C0A",
"2* c #221E1F",
"3* c #5C5B5A",
"4* c #535352",
"5* c #565655",
"6* c #474847",
"7* c #6D6E6C",
"8* c #EAEAEA",
"9* c #29326C",
":* c #2C2406",
";* c #5B5951",
"<* c #C4C4C1",
"=* c #494946",
">* c #393937",
"?* c #2D2C2B",
"@* c #585757",
"A* c #A7A7A6",
"B* c #2A2A28",
"C* c #2F2E2A",
"D* c #5D5B58",
"E* c #A6A6A7",
"F* c #6E6C69",
"G* c #372F23",
"H* c #1C1615",
"I* c #1F203F",
"J* c #8B8A89",
"K* c #626160",
"L* c #504F4E",
"M* c #555454",
"N* c #4C4D4B",
"O* c #6B6C6A",
"P* c #28367D",
"Q* c #292203",
"R* c #211C08",
"S* c #514E44",
"T* c #B9B9B5",
"U* c #ABAAA9",
"V* c #504F4C",
"W* c #31302D",
"X* c #302F2E",
"Y* c #555453",
"Z* c #A6A5A5",
"[* c #2F2F2D",
"]* c #292826",
"^* c #C2C1C1",
"_* c #A1A09F",
"`* c #686665",
"a* c #2A2103",
"b* c #514D42",
"c* c #B0AFAB",
"d* c #DBDCDC",
"e* c #B8B8B7",
"f* c #545350",
"g* c #393837",
"h* c #535251",
"i* c #9C9B9B",
"j* c #2D2D2E",
"k* c #282725",
"l* c #BBBAB9",
"m* c #403B2F",
"n* c #B0B0AF",
"o* c #6B6968",
"p* c #4C4A49",
"q* c #535351",
"r* c #545553",
"s* c #646463",
"t* c #EDEDED",
"u* c #2A2A32",
"v* c #2A2104",
"w* c #251E0B",
"x* c #4D493E",
"y* c #A3A19D",
"z* c #575654",
"{* c #333230",
"|* c #515050",
"}* c #272726",
"~* c #B1B0AF",
" + c #EDEDEC",
"!+ c #C3C2C1",
"#+ c #6E6D6B",
"$+ c #2A2B3F",
"%+ c #2A210F",
"&+ c #25200E",
"'+ c #474436",
"(+ c #908E89",
")+ c #D0D0CF",
"*+ c #636260",
"++ c #33322F",
",+ c #393836",
"-+ c #343332",
".+ c #4E4E4D",
"/+ c #898988",
"0+ c #333334",
"1+ c #252524",
"2+ c #AAAAA9",
"3+ c #202E6C",
"4+ c #DCDCDB",
"5+ c #F6F6F5",
"6+ c #CDCDCB",
"7+ c #767673",
"8+ c #4D4D4B",
"9+ c #555554",
":+ c #5B5B5A",
";+ c #292C55",
"<+ c #2A2326",
"=+ c #272213",
">+ c #403D2B",
"?+ c #76746E",
"@+ c #ABABAA",
"A+ c #777674",
"B+ c #474644",
"C+ c #3E3D3B",
"D+ c #777776",
"E+ c #474748",
"F+ c #2D2D2C",
"G+ c #1D1D1C",
"H+ c #A8A9A7",
"I+ c #BAB8B8",
"J+ c #202D68",
"K+ c #434033",
"L+ c #706E67",
"M+ c #D8D8D5",
"N+ c #F4F4F3",
"O+ c #CFCECD",
"P+ c #848382",
"Q+ c #575655",
"R+ c #565554",
"S+ c #555553",
"T+ c #6A6A69",
"U+ c #29273C",
"V+ c #282519",
"W+ c #37341E",
"X+ c #8A8A87",
"Y+ c #CCCCCB",
"Z+ c #8D8D8C",
"[+ c #5C5C5A",
"]+ c #434240",
"^+ c #444442",
"_+ c #5D5D5B",
"`+ c #3F3F3B",
"a+ c #8B8B88",
"b+ c #221D1F",
"c+ c #212A5E",
"d+ c #364995",
"e+ c #3B4571",
"f+ c #403E3A",
"g+ c #3E3820",
"h+ c #373324",
"i+ c #605E56",
"j+ c #CDCDCA",
"k+ c #EFEFEE",
"l+ c #D4D4D3",
"m+ c #9A9998",
"n+ c #727170",
"o+ c #5C5A5A",
"p+ c #535151",
"q+ c #F8F8F8",
"r+ c #273380",
"s+ c #292C52",
"t+ c #2C2920",
"u+ c #2E290F",
"v+ c #2F2C1E",
"w+ c #63615B",
"x+ c #CAC9C8",
"y+ c #757573",
"z+ c #494846",
"{+ c #3A3A38",
"|+ c #696868",
"}+ c #2A2B28",
"~+ c #2D2D29",
" , c #30302B",
"!, c #54524E",
"#, c #DBDBDC",
"$, c #9A9A9B",
"%, c #1F234E",
"&, c #354BA0",
"', c #3A467B",
"(, c #3F3D3A",
"), c #3F371E",
"*, c #3A3627",
"+, c #5D5B53",
",, c #BBBBB8",
"-, c #E7E7E6",
"., c #DEDDDC",
"/, c #B9B8B7",
"0, c #908F8E",
"1, c #636261",
"2, c #4F4F4D",
"3, c #5F5F5E",
"4, c #ABABAC",
"5, c #D5D5D6",
"6, c #293168",
"7, c #2C2A26",
"8, c #292306",
"9, c #1E1A08",
":, c #514E45",
";, c #C8C7C5",
"<, c #B7B7B6",
"=, c #858583",
">, c #4D4C4A",
"?, c #343431",
"@, c #3B3B38",
"A, c #E3E2E3",
"B, c #BAB9BA",
"C, c #2A2925",
"D, c #3A3933",
"E, c #BDBCBB",
"F, c #B9B9BB",
"G, c #827F7D",
"H, c #1C1412",
"I, c #1F1C35",
"J, c #202962",
"K, c #384984",
"L, c #3E3618",
"M, c #3B3725",
"N, c #5B5850",
"O, c #B0AEAC",
"P, c #E2E1E1",
"Q, c #E4E3E2",
"R, c #A4A4A3",
"S, c #525253",
"T, c #9A9A99",
"U, c #737372",
"V, c #5C5C5B",
"W, c #283684",
"X, c #2B2A2D",
"Y, c #292204",
"Z, c #221D0B",
"[, c #C0C0BD",
"], c #C0C0BF",
"^, c #91918F",
"_, c #393938",
"`, c #908F8F",
"a, c #494847",
"b, c #3E3D39",
"c, c #B3B2B1",
"d, c #D9D8D9",
"e, c #BFBFC0",
"f, c #8C8A87",
"g, c #3F392D",
"h, c #1B1204",
"i, c #20130B",
"j, c #221F38",
"k, c #364B90",
"l, c #3B3C3F",
"m, c #3D361B",
"n, c #3C3724",
"o, c #565247",
"p, c #A19F9B",
"q, c #DCDCDA",
"r, c #E9E9E7",
"s, c #696967",
"t, c #525250",
"u, c #DDDCDC",
"v, c #2B2A33",
"w, c #251E0C",
"x, c #4D493F",
"y, c #B3B2AF",
"z, c #A6A5A4",
"{, c #555451",
"|, c #333332",
"}, c #3F3F40",
"~, c #A2A2A1",
" - c #272625",
"!- c #3E3D38",
"#- c #CCCBCC",
"$- c #CDCCCF",
"%- c #9F9D9C",
"&- c #413C34",
"'- c #170E00",
"(- c #201200",
")- c #384472",
"*- c #3C3D4E",
"+- c #3D3A31",
",- c #4A4535",
"-- c #7C7974",
".- c #D0CFCF",
"/- c #F1F1F0",
"0- c #C4C4C2",
"1- c #434340",
"2- c #50504E",
"3- c #81807F",
"4- c #F4F3F3",
"5- c #F3F2F2",
"6- c #292B40",
"7- c #29210F",
"8- c #241E0E",
"9- c #4A463A",
":- c #ACABA8",
";- c #B3B3B1",
"<- c #393936",
"=- c #989897",
">- c #C7C7C6",
"?- c #C5C5C6",
"@- c #D7D7D9",
"A- c #B0AFAF",
"B- c #514D48",
"C- c #221B0F",
"D- c #231805",
"E- c #221E25",
"F- c #37468A",
"G- c #3B4166",
"H- c #3E3C37",
"I- c #433E2A",
"J- c #66635C",
"K- c #C7C6C5",
"L- c #CECECC",
"M- c #7D7D7B",
"N- c #545352",
"O- c #444443",
"P- c #6B6B6A",
"Q- c #515150",
"R- c #6A6968",
"S- c #282D56",
"T- c #282326",
"U- c #252012",
"V- c #484434",
"W- c #A9A8A4",
"X- c #C0BFBE",
"Y- c #595855",
"Z- c #303031",
"[- c #3E3E3F",
"]- c #939392",
"^- c #E4E4E5",
"_- c #1E1D1B",
"`- c #3C3B38",
"a- c #91908E",
"b- c #C4C3C3",
"c- c #E1E0E0",
"d- c #C4C3C2",
"e- c #3A352D",
"f- c #201D24",
"g- c #36468D",
"h- c #3A4168",
"i- c #58554A",
"j- c #BDBCBA",
"k- c #EAE9E9",
"l- c #EFEEED",
"m- c #D8D7D6",
"n- c #A5A5A4",
"o- c #7D7D7C",
"p- c #5E5E5D",
"q- c #51504F",
"r- c #535152",
"s- c #494849",
"t- c #9D9D9C",
"u- c #BDBDBA",
"v- c #5E5B52",
"w- c #3B3524",
"x- c #40371C",
"y- c #403E38",
"z- c #3B4978",
"{- c #354F9B",
"|- c #272F6D",
"}- c #28263D",
"~- c #252117",
" . c #44402C",
"!. c #9E9D98",
"#. c #E6E5E5",
"$. c #C9C8C7",
"%. c #646360",
"&. c #3A3A37",
"'. c #878786",
"(. c #CBCACB",
"). c #686766",
"*. c #383733",
"+. c #706F6C",
",. c #A4A3A2",
"-. c #DBDCDB",
".. c #D3D3D2",
"/. c #54504A",
"0. c #2F2819",
"1. c #1E1B1E",
"2. c #344897",
"3. c #394372",
"4. c #3D361D",
"5. c #B2B1AE",
"6. c #DDDDDC",
"7. c #646362",
"8. c #535252",
"9. c #5A5A59",
":. c #575856",
";. c #545552",
"<. c #636461",
"=. c #ADACAB",
">. c #DAD9D8",
"?. c #ECEBEA",
"@. c #CAC9C7",
"A. c #6A6760",
"B. c #423E2F",
"C. c #413B24",
"D. c #3F3E39",
"E. c #3C4670",
"F. c #374C92",
"G. c #273384",
"H. c #282B55",
"I. c #27231E",
"J. c #3F3A24",
"K. c #8D8B86",
"L. c #DEDEDD",
"M. c #787776",
"N. c #484745",
"O. c #3D3D3C",
"P. c #383837",
"Q. c #9D9C9D",
"R. c #3F3F3D",
"S. c #2B2B29",
"T. c #34332E",
"U. c #676662",
"V. c #DDDEDE",
"W. c #6E6B66",
"X. c #373022",
"Y. c #1D1712",
"Z. c #384781",
"[. c #3D3B36",
"]. c #3D3516",
"^. c #4F4C3E",
"_. c #A5A5A2",
"`. c #D3D4D3",
"a. c #DFDFDE",
"b. c #979796",
"c. c #636362",
"d. c #565755",
"e. c #585956",
"f. c #5A5A57",
"g. c #81807E",
"h. c #CDCCCB",
"i. c #F2F1F0",
"j. c #D8D6D5",
"k. c #7F7C77",
"l. c #534F44",
"m. c #46402D",
"n. c #3F3C38",
"o. c #3C4365",
"p. c #384988",
"q. c #292F63",
"r. c #292622",
"s. c #38321A",
"t. c #727069",
"u. c #D6D6D5",
"v. c #8F8D8D",
"w. c #5E5D5C",
"x. c #444441",
"y. c #C4C4C3",
"z. c #191812",
"{. c #7E7C77",
"|. c #3B3528",
"}. c #1C1409",
"~. c #1F1E35",
" / c #374A8E",
"!/ c #3C3C3F",
"#/ c #3D351C",
"$/ c #4D493C",
"%/ c #989793",
"&/ c #C5C6C5",
"'/ c #E0E1E0",
"(/ c #E3E3E2",
")/ c #A3A2A1",
"*/ c #666564",
"+/ c #4C4B4A",
",/ c #C3C3C4",
"-/ c #686967",
"./ c #535452",
"// c #6C6B6A",
"0/ c #94928F",
"1/ c #67645C",
"2/ c #4C4737",
"3/ c #3E3B32",
"4/ c #3D3E4B",
"5/ c #3A456E",
"6/ c #355099",
"7/ c #2A316E",
"8/ c #2D2609",
"9/ c #4A473A",
":/ c #E0E0E1",
";/ c #7F7E7D",
"</ c #4C4B49",
"=/ c #3C3A3A",
">/ c #4C4C4A",
"?/ c #272725",
"@/ c #21201B",
"A/ c #3E392D",
"B/ c #1A1102",
"C/ c #1F1A21",
"D/ c #354B9A",
"E/ c #3A3E5D",
"F/ c #3C3838",
"G/ c #484539",
"H/ c #7A7872",
"I/ c #A7A6A5",
"J/ c #D7D6D6",
"K/ c #ECEBEB",
"L/ c #E6E6E5",
"M/ c #706F6E",
"N/ c #5E5E5F",
"O/ c #777778",
"P/ c #6A6B6A",
"Q/ c #515251",
"R/ c #565555",
"S/ c #6E6D6C",
"T/ c #E5E4E3",
"U/ c #E0E1DE",
"V/ c #B2B2B0",
"W/ c #86847F",
"X/ c #555246",
"Y/ c #3D3825",
"Z/ c #3E361C",
"[/ c #3C3D3E",
"]/ c #374E8C",
"^/ c #293680",
"_/ c #2A2305",
"`/ c #423D30",
"a/ c #BAB8B6",
"b/ c #E4E3E3",
"c/ c #D1D0D0",
"d/ c #A2A19F",
"e/ c #3B3A38",
"f/ c #3B3A39",
"g/ c #222220",
"h/ c #24231F",
"i/ c #4A4946",
"j/ c #9FA09D",
"k/ c #CECFCE",
"l/ c #433E37",
"m/ c #150D00",
"n/ c #1F1819",
"o/ c #37437A",
"p/ c #3C3E56",
"q/ c #413E32",
"r/ c #484438",
"s/ c #74726C",
"t/ c #C9C7C5",
"u/ c #F2F1F1",
"v/ c #5D5C5B",
"w/ c #575656",
"x/ c #565556",
"y/ c #717172",
"z/ c #585756",
"{/ c #514F4E",
"|/ c #E1E1E0",
"}/ c #9E9C98",
"~/ c #5D5950",
" 0 c #3D3826",
"!0 c #3F3719",
"#0 c #3E3D37",
"$0 c #394A80",
"%0 c #3451A5",
"&0 c #2C2C2F",
"'0 c #2B2304",
"(0 c #413C2F",
")0 c #DFDEDF",
"*0 c #E0DFDE",
"+0 c #B3B2B0",
",0 c #585754",
"-0 c #2D2D2A",
".0 c #252421",
"/0 c #464642",
"00 c #C4C5C4",
"10 c #524F4B",
"20 c #1F190F",
"30 c #211A1A",
"40 c #36468A",
"50 c #3E3A30",
"60 c #353123",
"70 c #615E56",
"80 c #C1BFBD",
"90 c #F2F2F1",
":0 c #5A5958",
";0 c #545353",
"<0 c #6E6E6F",
"=0 c #535150",
">0 c #696766",
"?0 c #9A9897",
"@0 c #C1C0BF",
"A0 c #E1E0DF",
"B0 c #DBDAD9",
"C0 c #605D54",
"D0 c #40381E",
"E0 c #403D39",
"F0 c #3B4878",
"G0 c #364E9B",
"H0 c #2B2B33",
"I0 c #2A2204",
"J0 c #3F3A2C",
"K0 c #A3A19F",
"L0 c #E8E7E7",
"M0 c #BEBDBC",
"N0 c #2C2B28",
"O0 c #484847",
"P0 c #969695",
"Q0 c #E1E1E2",
"R0 c #41413F",
"S0 c #30302D",
"T0 c #272621",
"U0 c #44433F",
"V0 c #B7B6B6",
"W0 c #E0DFDF",
"X0 c #C7C6C6",
"Y0 c #6E6D6A",
"Z0 c #39352D",
"[0 c #241F20",
"]0 c #354796",
"^0 c #3A4371",
"_0 c #3E3B30",
"`0 c #383425",
"a0 c #626058",
"b0 c #BCBBB7",
"c0 c #EBEAE9",
"d0 c #EEEDEC",
"e0 c #ACACAB",
"f0 c #858483",
"g0 c #4C4C4D",
"h0 c #6D6D6E",
"i0 c #626260",
"j0 c #828180",
"k0 c #EDEEEC",
"l0 c #BFBFBA",
"m0 c #626057",
"n0 c #3F3821",
"o0 c #413E3A",
"p0 c #3C466F",
"q0 c #2A2B40",
"r0 c #2A2210",
"s0 c #3C3729",
"t0 c #908E8A",
"u0 c #E9E8E7",
"v0 c #63625F",
"w0 c #393A37",
"x0 c #3A3B39",
"y0 c #464746",
"z0 c #333330",
"{0 c #292823",
"|0 c #3B3A36",
"}0 c #62615E",
"~0 c #898A88",
" 1 c #52504A",
"!1 c #282222",
"#1 c #1E2559",
"$1 c #344CA3",
"%1 c #39477E",
"&1 c #3D3B30",
"'1 c #3A3626",
"(1 c #E9E9E8",
")1 c #929290",
"*1 c #5E5E5C",
"+1 c #6B6B6C",
",1 c #60605F",
"-1 c #555654",
".1 c #5C5D5B",
"/1 c #6A6A68",
"01 c #91908F",
"11 c #F6F6F4",
"21 c #CCCBC8",
"31 c #73726B",
"41 c #464236",
"51 c #433D29",
"61 c #403D38",
"71 c #3D4364",
"81 c #394986",
"91 c #292D56",
":1 c #2A2427",
";1 c #383427",
"<1 c #77756F",
"=1 c #777775",
">1 c #2F2E28",
"?1 c #62615C",
"@1 c #C7C7C5",
"A1 c #6D6A66",
"B1 c #2A2421",
"C1 c #1C1A36",
"D1 c #1C2764",
"E1 c #384C8D",
"F1 c #3D3A2E",
"G1 c #9C9B97",
"H1 c #BFBFBE",
"I1 c #AEAEAD",
"J1 c #868685",
"K1 c #545554",
"L1 c #575755",
"M1 c #545251",
"N1 c #7A7978",
"O1 c #F3F2F1",
"P1 c #D3D1D0",
"Q1 c #93928E",
"R1 c #66645B",
"S1 c #4C4736",
"T1 c #3E3B34",
"U1 c #3D3F56",
"V1 c #3A4679",
"W1 c #292E6B",
"X1 c #2B273D",
"Y1 c #332F23",
"Z1 c #56544B",
"[1 c #8A8A86",
"]1 c #D5D5D3",
"^1 c #8E8E8C",
"_1 c #5E5D5B",
"`1 c #454442",
"a1 c #1B1B1B",
"b1 c #818180",
"c1 c #383937",
"d1 c #272723",
"e1 c #171610",
"f1 c #494842",
"g1 c #B5B4B5",
"h1 c #7D7A77",
"i1 c #2C251E",
"j1 c #1C121B",
"k1 c #1D204A",
"l1 c #374D96",
"m1 c #3C3A35",
"n1 c #3D3726",
"o1 c #565349",
"p1 c #898884",
"q1 c #B7B6B5",
"r1 c #E6E5E4",
"s1 c #5F5F5D",
"t1 c #666665",
"u1 c #919190",
"v1 c #4A4948",
"w1 c #6E6C6B",
"x1 c #544F40",
"y1 c #3E392E",
"z1 c #3D3B3F",
"{1 c #3B4262",
"|1 c #34509D",
"}1 c #283282",
"~1 c #2B2C54",
" 2 c #2D2A1E",
"!2 c #302D1F",
"#2 c #64625B",
"$2 c #C9C8C6",
"%2 c #767574",
"&2 c #4B4947",
"'2 c #373534",
"(2 c #1C1A15",
")2 c #4C4A45",
"*2 c #B8B7B5",
"+2 c #82817E",
",2 c #2D251C",
"-2 c #1C0F09",
".2 c #1D1C37",
"/2 c #354B98",
"02 c #3B3C45",
"12 c #3D392B",
"22 c #514D41",
"32 c #787670",
"42 c #D7D6D5",
"52 c #EEEEED",
"62 c #EBEBEA",
"72 c #C0C0BE",
"82 c #62615F",
"92 c #545452",
":2 c #585657",
";2 c #575556",
"<2 c #6B6A69",
"=2 c #BFBDBE",
">2 c #DEDFDE",
"?2 c #59554A",
"@2 c #3D3827",
"A2 c #3E3722",
"B2 c #3C3E43",
"C2 c #354E95",
"D2 c #2A306A",
"E2 c #2A271D",
"F2 c #1E1B0A",
"G2 c #514F46",
"H2 c #C1C0BD",
"I2 c #E3E2E2",
"J2 c #B6B7B6",
"K2 c #4E4D4B",
"L2 c #353432",
"M2 c #2C2B2C",
"N2 c #5A5A5B",
"O2 c #292A27",
"P2 c #1E1C18",
"Q2 c #4B4844",
"R2 c #AEACAB",
"S2 c #D6D5D6",
"T2 c #2D261E",
"U2 c #1B0C00",
"V2 c #1D1A2C",
"W2 c #344B9D",
"X2 c #3B3F5A",
"Y2 c #3E3B31",
"Z2 c #4A4637",
"[2 c #8D8C88",
"]2 c #D0CFCD",
"^2 c #F3F3F2",
"_2 c #F8F8F7",
"`2 c #696867",
"a2 c #5D5D5C",
"b2 c #6C6C6B",
"c2 c #696968",
"d2 c #B4B3B3",
"e2 c #CBCACA",
"f2 c #9E9C99",
"g2 c #5C5950",
"h2 c #3E3616",
"i2 c #3D3C35",
"j2 c #364C8E",
"k2 c #29261F",
"l2 c #221D0C",
"m2 c #B6B5B2",
"n2 c #A9A9A8",
"o2 c #3E3E3D",
"p2 c #272623",
"q2 c #43413E",
"r2 c #C9C8C8",
"s2 c #DBDADB",
"t2 c #B0AEAF",
"u2 c #36302D",
"v2 c #1B0E03",
"w2 c #1C1827",
"x2 c #3A457A",
"y2 c #403E39",
"z2 c #413C26",
"{2 c #403D2F",
"|2 c #6B6962",
"}2 c #C3C2BF",
"~2 c #F0EFEE",
" 3 c #D1D1D0",
"!3 c #A2A1A0",
"#3 c #DDDEDD",
"$3 c #B1B1AD",
"%3 c #64625A",
"&3 c #3F3B2B",
"'3 c #403A20",
"(3 c #384A83",
")3 c #241E0D",
"*3 c #4C4940",
"+3 c #CECDCE",
",3 c #31302E",
"-3 c #323332",
".3 c #565756",
"/3 c #D6D6D7",
"03 c #BDBDBC",
"13 c #22221F",
"23 c #1D1C18",
"33 c #807F7E",
"43 c #565251",
"53 c #211710",
"63 c #171526",
"73 c #38488C",
"83 c #3E3E3C",
"93 c #3E391F",
":3 c #615F56",
";3 c #B2B2AE",
"<3 c #ECECEB",
"=3 c #61605F",
">3 c #828281",
"?3 c #72716F",
"@3 c #F0EEEE",
"A3 c #CAC7C6",
"B3 c #3F3D38",
"C3 c #3A4676",
"D3 c #29262E",
"E3 c #251E0F",
"F3 c #4A463B",
"G3 c #999793",
"H3 c #525351",
"I3 c #939494",
"J3 c #C6C6C7",
"K3 c #E9E9EA",
"L3 c #201F1D",
"M3 c #1F1E1A",
"N3 c #949393",
"O3 c #281F18",
"P3 c #15111C",
"Q3 c #182255",
"R3 c #364A94",
"S3 c #3D3D39",
"T3 c #3E3719",
"U3 c #5E5C53",
"V3 c #A5A5A1",
"W3 c #BFBFBD",
"X3 c #979795",
"Y3 c #605F5D",
"Z3 c #D4D3D1",
"[3 c #3B425E",
"]3 c #344E9A",
"^3 c #292842",
"_3 c #252014",
"`3 c #484435",
"a3 c #92908A",
"b3 c #3A3936",
"c3 c #4D4C4B",
"d3 c #7B7B7A",
"e3 c #2A2A29",
"f3 c #1D1D1A",
"g3 c #21201D",
"h3 c #242320",
"i3 c #2D2720",
"j3 c #140D0A",
"k3 c #18121D",
"l3 c #19193A",
"m3 c #172462",
"n3 c #142369",
"o3 c #354C9C",
"p3 c #3C3C36",
"q3 c #3D3512",
"r3 c #3B3623",
"s3 c #59574E",
"t3 c #C5C5C3",
"u3 c #BEBDBD",
"v3 c #686867",
"w3 c #C2C2C1",
"x3 c #565453",
"y3 c #EEEEEC",
"z3 c #D9D8D6",
"{3 c #AAA9A7",
"|3 c #7E7B76",
"}3 c #534F43",
"~3 c #3E3827",
" 4 c #364E91",
"!4 c #282B57",
"#4 c #262219",
"$4 c #44402E",
"%4 c #85837C",
"&4 c #3B3938",
"'4 c #464544",
"(4 c #8E8E8D",
")4 c #111110",
"*4 c #1A1A19",
"+4 c #21201E",
",4 c #1D1C1A",
"-4 c #0E0D0C",
".4 c #A2A1A1",
"/4 c #6F6D6B",
"04 c #29241B",
"14 c #160900",
"24 c #160C12",
"34 c #151335",
"44 c #141643",
"54 c #14133A",
"64 c #13184C",
"74 c #3D361F",
"84 c #3C3725",
"94 c #888781",
":4 c #B4B4B2",
";4 c #DBDBD9",
"<4 c #515051",
"=4 c #636361",
">4 c #E9EAE8",
"?4 c #DDDEDB",
"@4 c #59554B",
"A4 c #3E3823",
"B4 c #3D3928",
"C4 c #384D88",
"D4 c #272F6B",
"E4 c #27241F",
"F4 c #3F3B26",
"G4 c #A7A6A6",
"H4 c #CFCFCD",
"I4 c #787876",
"J4 c #484846",
"K4 c #3D3D3B",
"L4 c #3C3C3B",
"M4 c #1C1C1C",
"N4 c #161615",
"O4 c #191918",
"P4 c #201E1D",
"Q4 c #1F1D1C",
"R4 c #181513",
"S4 c #312E2C",
"T4 c #6A6969",
"U4 c #36332E",
"V4 c #1A1609",
"W4 c #130D00",
"X4 c #110800",
"Y4 c #100606",
"Z4 c #0F0712",
"[4 c #110817",
"]4 c #140714",
"^4 c #140C27",
"_4 c #112064",
"`4 c #3A4065",
"a4 c #3C3940",
"b4 c #3C382D",
"c4 c #4F4B3C",
"d4 c #75746D",
"e4 c #A2A29F",
"f4 c #F0F0EE",
"g4 c #D5D5D4",
"h4 c #6C6B69",
"i4 c #464442",
"j4 c #C2C2C3",
"k4 c #636160",
"l4 c #3E3B2D",
"m4 c #394B81",
"n4 c #3451A6",
"o4 c #273279",
"p4 c #292724",
"q4 c #38331B",
"r4 c #555349",
"s4 c #8A8986",
"t4 c #8F8F8D",
"u4 c #3C3D3C",
"v4 c #181818",
"w4 c #121212",
"x4 c #1A1A1A",
"y4 c #999998",
"z4 c #B4B5B5",
"{4 c #181817",
"|4 c #1C1B1A",
"}4 c #1C1A19",
"~4 c #191714",
" 5 c #252320",
"!5 c #403E3D",
"#5 c #3D3B38",
"$5 c #1B170F",
"%5 c #1E1A0E",
"&5 c #272218",
"'5 c #2E2823",
"(5 c #2F2926",
")5 c #2C2422",
"*5 c #241918",
"+5 c #190808",
",5 c #13040F",
"-5 c #121647",
".5 c #38437D",
"/5 c #3B3D58",
"05 c #3C3A33",
"15 c #484432",
"25 c #5D5C53",
"35 c #898985",
"45 c #CCCCC9",
"55 c #EFF0EE",
"65 c #7A7977",
"75 c #52504F",
"85 c #545455",
"95 c #7F807F",
":5 c #615F5E",
";5 c #E8E7E6",
"<5 c #3F3C31",
"=5 c #3B4979",
">5 c #364E9C",
"?5 c #28337F",
"@5 c #2C2A28",
"A5 c #2E280F",
"B5 c #302C1E",
"C5 c #64615B",
"D5 c #757572",
"E5 c #434341",
"F5 c #151515",
"G5 c #131313",
"H5 c #444544",
"I5 c #181716",
"J5 c #161614",
"K5 c #141412",
"L5 c #13110F",
"M5 c #181612",
"N5 c #23211C",
"O5 c #222019",
"P5 c #1B180E",
"Q5 c #35322B",
"R5 c #4F4D49",
"S5 c #6C6A68",
"T5 c #757371",
"U5 c #6A6865",
"V5 c #4F4A47",
"W5 c #100205",
"X5 c #120E2C",
"Y5 c #37458A",
"Z5 c #3B4066",
"[5 c #3E3B37",
"]5 c #413B26",
"^5 c #423F33",
"_5 c #6C6B64",
"`5 c #BFBEBB",
"a5 c #EBEBE9",
"b5 c #979694",
"c5 c #6E6E6C",
"d5 c #5A5B59",
"e5 c #555455",
"f5 c #727372",
"g5 c #D2D2D1",
"h5 c #D7D7D6",
"i5 c #BFBFBB",
"j5 c #374C91",
"k5 c #2D2B2B",
"l5 c #2A2307",
"m5 c #1F1B0A",
"n5 c #524F46",
"o5 c #BDBDBB",
"p5 c #8B8B89",
"q5 c #3C3B3A",
"r5 c #232424",
"s5 c #292928",
"t5 c #333432",
"u5 c #2C2B27",
"v5 c #1B1A13",
"w5 c #16150C",
"x5 c #27251C",
"y5 c #44423F",
"z5 c #999A99",
"{5 c #9F9F9C",
"|5 c #747270",
"}5 c #2D2625",
"~5 c #0C0000",
" 6 c #120A1E",
"!6 c #354797",
"#6 c #363123",
"$6 c #5D5A53",
"%6 c #E2E1E0",
"&6 c #DFDEDE",
"'6 c #5F605F",
"(6 c #555354",
")6 c #5A5A58",
"*6 c #464336",
"+6 c #423E34",
",6 c #344F9F",
"-6 c #2C2B2E",
".6 c #2B2305",
"/6 c #241F0C",
"06 c #514F45",
"16 c #B4B2B0",
"26 c #D8D7D7",
"36 c #A9A8A8",
"46 c #3C3B39",
"56 c #353332",
"66 c #575555",
"76 c #191919",
"86 c #171717",
"96 c #939292",
":6 c #717070",
";6 c #181712",
"<6 c #3E3C39",
"=6 c #4C4A48",
">6 c #71706F",
"?6 c #9D9C9B",
"@6 c #373434",
"A6 c #080000",
"B6 c #120A1C",
"C6 c #374681",
"D6 c #3C361C",
"E6 c #393524",
"F6 c #5B584F",
"G6 c #A2A09C",
"H6 c #656463",
"I6 c #757473",
"J6 c #EDECEC",
"K6 c #F0EFEF",
"L6 c #9E9D9A",
"M6 c #716F67",
"N6 c #48453B",
"O6 c #3D3D4B",
"P6 c #3B446D",
"Q6 c #364F99",
"R6 c #2A2205",
"S6 c #4D4B41",
"T6 c #A3A29E",
"U6 c #363433",
"V6 c #CFCECF",
"W6 c #9A9999",
"X6 c #0F0E0C",
"Y6 c #302E2B",
"Z6 c #454341",
"[6 c #6D6C6A",
"]6 c #EBEAEB",
"^6 c #B6B5B6",
"_6 c #3D3C3D",
"`6 c #060100",
"a6 c #110A1A",
"b6 c #364A95",
"c6 c #3B3D54",
"d6 c #3C3730",
"e6 c #393629",
"f6 c #585649",
"g6 c #979791",
"h6 c #504F4F",
"i6 c #D6D7D6",
"j6 c #E7E8E7",
"k6 c #4F4A3C",
"l6 c #3F3722",
"m6 c #3D3E44",
"n6 c #384D8B",
"o6 c #262111",
"p6 c #C6C4C4",
"q6 c #E9E7E7",
"r6 c #C8C6C6",
"s6 c #363534",
"t6 c #8A8989",
"u6 c #616160",
"v6 c #DFDFE0",
"w6 c #1C1C1B",
"x6 c #22211E",
"y6 c #9F9E9E",
"z6 c #ECEBEC",
"{6 c #C2C1C2",
"|6 c #171312",
"}6 c #130C19",
"~6 c #122265",
" 7 c #344B9F",
"!7 c #394068",
"#7 c #3B3943",
"$7 c #3B382E",
"%7 c #514E3E",
"&7 c #7C7B73",
"'7 c #A9A8A5",
"(7 c #DEDDDD",
")7 c #5E5D5D",
"*7 c #8E8D8D",
"+7 c #514B3D",
",7 c #403517",
"-7 c #3F3C36",
".7 c #3A4A82",
"/7 c #3450A8",
"07 c #2A2428",
"17 c #282317",
"27 c #423E2E",
"37 c #646462",
"47 c #3F3F3C",
"57 c #4B4B4A",
"67 c #CFD0D0",
"77 c #676868",
"87 c #111111",
"97 c #131312",
":7 c #CFCFD0",
";7 c #787879",
"<7 c #1A1915",
"=7 c #131210",
">7 c #BFC0C0",
"?7 c #E6E7E7",
"@7 c #CDCECD",
"A7 c #747674",
"B7 c #3A3835",
"C7 c #171017",
"D7 c #10143B",
"E7 c #0F2266",
"F7 c #37437C",
"G7 c #3B3E58",
"H7 c #3E3C36",
"I7 c #443F2D",
"J7 c #4B483C",
"K7 c #777670",
"L7 c #D8D9D7",
"M7 c #F1F2F1",
"N7 c #434342",
"O7 c #565455",
"P7 c #6F6E6E",
"Q7 c #AAA9A6",
"R7 c #514D40",
"S7 c #40371D",
"T7 c #354E9D",
"U7 c #292F6D",
"V7 c #2B283F",
"W7 c #2A261E",
"X7 c #393522",
"Y7 c #161616",
"Z7 c #565657",
"[7 c #8D8D8E",
"]7 c #0A0906",
"^7 c #242221",
"_7 c #605F5E",
"`7 c #8F8F8E",
"a7 c #B2B2B1",
"b7 c #A5A6A4",
"c7 c #686966",
"d7 c #3B3835",
"e7 c #160F11",
"f7 c #0E0A1D",
"g7 c #0E133C",
"h7 c #0B2267",
"i7 c #062169",
"j7 c #041E62",
"k7 c #021E63",
"l7 c #011E63",
"m7 c #001C63",
"n7 c #001B62",
"o7 c #001B61",
"p7 c #001A60",
"q7 c #001D66",
"r7 c #364488",
"s7 c #3B4065",
"t7 c #3D3924",
"u7 c #343023",
"v7 c #5F5D57",
"w7 c #D3D3D1",
"x7 c #F5F5F4",
"y7 c #7E7D7C",
"z7 c #555655",
"{7 c #605F5F",
"|7 c #E4E4E2",
"}7 c #B9B8B4",
"~7 c #5B574D",
" 8 c #423B25",
"!8 c #374C93",
"#8 c #283383",
"$8 c #2B2D56",
"%8 c #2C2A25",
"&8 c #2E2A13",
"'8 c #302D20",
"(8 c #4A4947",
")8 c #141414",
"*8 c #171611",
"+8 c #161510",
",8 c #2B2A25",
"-8 c #494845",
".8 c #2C2927",
"/8 c #191412",
"08 c #100806",
"18 c #0E040A",
"28 c #0C0714",
"38 c #090C22",
"48 c #060D27",
"58 c #040B23",
"68 c #020A21",
"78 c #010A21",
"88 c #000A21",
"98 c #000921",
":8 c #000920",
";8 c #000A22",
"<8 c #000C27",
"=8 c #000E2B",
">8 c #000F2F",
"?8 c #001035",
"@8 c #00134A",
"A8 c #35458C",
"B8 c #3E3A23",
"C8 c #383527",
"D8 c #626059",
"E8 c #CECDCB",
"F8 c #7E7E7D",
"G8 c #CAC8C6",
"H8 c #6D6B62",
"I8 c #47422E",
"J8 c #3D4367",
"K8 c #39498A",
"L8 c #344FA1",
"M8 c #2A306B",
"N8 c #29240A",
"O8 c #1E1B0B",
"P8 c #E5E4E4",
"Q8 c #A4A3A3",
"R8 c #0E0E0E",
"S8 c #0C0C0C",
"T8 c #1C1B16",
"U8 c #0F0E07",
"V8 c #100F08",
"W8 c #13120C",
"X8 c #191713",
"Y8 c #181511",
"Z8 c #0F0A06",
"[8 c #0C0600",
"]8 c #100800",
"^8 c #0D0300",
"_8 c #0B0100",
"`8 c #0A0200",
"a8 c #080200",
"b8 c #050000",
"c8 c #040000",
"d8 c #030000",
"e8 c #020000",
"f8 c #010000",
"g8 c #000000",
"h8 c #000004",
"i8 c #00041B",
"j8 c #00144E",
"k8 c #35489A",
"l8 c #3A4475",
"m8 c #3F3920",
"n8 c #3B3728",
"o8 c #C6C5C3",
"p8 c #656564",
"q8 c #807E77",
"r8 c #4D4938",
"s8 c #3F3C33",
"t8 c #3E3F4E",
"u8 c #364F9C",
"v8 c #2A357E",
"w8 c #2D2C2D",
"x8 c #2A2407",
"y8 c #211D0C",
"z8 c #525047",
"{8 c #BCBBB8",
"|8 c #101010",
"}8 c #191915",
"~8 c #0F0E08",
" 9 c #100F07",
"!9 c #110F07",
"#9 c #110E05",
"$9 c #100C02",
"%9 c #120D00",
"&9 c #140F00",
"'9 c #0B0500",
"(9 c #0C0500",
")9 c #0D0500",
"*9 c #0B0200",
"+9 c #0A0000",
",9 c #090000",
"-9 c #000002",
".9 c #000109",
"/9 c #00071A",
"09 c #000B32",
"19 c #000F55",
"29 c #344EB2",
"39 c #394A8C",
"49 c #3E3D3D",
"59 c #3F371B",
"69 c #3C3727",
"79 c #5F5C55",
"89 c #BBBAB8",
"99 c #E6E7E6",
":9 c #C0BFBF",
";9 c #979696",
"<9 c #565654",
"=9 c #585758",
">9 c #6E6E6D",
"?9 c #D9D9D6",
"@9 c #94938E",
"A9 c #535044",
"B9 c #3E3929",
"C9 c #3E3824",
"D9 c #3C3F48",
"E9 c #374E93",
"F9 c #2C2B30",
"G9 c #241F0D",
"H9 c #D9D8D8",
"I9 c #0A0A0A",
"J9 c #080808",
"K9 c #060606",
"L9 c #050505",
"M9 c #0F0F0F",
"N9 c #20201E",
"O9 c #141310",
"P9 c #0D0C07",
"Q9 c #0E0D06",
"R9 c #0E0D05",
"S9 c #0D0C04",
"T9 c #0F0D04",
"U9 c #121005",
"V9 c #161305",
"W9 c #181506",
"X9 c #0F0C05",
"Y9 c #0C0903",
"Z9 c #110C02",
"[9 c #130B01",
"]9 c #120800",
"^9 c #110600",
"_9 c #100600",
"`9 c #100500",
"a9 c #080500",
"b9 c #070500",
"c9 c #060400",
"d9 c #050300",
"e9 c #040100",
"f9 c #00010E",
"g9 c #00022A",
"h9 c #000E50",
"i9 c #394D9A",
"j9 c #3E3E47",
"k9 c #3F3721",
"l9 c #3D3829",
"m9 c #5A574E",
"n9 c #626263",
"o9 c #A4A3A0",
"p9 c #3E3925",
"q9 c #3F3614",
"r9 c #3E3C35",
"s9 c #394D8A",
"t9 c #3453B1",
"u9 c #2A2B3B",
"v9 c #2A220C",
"w9 c #251F0F",
"x9 c #4C483E",
"y9 c #9F9D99",
"z9 c #565553",
"{9 c #0A0A09",
"|9 c #0B0B0A",
"}9 c #0D0D0D",
"~9 c #10100F",
" : c #141413",
"!: c #141513",
"#: c #10100D",
"$: c #0D0C09",
"%: c #0C0B08",
"&: c #12110B",
"': c #15140E",
"(: c #181710",
"): c #1A1911",
"*: c #1C1B11",
"+: c #1A190E",
",: c #19180A",
"-: c #1A1707",
".: c #1A1604",
"/: c #191502",
"0: c #181401",
"1: c #171300",
"2: c #171200",
"3: c #161100",
"4: c #161000",
"5: c #160F00",
"6: c #150E00",
"7: c #0F0600",
"8: c #0B0300",
"9: c #000003",
":: c #000009",
";: c #000311",
"<: c #00081B",
"=: c #001645",
">: c #384C9E",
"?: c #3D4161",
"@: c #3F3B3E",
"A: c #403C33",
"B: c #504D42",
"C: c #888682",
"D: c #D5D3D2",
"E: c #F1EFEF",
"F: c #F0EEEF",
"G: c #C7C5C6",
"H: c #747373",
"I: c #C7C7C8",
"J: c #A1A0A0",
"K: c #B9B7B5",
"L: c #5F5B53",
"M: c #40391E",
"N: c #3B4A7E",
"O: c #3650A2",
"P: c #292C58",
"Q: c #292328",
"R: c #484436",
"S: c #92908B",
"T: c #3D3C3B",
"U: c #A8A8A9",
"V: c #CECECF",
"W: c #070707",
"X: c #0B0B0B",
"Y: c #171716",
"Z: c #191817",
"[: c #1A1917",
"]: c #1B1A17",
"^: c #1B1B14",
"_: c #1B1A11",
"`: c #1B190F",
"a: c #1A180C",
"b: c #191709",
"c: c #181707",
"d: c #181705",
"e: c #191603",
"f: c #171400",
"g: c #181200",
"h: c #181100",
"i: c #160E00",
"j: c #0F0700",
"k: c #040200",
"l: c #00051B",
"m: c #000F50",
"n: c #374EA4",
"o: c #3C467E",
"p: c #40425C",
"q: c #464234",
"r: c #62605A",
"s: c #F5F4F4",
"t: c #F6F5F5",
"u: c #7A7878",
"v: c #D1D0CF",
"w: c #636059",
"x: c #393426",
"y: c #403924",
"z: c #42403E",
"{: c #3D4773",
"|: c #394D95",
"}: c #3450A4",
"~: c #282F6F",
" ; c #29273F",
"!; c #26221A",
"#; c #44402F",
"$; c #85837D",
"%; c #040404",
"&; c #090909",
"'; c #1E1E1D",
"(; c #1E1D1D",
"); c #1D1C1B",
"*; c #1C1C19",
"+; c #1B1B18",
",; c #1B1B16",
"-; c #1A1914",
".; c #191813",
"/; c #191811",
"0; c #18170E",
"1; c #18160C",
"2; c #17160B",
"3; c #171609",
"4; c #181505",
"5; c #161403",
"6; c #161302",
"7; c #161301",
"8; c #181400",
"9; c #191500",
":; c #191300",
";; c #150C00",
"<; c #0C0700",
"=; c #020100",
">; c #001157",
"?; c #364FA9",
"@; c #3B4A91",
"A; c #40466F",
"B; c #454344",
"C; c #433F2E",
"D; c #57544D",
"E; c #C3C1C0",
"F; c #717170",
"G; c #F1F2F2",
"H; c #F2F3F3",
"I; c #898888",
"J; c #74726D",
"K; c #474338",
"L; c #453F2C",
"M; c #423F3A",
"N; c #3F4361",
"O; c #3B4984",
"P; c #3650A1",
"Q; c #272422",
"R; c #3F3B28",
"S; c #72706A",
"T; c #A7A6A7",
"U; c #3F3E3D",
"V; c #1B1B1A",
"W; c #1B1B19",
"X; c #1A1A18",
"Y; c #191A17",
"Z; c #191815",
"[; c #181714",
"]; c #181610",
"^; c #18150F",
"_; c #17160E",
"`; c #16160C",
"a; c #17150B",
"b; c #17150A",
"c; c #171308",
"d; c #171407",
"e; c #171405",
"f; c #171404",
"g; c #171403",
"h; c #171402",
"i; c #171401",
"j; c #110B00",
"k; c #000005",
"l; c #000E38",
"m; c #3650AD",
"n; c #3B4FA3",
"o; c #404B81",
"p; c #454448",
"q; c #59564F",
"r; c #BEBDBB",
"s; c #EBEAEA",
"t; c #868585",
"u; c #DBDADA",
"v; c #545451",
"w; c #7A7A78",
"x; c #CBCBC9",
"y; c #DEDFDD",
"z; c #949290",
"{; c #67655D",
"|; c #4E4A3A",
"}; c #403C32",
"~; c #3F3D46",
" < c #3C4369",
"!< c #374F9C",
"#< c #282E66",
"$< c #292727",
"%< c #38331E",
"&< c #55534B",
"'< c #191A18",
"(< c #191917",
")< c #181715",
"*< c #171614",
"+< c #171613",
",< c #171512",
"-< c #171511",
".< c #161610",
"/< c #16160F",
"0< c #17150E",
"1< c #17150D",
"2< c #17140C",
"3< c #17140B",
"4< c #171409",
"5< c #171406",
"6< c #161303",
"7< c #171302",
"8< c #181300",
"9< c #1C1400",
":< c #050200",
";< c #00091E",
"<< c #3751B1",
"=< c #3C53B1",
">< c #404F8F",
"?< c #45464B",
"@< c #45402D",
"A< c #58564E",
"B< c #B2B1AF",
"C< c #BEBEBD",
"D< c #686767",
"E< c #A3A3A2",
"F< c #ACADAD",
"G< c #4B4A48",
"H< c #6E6E6B",
"I< c #E0E0DE",
"J< c #ACAAA9",
"K< c #807D78",
"L< c #555145",
"M< c #3F3B2D",
"N< c #3F3A31",
"O< c #3D4054",
"P< c #394F95",
"Q< c #3454B2",
"R< c #29306B",
"S< c #2C2A29",
"T< c #2E2910",
"U< c #302C1F",
"V< c #4A4A47",
"W< c #181917",
"X< c #181816",
"Y< c #171715",
"Z< c #171514",
"[< c #161613",
"]< c #161612",
"^< c #151511",
"_< c #151510",
"`< c #16150F",
"a< c #16150E",
"b< c #16150D",
"c< c #16140C",
"d< c #16130B",
"e< c #16130A",
"f< c #161308",
"g< c #171301",
"h< c #191400",
"i< c #0D0600",
"j< c #00030A",
"k< c #00123A",
"l< c #3752B4",
"m< c #3C57BB",
"n< c #405399",
"o< c #44464C",
"p< c #45402B",
"q< c #9E9E9C",
"r< c #CBCBCA",
"s< c #9E9E9D",
"t< c #6B6B69",
"u< c #8F8D89",
"v< c #3F3A2A",
"w< c #403922",
"x< c #3E3F43",
"y< c #3A4E8C",
"z< c #3654AE",
"{< c #2A3275",
"|< c #2D2B2C",
"}< c #2A2408",
"~< c #1F1B0B",
" = c #524F47",
"!= c #8B8B8A",
"#= c #5B5A5A",
"$= c #030303",
"%= c #171616",
"&= c #161715",
"'= c #151613",
"(= c #151512",
")= c #151412",
"*= c #161511",
"+= c #15140F",
",= c #15140D",
"-= c #16140B",
".= c #17140A",
"/= c #070300",
"0= c #00091D",
"1= c #3753B8",
"2= c #3C58C1",
"3= c #4054A0",
"4= c #434857",
"5= c #454234",
"6= c #53514A",
"7= c #8C8C88",
"8= c #B7B7B5",
"9= c #6D6D6B",
":= c #3D3929",
";= c #3F403C",
"<= c #3C4D85",
"== c #3852A9",
">= c #293581",
"?= c #231F0E",
"@= c #535048",
"A= c #C7C6C4",
"B= c #333232",
"C= c #161514",
"D= c #161513",
"E= c #16140D",
"F= c #140E00",
"G= c #0A0500",
"H= c #000718",
"I= c #3754BB",
"J= c #3B57C0",
"K= c #3F54A4",
"L= c #444A69",
"M= c #464547",
"N= c #504F4A",
"O= c #7A7976",
"P= c #A4A4A2",
"Q= c #6F6F6E",
"R= c #4A4A48",
"S= c #B4B3B1",
"T= c #616058",
"U= c #3A3828",
"V= c #403B22",
"W= c #41413E",
"X= c #3D4B7D",
"Y= c #39509F",
"Z= c #2C2B31",
"[= c #2B2306",
"]= c #24200F",
"^= c #514E46",
"_= c #C1C0BE",
"`= c #302E2C",
"a= c #3A3837",
"b= c #3B3A3A",
"c= c #161617",
"d= c #171516",
"e= c #161516",
"f= c #151516",
"g= c #151615",
"h= c #151614",
"i= c #161414",
"j= c #151513",
"k= c #141512",
"l= c #161512",
"m= c #161404",
"n= c #171502",
"o= c #181601",
"p= c #161200",
"q= c #100A00",
"r= c #030200",
"s= c #000510",
"t= c #00164F",
"u= c #354CA6",
"v= c #384EA2",
"w= c #3C4F9B",
"x= c #404E85",
"y= c #444962",
"z= c #46464B",
"{= c #70706C",
"|= c #F7F7F6",
"}= c #636462",
"~= c #EEEDED",
" > c #C2C1C0",
"!> c #6C6B65",
"#> c #423F32",
"$> c #433E29",
"%> c #3F4974",
"&> c #3B4F96",
"'> c #252010",
"(> c #4A473D",
")> c #AFAEAB",
"*> c #E7E6E6",
"+> c #5F5E5C",
",> c #141415",
"-> c #141514",
".> c #151514",
"/> c #15150D",
"0> c #171306",
"1> c #130E00",
"2> c #000103",
"3> c #010511",
"4> c #021540",
"5> c #343C6B",
"6> c #373B59",
"7> c #3B3B41",
"8> c #3F3D37",
"9> c #42403A",
":> c #44423D",
";> c #4F4E4A",
"<> c #706F6D",
"=> c #4B4A4A",
">> c #797978",
"?> c #CFCECC",
"@> c #8A8885",
"A> c #5E5B53",
"B> c #423F39",
"C> c #40445C",
"D> c #3D4A7E",
"E> c #3651A6",
"F> c #918F8B",
"G> c #16150A",
"H> c #181404",
"I> c #191501",
"J> c #040F2C",
"K> c #283063",
"L> c #292B42",
"M> c #2A2A30",
"N> c #2B2B2F",
"O> c #302F2A",
"P> c #302F2B",
"Q> c #302E2A",
"R> c #322F28",
"S> c #353025",
"T> c #363226",
"U> c #36332A",
"V> c #595856",
"W> c #505051",
"X> c #49494A",
"Y> c #6F6E6D",
"Z> c #AAA9A8",
"[> c #7E7C78",
"]> c #555147",
"^> c #403C2E",
"_> c #413B2B",
"`> c #3F424E",
"a> c #3852A1",
"b> c #282F6E",
"c> c #2A2840",
"d> c #393423",
"e> c #73716B",
"f> c #3B3B3C",
"g> c #010101",
"h> c #15150F",
"i> c #181407",
"j> c #191504",
"k> c #171202",
"l> c #140B01",
"m> c #0E0600",
"n> c #030100",
"o> c #050D27",
"p> c #27326C",
"q> c #282536",
"r> c #292013",
"s> c #2A1F02",
"t> c #2B2003",
"u> c #2B2203",
"v> c #2D2607",
"w> c #363017",
"x> c #3E3924",
"y> c #464231",
"z> c #4C493C",
"{> c #514D45",
"|> c #55524C",
"}> c #585751",
"~> c #666561",
" ? c #838281",
"!? c #E9EAE9",
"#? c #8F8F8C",
"$? c #5A584F",
"%? c #403B2A",
"&? c #42391B",
"'? c #41403D",
"(? c #39529B",
")? c #3451AD",
"*? c #273284",
"+? c #2A2C57",
",? c #2C2926",
"-? c #2E2913",
".? c #4F4D43",
"/? c #757574",
"0? c #020202",
"1? c #17150C",
"2? c #191404",
"3? c #1A1401",
"4? c #070B22",
"5? c #0A2065",
"6? c #242E68",
"7? c #252C5D",
"8? c #262A4E",
"9? c #272739",
":? c #28252C",
";? c #282627",
"<? c #282527",
"=? c #272424",
">? c #26211C",
"?? c #251F14",
"@? c #261F0B",
"A? c #261F07",
"B? c #251E08",
"C? c #231D07",
"D? c #28230F",
"E? c #434034",
"F? c #5C5951",
"G? c #75736C",
"H? c #85847F",
"I? c #8E8C89",
"J? c #999896",
"K? c #CECDCD",
"L? c #E9E8E8",
"M? c #EAEAE9",
"N? c #51514E",
"O? c #6C6C6A",
"P? c #9D9D9A",
"Q? c #5E5C54",
"R? c #403B2C",
"S? c #433B22",
"T? c #3B5094",
"U? c #3553AA",
"V? c #2D2A2A",
"W? c #29230A",
"X? c #3F3B30",
"Y? c #333331",
"Z? c #191607",
"[? c #1C1904",
"]? c #060000",
"^? c #090717",
"_? c #0C1645",
"`? c #182666",
"a? c #172363",
"b? c #162263",
"c? c #152162",
"d? c #152060",
"e? c #14236A",
"f? c #243069",
"g? c #25284E",
"h? c #25233A",
"i? c #25212F",
"j? c #251F1F",
"k? c #261C0A",
"l? c #261B00",
"m? c #281F03",
"n? c #302810",
"o? c #372F1A",
"p? c #423C28",
"q? c #413D29",
"r? c #45412F",
"s? c #4C4839",
"t? c #504D40",
"u? c #59574C",
"v? c #75746F",
"w? c #8E8D8A",
"x? c #B6B6B5",
"y? c #BCBBBB",
"z? c #C6C5C5",
"{? c #D4D3D3",
"|? c #C0C1C0",
"}? c #B3B4B3",
"~? c #7A7A7B",
" @ c #535350",
"!@ c #696966",
"#@ c #615F58",
"$@ c #433C28",
"%@ c #434243",
"&@ c #3D4E8D",
"'@ c #3753A9",
"(@ c #2B292D",
")@ c #282107",
"*@ c #403C30",
"+@ c #32302E",
",@ c #161412",
"-@ c #18160B",
".@ c #1B1808",
"/@ c #171305",
"0@ c #0B0501",
"1@ c #080100",
"2@ c #0A0308",
"3@ c #0E0817",
"4@ c #111339",
"5@ c #14256C",
"6@ c #181B46",
"7@ c #1A1630",
"8@ c #1B192D",
"9@ c #1B1524",
":@ c #181122",
";@ c #160E21",
"<@ c #150C21",
"=@ c #150B21",
">@ c #170A20",
"?@ c #171032",
"@@ c #152267",
"A@ c #252E66",
"B@ c #262640",
"C@ c #27232C",
"D@ c #27242A",
"E@ c #252229",
"F@ c #231E1A",
"G@ c #231D13",
"H@ c #221C10",
"I@ c #221A0B",
"J@ c #211804",
"K@ c #1F1700",
"L@ c #231E0A",
"M@ c #3F3C2F",
"N@ c #58554C",
"O@ c #7D7B74",
"P@ c #7A7871",
"Q@ c #B1AFAB",
"R@ c #C1BFBC",
"S@ c #CDCCC9",
"T@ c #DCDBDB",
"U@ c #606061",
"V@ c #C0BFBC",
"W@ c #3A362A",
"X@ c #423C2A",
"Y@ c #444344",
"Z@ c #3E4D86",
"[@ c #3853A8",
"]@ c #3453AD",
"^@ c #2A2930",
"_@ c #282005",
"`@ c #3F3B2E",
"a@ c #D7D8D8",
"b@ c #504E4C",
"c@ c #B2B2B3",
"d@ c #19160D",
"e@ c #181508",
"f@ c #0F0902",
"g@ c #0A0300",
"h@ c #100300",
"i@ c #130A16",
"j@ c #141741",
"k@ c #161841",
"l@ c #170C16",
"m@ c #170700",
"n@ c #180A00",
"o@ c #170A00",
"p@ c #1B0E05",
"q@ c #23160F",
"r@ c #271914",
"s@ c #261815",
"t@ c #221210",
"u@ c #1B0805",
"v@ c #180810",
"w@ c #171A49",
"x@ c #253069",
"y@ c #26284C",
"z@ c #262541",
"{@ c #252648",
"|@ c #252238",
"}@ c #251B13",
"~@ c #251800",
" A c #271B03",
"!A c #2E2410",
"#A c #332B18",
"$A c #37301D",
"%A c #3A3421",
"&A c #413C2A",
"'A c #484333",
"(A c #4C4738",
")A c #72716B",
"*A c #8C8B89",
"+A c #B1B1AF",
",A c #AEAEAC",
"-A c #B8B8B6",
".A c #6C6D6D",
"/A c #606161",
"0A c #454646",
"1A c #75736E",
"2A c #474232",
"3A c #454240",
"4A c #404976",
"5A c #3953A4",
"6A c #3554AF",
"7A c #282833",
"8A c #271F04",
"9A c #3B382B",
":A c #A1A19E",
";A c #161413",
"<A c #171612",
"=A c #181611",
">A c #1A1710",
"?A c #1A180B",
"@A c #141002",
"AA c #0C0400",
"BA c #130B07",
"CA c #120E16",
"DA c #120D16",
"EA c #110907",
"FA c #110700",
"GA c #1A130F",
"HA c #39332E",
"IA c #49433D",
"JA c #4A443E",
"KA c #3D352F",
"LA c #241810",
"MA c #180A05",
"NA c #19142E",
"OA c #262E66",
"PA c #272740",
"QA c #27242D",
"RA c #27262D",
"SA c #26242A",
"TA c #252223",
"UA c #26211A",
"VA c #251F16",
"WA c #231E18",
"XA c #211C13",
"YA c #201906",
"ZA c #1E1600",
"[A c #241C0A",
"]A c #3F3A2F",
"^A c #524E46",
"_A c #6B6861",
"`A c #74716A",
"aA c #85827C",
"bA c #9E9C97",
"cA c #ADACA7",
"dA c #B7B6B2",
"eA c #D2D2D0",
"fA c #DFDFDD",
"gA c #DFE0DE",
"hA c #9C9C9A",
"iA c #666663",
"jA c #575754",
"kA c #5B5A59",
"lA c #4B4C4C",
"mA c #646363",
"nA c #F2F3F2",
"oA c #949390",
"pA c #68665F",
"qA c #4F4C3F",
"rA c #434038",
"sA c #40445E",
"tA c #3C529E",
"uA c #3856B3",
"vA c #272841",
"wA c #261F0F",
"xA c #393529",
"yA c #979692",
"zA c #434242",
"{A c #1B1912",
"|A c #1B1A0F",
"}A c #181107",
"~A c #231C15",
" B c #2C2520",
"!B c #332E28",
"#B c #39342E",
"$B c #3D3935",
"%B c #403D3D",
"&B c #514E4E",
"'B c #706F6B",
"(B c #7F7E79",
")B c #7E7D78",
"*B c #2E271E",
"+B c #160B00",
",B c #1B131D",
"-B c #262D5E",
".B c #262A54",
"/B c #25294E",
"0B c #252438",
"1B c #261D13",
"2B c #261A00",
"3B c #271D03",
"4B c #2F2611",
"5B c #322A15",
"6B c #312B14",
"7B c #342E18",
"8B c #3B3521",
"9B c #494433",
":B c #4B4737",
";B c #514C41",
"<B c #716F6B",
"=B c #868583",
">B c #939291",
"?B c #9F9E9D",
"@B c #A8A7A7",
"AB c #D0D0D1",
"BB c #C6C6C3",
"CB c #BEBEBB",
"DB c #B7B7B4",
"EB c #989796",
"FB c #747371",
"GB c #3D3C3C",
"HB c #62605F",
"IB c #EDEEED",
"JB c #ABABA9",
"KB c #7F7F7A",
"LB c #565449",
"MB c #423E33",
"NB c #42424C",
"OB c #3E5298",
"PB c #3957B4",
"QB c #252B63",
"RB c #242131",
"SB c #353228",
"TB c #898782",
"UB c #C2C2C0",
"VB c #5B5A57",
"WB c #191914",
"XB c #1A1A13",
"YB c #110E06",
"ZB c #0D0900",
"[B c #0E0A01",
"]B c #221F17",
"^B c #A9A7A6",
"_B c #B8B6B6",
"`B c #969692",
"aB c #3D3931",
"bB c #140D00",
"cB c #1E1814",
"dB c #202A5B",
"eB c #202C69",
"fB c #212751",
"gB c #222130",
"hB c #241F1F",
"iB c #25211D",
"jB c #262119",
"kB c #28231A",
"lB c #2C271D",
"mB c #302B21",
"nB c #332F26",
"oB c #353226",
"pB c #383321",
"qB c #393420",
"rB c #5D5951",
"sB c #686560",
"tB c #65635D",
"uB c #706E69",
"vB c #878582",
"wB c #B4B3B0",
"xB c #BCBBB9",
"yB c #BBB9B8",
"zB c #CCCBCA",
"{B c #CCCCCA",
"|B c #BEBEBC",
"}B c #A3A3A1",
"~B c #888785",
" C c #454440",
"!C c #41403E",
"#C c #403F3D",
"$C c #4D4E4E",
"%C c #B5B5B4",
"&C c #61615F",
"'C c #989894",
"(C c #5C5B53",
")C c #40518E",
"*C c #3C56AF",
"+C c #3753AC",
",C c #3552AB",
"-C c #242756",
".C c #312E28",
"/C c #CDCCCC",
"0C c #42423F",
"1C c #676565",
"2C c #CCCACA",
"3C c #E2E0E0",
"4C c #686869",
"5C c #161714",
"6C c #191816",
"7C c #1A1916",
"8C c #1C1B18",
"9C c #1C1B17",
":C c #0D0B01",
";C c #211E16",
"<C c #42403D",
"=C c #787777",
">C c #C5C4C4",
"?C c #DCDDDC",
"@C c #D5D6D6",
"AC c #BEBFBE",
"BC c #91908D",
"CC c #3C392F",
"DC c #161201",
"EC c #242119",
"FC c #232121",
"GC c #201E24",
"HC c #1F1C22",
"IC c #1E1A1C",
"JC c #1D1813",
"KC c #1E1606",
"LC c #1D1600",
"MC c #1B1400",
"NC c #262010",
"OC c #706D67",
"PC c #84827C",
"QC c #94938D",
"RC c #AAA9A5",
"SC c #CFCDCD",
"TC c #D2D1D0",
"UC c #C9CAC8",
"VC c #BDBEBC",
"WC c #A1A19F",
"XC c #8C8C8A",
"YC c #7F7F7D",
"ZC c #6F6E6C",
"[C c #5C5B58",
"]C c #51504D",
"^C c #4D4C48",
"_C c #4A4945",
"`C c #403F3C",
"aC c #383734",
"bC c #31322F",
"cC c #787877",
"dC c #8F8E8E",
"eC c #999898",
"fC c #9D9B9C",
"gC c #C5C3C4",
"hC c #B4B4B1",
"iC c #63615A",
"jC c #3D392E",
"kC c #424F82",
"lC c #3E54A4",
"mC c #3955AB",
"nC c #3755AF",
"oC c #242965",
"pC c #2C2923",
"qC c #878684",
"rC c #D3D2D2",
"sC c #90908F",
"tC c #232322",
"uC c #C3C2C2",
"vC c #838382",
"wC c #1A1918",
"xC c #1C1B19",
"yC c #13120B",
"zC c #100E06",
"{C c #120F07",
"|C c #1D1A13",
"}C c #D1D2D1",
"~C c #B5B6B4",
" D c #A4A5A3",
"!D c #9F9F9D",
"#D c #868684",
"$D c #434139",
"%D c #221F11",
"&D c #24200A",
"'D c #241E06",
"(D c #261F08",
")D c #2B2311",
"*D c #31291A",
"+D c #3C3728",
",D c #3E3A2A",
"-D c #494436",
".D c #4D493D",
"/D c #72716E",
"0D c #8B8A8A",
"1D c #E3E4E2",
"2D c #D3D4D2",
"3D c #CACBC9",
"4D c #999997",
"5D c #5D5C5A",
"6D c #504F4D",
"7D c #393737",
"8D c #ACABAB",
"9D c #C3C2C0",
":D c #6E6C67",
";D c #454138",
"<D c #46443F",
"=D c #434D79",
">D c #40539A",
"?D c #3B56A9",
"@D c #3857B1",
"AD c #242A6B",
"BD c #25221B",
"CD c #282417",
"DD c #5D5B56",
"ED c #C6C6C4",
"FD c #232324",
"GD c #151517",
"HD c #0F0F10",
"ID c #181717",
"JD c #191818",
"KD c #1A1919",
"LD c #18160F",
"MD c #1B1A14",
"ND c #44433E",
"OD c #6D6C6B",
"PD c #575652",
"QD c #393730",
"RD c #221D0D",
"SD c #2B2618",
"TD c #6E6B67",
"UD c #85837E",
"VD c #908F89",
"WD c #A6A5A0",
"XD c #BBB9B6",
"YD c #C4C3C1",
"ZD c #DDDCDB",
"[D c #DADBDA",
"]D c #949391",
"^D c #959492",
"_D c #848380",
"`D c #61605D",
"aD c #504F4B",
"bD c #4D4C49",
"cD c #3E3D3A",
"dD c #363432",
"eD c #343230",
"fD c #343231",
"gD c #31312E",
"hD c #2D2D2B",
"iD c #2C2B2A",
"jD c #646465",
"kD c #A9A9A7",
"lD c #626161",
"mD c #595958",
"nD c #817F7B",
"oD c #56534B",
"pD c #494742",
"qD c #444B70",
"rD c #415191",
"sD c #3D56A8",
"tD c #3B59B3",
"uD c #222C75",
"vD c #221E19",
"wD c #151001",
"xD c #49463F",
"yD c #E7E7E8",
"zD c #939391",
"{D c #4A4846",
"|D c #292725",
"}D c #727271",
"~D c #1B1B1E",
" E c #181713",
"!E c #14120E",
"#E c #262521",
"$E c #4F4F4C",
"%E c #1F1E19",
"&E c #6B6A68",
"'E c #393934",
"(E c #28261D",
")E c #232116",
"*E c #3A382F",
"+E c #676763",
",E c #B4B3B4",
"-E c #DAD9D9",
".E c #B1B2B0",
"/E c #646361",
"0E c #353531",
"1E c #272722",
"2E c #32312E",
"3E c #383635",
"4E c #69696A",
"5E c #4E4E4F",
"6E c #959491",
"7E c #696861",
"8E c #4D4B44",
"9E c #45475A",
":E c #434E7B",
";E c #3F57A3",
"<E c #3D5BB7",
"=E c #212F83",
">E c #221D1C",
"?E c #181302",
"@E c #B8B7B4",
"AE c #999897",
"BE c #262623",
"CE c #4B4B49",
"DE c #51514F",
"EE c #212120",
"FE c #404041",
"GE c #757576",
"HE c #303032",
"IE c #202022",
"JE c #171718",
"KE c #111115",
"LE c #0D0D11",
"ME c #0B0B0C",
"NE c #141515",
"OE c #161515",
"PE c #171816",
"QE c #1E1E1C",
"RE c #1F1E1C",
"SE c #191916",
"TE c #20201C",
"UE c #262522",
"VE c #434241",
"WE c #24231D",
"XE c #26251E",
"YE c #292822",
"ZE c #54534F",
"[E c #848381",
"]E c #605F5C",
"^E c #535250",
"_E c #51504E",
"`E c #4D4B49",
"aE c #43423F",
"bE c #444340",
"cE c #353532",
"dE c #2D2C2A",
"eE c #2B2928",
"fE c #D9D9D7",
"gE c #464238",
"hE c #44495A",
"iE c #41569D",
"jE c #3F5DBE",
"kE c #211D1F",
"lE c #1C1705",
"mE c #413E31",
"nE c #8E8D87",
"oE c #AEADAB",
"pE c #A1A09E",
"qE c #7C7C79",
"rE c #5B5B5C",
"sE c #252526",
"tE c #262627",
"uE c #373738",
"vE c #2A2A2D",
"wE c #212123",
"xE c #181819",
"yE c #111112",
"zE c #101013",
"{E c #0F0F12",
"|E c #0E0E0F",
"}E c #161415",
"~E c #21201F",
" F c #1E1E1B",
"!F c #22211F",
"#F c #252422",
"$F c #292824",
"%F c #585855",
"&F c #BAB8B7",
"'F c #AFAEAD",
"(F c #6A6967",
")F c #35342F",
"*F c #2A2927",
"+F c #2F2D2A",
",F c #91918E",
"-F c #545148",
".F c #47402A",
"/F c #46474B",
"0F c #435696",
"1F c #415DBB",
"2F c #211C22",
"3F c #211B08",
"4F c #2C2819",
"5F c #413E34",
"6F c #4A4841",
"7F c #474540",
"8F c #30302C",
"9F c #353536",
":F c #313135",
";F c #2E2E33",
"<F c #242426",
"=F c #1F1F20",
">F c #1E1E20",
"?F c #1A1A1C",
"@F c #131314",
"AF c #1A1A1B",
"BF c #151414",
"CF c #151415",
"DF c #20201D",
"EF c #1F1F1C",
"FF c #1D1D1B",
"GF c #686666",
"HF c #92918F",
"IF c #AFAEAE",
"JF c #838381",
"KF c #5E5C59",
"LF c #4D4B47",
"MF c #4F4D4A",
"NF c #3F3E3A",
"OF c #373633",
"PF c #A3A2A3",
"QF c #A8A7A8",
"RF c #4B4B4C",
"SF c #535354",
"TF c #9F9E9C",
"UF c #56544C",
"VF c #474231",
"WF c #47494F",
"XF c #445490",
"YF c #425AB0",
"ZF c #201C2E",
"[F c #231D0C",
"]F c #221E0B",
"^F c #1D190C",
"_F c #1A180E",
"`F c #1E1E18",
"aF c #252521",
"bF c #242425",
"cF c #2D2D31",
"dF c #202021",
"eF c #1B1B1C",
"fF c #1A1B19",
"gF c #1C1D1C",
"hF c #1E1F1E",
"iF c #282827",
"jF c #7F7E7E",
"kF c #9B999A",
"lF c #22211C",
"mF c #383732",
"nF c #696865",
"oF c #696A68",
"pF c #4F504E",
"qF c #1D1B17",
"rF c #23231F",
"sF c #2B2927",
"tF c #2D2B29",
"uF c #484947",
"vF c #4D4E4D",
"wF c #A5A5A6",
"xF c #DADADB",
"yF c #272828",
"zF c #2A2B2B",
"{F c #C1C1C0",
"|F c #58564F",
"}F c #494A50",
"~F c #465389",
" G c #4457A5",
"!G c #1C1E4B",
"#G c #211A11",
"$G c #211B06",
"%G c #1F1B0D",
"&G c #26231A",
"'G c #36342D",
"(G c #3A3935",
")G c #2C2B29",
"*G c #313132",
"+G c #252527",
",G c #19191A",
"-G c #D0D1D0",
".G c #D2D3D2",
"/G c #2D2E2B",
"0G c #2B2C2A",
"1G c #454543",
"2G c #B7B7B8",
"3G c #F1F0EF",
"4G c #4B473B",
"5G c #4B4B4F",
"6G c #48517A",
"7G c #46548F",
"8G c #1B236B",
"9G c #1C1502",
":G c #151005",
";G c #999795",
"<G c #9E9D9C",
"=G c #2F2F32",
">G c #262628",
"?G c #1D1D1E",
"@G c #BDBDBE",
"AG c #212221",
"BG c #20201F",
"CG c #424141",
"DG c #5B595A",
"EG c #7F7F7E",
"FG c #7C7C7B",
"GG c #484849",
"HG c #515152",
"IG c #83827F",
"JG c #55534A",
"KG c #494C5E",
"LG c #494E69",
"MG c #19277F",
"NG c #1C1823",
"OG c #191000",
"PG c #46433D",
"QG c #242422",
"RG c #2B2C2F",
"SG c #242526",
"TG c #282929",
"UG c #212122",
"VG c #222221",
"WG c #4B4A49",
"XG c #8C8B8C",
"YG c #A5A4A5",
"ZG c #B0B0B1",
"[G c #ADADAE",
"]G c #99999A",
"^G c #989895",
"_G c #5C5A54",
"`G c #4A4B4F",
"aG c #4B4C55",
"bG c #1A182B",
"cG c #0F0900",
"dG c #DCDCDD",
"eG c #242322",
"fG c #939394",
"gG c #CCCCCD",
"hG c #EBEBEC",
"iG c #232325",
"jG c #1F2020",
"kG c #1E1F1F",
"lG c #3F3F3E",
"mG c #AAA9A9",
"nG c #ADACAC",
"oG c #C4C3C4",
"pG c #D2D1D2",
"qG c #AEAEAF",
"rG c #555556",
"sG c #A6A6A4",
"tG c #605F5B",
"uG c #484742",
"vG c #4B4A46",
"wG c #4C4B48",
"xG c #181630",
"yG c #150A00",
"zG c #0E0700",
"{G c #3B3834",
"|G c #9D9D9B",
"}G c #D4D5D5",
"~G c #BEBFBF",
" H c #222223",
"!H c #202121",
"#H c #1E2020",
"$H c #252424",
"%H c #484747",
"&H c #90908E",
"'H c #E5E5E3",
"(H c #474541",
")H c #4C4942",
"*H c #4E4B43",
"+H c #161534",
",H c #140700",
"-H c #373330",
".H c #CCCDCD",
"/H c #9E9F9F",
"0H c #ABACAC",
"1H c #494A4A",
"2H c #29292A",
"3H c #626261",
"4H c #C5C4C5",
"5H c #4C4B45",
"6H c #4F4E48",
"7H c #141642",
"8H c #12080D",
"9H c #0C0504",
":H c #302C2A",
";H c #7F7D7D",
"<H c #676765",
"=H c #262525",
">H c #323233",
"?H c #868485",
"@H c #737271",
"AH c #4F4E49",
"BH c #121959",
"CH c #110C26",
"DH c #0C070D",
"EH c #282421",
"FH c #656363",
"GH c #9B9A9C",
"HH c #1B1A19",
"IH c #2F2E2E",
"JH c #828181",
"KH c #5C5C59",
"LH c #101D6F",
"MH c #10103B",
"NH c #0D0914",
"OH c #1F1916",
"PH c #444141",
"QH c #6B696A",
"RH c #939293",
"SH c #929191",
"TH c #141313",
"UH c #6D6D6C",
"VH c #989896",
"WH c #5A5956",
"XH c #0C1B70",
"YH c #0D1144",
"ZH c #0E0A17",
"[H c #110A05",
"]H c #16110E",
"^H c #1C1917",
"_H c #232120",
"`H c #232220",
"aH c #70706F",
"bH c #8E8D8C",
"cH c #03166C",
"dH c #040E3C",
"eH c #080923",
"fH c #090616",
"gH c #0A0407",
"hH c #0A0400",
"iH c #090500",
"jH c #0A0702",
"kH c #0D0A05",
"lH c #0D0C05",
"mH c #0C0B05",
"nH c #0D0C08",
"oH c #11100E",
"pH c #8B8B8C",
"qH c #001971",
"rH c #011058",
"sH c #010839",
"tH c #02020C",
"uH c #050100",
"vH c #060200",
"wH c #080400",
"xH c #0B0803",
"yH c #12110A",
"zH c #100F0A",
"{H c #100F0B",
"|H c #131310",
"}H c #1F1F1D",
"~H c #232321",
" I c #5D5D5E",
"!I c #000E66",
"#I c #000B3E",
"$I c #000926",
"%I c #00061D",
"&I c #000313",
"'I c #010104",
"(I c #0A0604",
")I c #11100B",
"*I c #1B1A18",
"+I c #585859",
",I c #848485",
"-I c #000B5C",
".I c #000235",
"/I c #000112",
"0I c #050400",
"1I c #070601",
"2I c #080704",
"3I c #090705",
"4I c #0A0706",
"5I c #0E0B09",
"6I c #15130F",
"7I c #1F1D1B",
"8I c #1F1E1D",
"9I c #001454",
":I c #000A2C",
";I c #00041F",
"<I c #000006",
"=I c #080300",
">I c #0F0C00",
"?I c #121004",
"@I c #15130B",
"AI c #161410",
"BI c #161411",
"CI c #1C1A17",
"DI c #1D1B19",
"EI c #1B1A1B",
"FI c #383839",
"GI c #656464",
"HI c #001A7B",
"II c #000722",
"JI c #080501",
"KI c #0E0902",
"LI c #151204",
"MI c #181608",
"NI c #1C1A14",
"OI c #1B1A15",
"PI c #39393A",
"QI c #555353",
"RI c #5A5959",
"SI c #929291",
"TI c #000D3E",
"UI c #00020B",
"VI c #040300",
"WI c #0D0800",
"XI c #120D02",
"YI c #161206",
"ZI c #18150A",
"[I c #18170D",
"]I c #191810",
"^I c #181914",
"_I c #181916",
"`I c #595858",
"aI c #001970",
"bI c #000517",
"cI c #060500",
"dI c #0B0901",
"eI c #130E02",
"fI c #181204",
"gI c #191509",
"hI c #18160E",
"iI c #171711",
"jI c #171712",
"kI c #171713",
"lI c #656563",
"mI c #4F4E4E",
"nI c #001047",
"oI c #000105",
"pI c #140F01",
"qI c #17160F",
"rI c #171513",
"sI c #171714",
"tI c #171615",
"uI c #00177A",
"vI c #000829",
"wI c #110E00",
"xI c #4D4D4E",
"yI c #000F5E",
"zI c #00051F",
"{I c #010100",
"|I c #050500",
"}I c #0C0B00",
"~I c #161401",
" J c #1A1703",
"!J c #171506",
"#J c #161409",
"$J c #171510",
"%J c #818182",
"&J c #7E7E7F",
"'J c #00126B",
"(J c #000538",
")J c #000213",
"*J c #030300",
"+J c #110D00",
",J c #171201",
"-J c #181403",
".J c #171509",
"/J c #000C50",
"0J c #00001D",
"1J c #00000A",
"2J c #1B1602",
"3J c #161408",
"4J c #151413",
"5J c #FBFBFB",
"6J c #FFFFFF",
"7J c #FCFCFC",
"8J c #1E1E1F",
"9J c #969697",
":J c #D1D1D2",
";J c #000C3C",
"<J c #FEFEFE",
"=J c #FAFAFA",
">J c #6C6C6D",
"?J c #000B30",
"@J c #181603",
"AJ c #171508",
"BJ c #17150F",
"CJ c #000A2F",
"DJ c #181504",
"EJ c #000A2D",
"FJ c #001A7D",
"GJ c #00092A",
"HJ c #151201",
"IJ c #FDFDFD",
"JJ c #080600",
"KJ c #181405",
"LJ c #15150E",
"MJ c #090600",
"NJ c #323333",
"OJ c #474848",
"PJ c #505151",
"QJ c #001B7D",
"RJ c #161202",
"SJ c #181507",
"TJ c #7A7979",
"UJ c #757676",
"VJ c #808282",
"WJ c #001C7D",
"XJ c #090601",
"YJ c #474646",
"ZJ c #454444",
"[J c #021D81",
"]J c #010A2B",
"^J c #080601",
"_J c #161304",
"`J c #181609",
"aJ c #020B2E",
"bJ c #080602",
"cJ c #161406",
"dJ c #19170B",
"eJ c #18160D",
"fJ c #171411",
"gJ c #9F9F9E",
"hJ c #565757",
"iJ c #040C2F",
"jJ c #070602",
"kJ c #19170C",
"lJ c #303131",
"mJ c #373838",
"nJ c #3A3B3B",
"oJ c #797A7A",
"pJ c #848585",
"qJ c #60605E",
"rJ c #080C2F",
"sJ c #070703",
"tJ c #18180E",
"uJ c #17170F",
"vJ c #161611",
"wJ c #4A4A4B",
"xJ c #606162",
"yJ c #6A6B6C",
"zJ c #0D0E33",
"{J c #0A0100",
"|J c #090704",
"}J c #17160C",
"~J c #1A1910",
" K c #142377",
"!K c #110F28",
"#K c #0D0400",
"$K c #0A0803",
"%K c #16150B",
"&K c #1A1913",
"'K c #191814",
"(K c #2E2E2F",
")K c #4A4B4B",
"*K c #1E277C",
"+K c #1D1F48",
",K c #1B1B34",
"-K c #191A35",
".K c #171628",
"/K c #140F0D",
"0K c #0C0902",
"1K c #151309",
"2K c #1A1912",
"3K c #1A1A15",
"4K c #181915",
"5K c #171515",
"6K c #585959",
"7K c #555656",
"8K c #1F2979",
"9K c #202669",
":K c #1F245E",
";K c #1D1E4A",
"<K c #1B1515",
"=K c #0E0B02",
">K c #121007",
"?K c #868687",
"@K c #838282",
"AK c #18217E",
"BK c #1C1B48",
"CK c #1E1B33",
"DK c #201E34",
"EK c #211F32",
"FK c #201E2D",
"GK c #1F1D28",
"HK c #201E23",
"IK c #1F1C1F",
"JK c #1A1718",
"KK c #161108",
"LK c #130E01",
"MK c #100B00",
"NK c #0F0B00",
"OK c #100D01",
"PK c #110E02",
"QK c #0F0D02",
"RK c #0E0C06",
"SK c #1D1C19",
"TK c #4F5050",
"UK c #141E7A",
"VK c #161C6A",
"WK c #17174B",
"XK c #1A1115",
"YK c #1C1100",
"ZK c #1D1400",
"[K c #211A06",
"]K c #292311",
"^K c #2D2715",
"_K c #2C2714",
"`K c #2F2B18",
"aK c #373425",
"bK c #3D3A2F",
"cK c #3F3D34",
"dK c #403E37",
"eK c #333129",
"fK c #0F0D03",
"gK c #0E0B06",
"hK c #1A1815",
"iK c #10186F",
"jK c #130F46",
"kK c #160E31",
"lK c #160E24",
"mK c #150E19",
"nK c #150E07",
"oK c #201C10",
"pK c #3B3831",
"qK c #47453F",
"rK c #44423B",
"sK c #504F47",
"tK c #75746E",
"uK c #9B9A98",
"vK c #7E7D7A",
"wK c #565651",
"xK c #25251E",
"yK c #0C0B04",
"zK c #0F0D07",
"{K c #13145B",
"|K c #150827",
"}K c #16070D",
"~K c #2D251E",
" L c #37322A",
"!L c #3B372E",
"#L c #3E3B33",
"$L c #4F4D47",
"%L c #0D0B06",
"&L c #110F0A",
"'L c #3D3B3C",
"(L c #161B61",
")L c #150F2D",
"*L c #120A0F",
"+L c #2B241E",
",L c #A6A5A3",
"-L c #CFCECE",
".L c #8D8E8C",
"/L c #11110D",
"0L c #20211F",
"1L c #1D1E1C",
"2L c #1A1B1A",
"3L c #191E63",
"4L c #17132E",
"5L c #120C0F",
"6L c #35302A",
"7L c #CCCACB",
"8L c #BAB9B9",
"9L c #7C7B7B",
":L c #5A5A5C",
";L c #646466",
"<L c #1C2374",
"=L c #1A183F",
">L c #150F15",
"?L c #342F27",
"@L c #8F8D8C",
"AL c #989797",
"BL c #878686",
"CL c #282926",
"DL c #212020",
"EL c #414143",
"FL c #414142",
"GL c #1D2262",
"HL c #1A1721",
"IL c #2C281A",
"JL c #64625E",
"KL c #262624",
"LL c #252523",
"ML c #191717",
"NL c #222121",
"OL c #201F1F",
"PL c #212C80",
"QL c #20255A",
"RL c #1E1C22",
"SL c #292517",
"TL c #252522",
"UL c #272824",
"VL c #232B73",
"WL c #232649",
"XL c #232432",
"YL c #22232F",
"ZL c #222126",
"[L c #211E19",
"]L c #29271E",
"^L c #1D1C1C",
"_L c #272827",
"`L c #404141",
"aL c #4A4B4C",
"bL c #464647",
"cL c #283081",
"dL c #262C75",
"eL c #24275F",
"fL c #232342",
"gL c #231E19",
"hL c #221B06",
"iL c #211C09",
"jL c #201D0E",
"kL c #211E15",
"lL c #2A2923",
"mL c #272624",
"nL c #383737",
"oL c #5E5E60",
"pL c #272E7A",
"qL c #282B5C",
"rL c #292839",
"sL c #292728",
"tL c #2A282A",
"uL c #2A282B",
"vL c #29272A",
"wL c #2E2C2E",
"xL c #333030",
"yL c #34312F",
"zL c #33302A",
"{L c #353229",
"|L c #38352D",
"}L c #34322B",
"~L c #B4B4B5",
" M c #C1C1C2",
"!M c #262D82",
"#M c #272D75",
"$M c #282A4A",
"%M c #292834",
"&M c #2A2835",
"'M c #282633",
"(M c #26242B",
")M c #262323",
"*M c #27231A",
"+M c #262216",
",M c #252116",
"-M c #221F15",
".M c #1F1C12",
"/M c #4C4A43",
"0M c #716F6A",
"1M c #807E7B",
"2M c #868482",
"3M c #A9A8A6",
"4M c #6C6D6B",
"5M c #8F908F",
"6M c #B1B2B1",
"7M c #B8B9B8",
"8M c #272F82",
"9M c #27295E",
":M c #272752",
";M c #282858",
"<M c #282646",
"=M c #27221B",
">M c #272108",
"?M c #27220D",
"@M c #2A2513",
"AM c #342F1F",
"BM c #3F3C2D",
"CM c #424034",
"DM c #413F38",
"EM c #504E4A",
"FM c #514F4B",
"GM c #767677",
"HM c #2A3076",
"IM c #2B2C4B",
"JM c #2B2A38",
"KM c #2C2B3B",
"LM c #2B2A3B",
"MM c #282734",
"NM c #26232A",
"OM c #252227",
"PM c #252228",
"QM c #242122",
"RM c #221E16",
"SM c #1F1B10",
"TM c #29271D",
"UM c #72726C",
"VM c #7D7D78",
"WM c #797976",
"XM c #B0B0AE",
"YM c #E8E9E8",
"ZM c #2B2F71",
"[M c #2B2D67",
"]M c #2B2C60",
"^M c #2B2948",
"_M c #2B261F",
"`M c #2B240C",
"aM c #2A240F",
"bM c #332F1F",
"cM c #3F3B2F",
"dM c #444036",
"eM c #4B4741",
"fM c #4D4A46",
"gM c #4A4743",
"hM c #565450",
"iM c #7E7E7C",
"jM c #B0B1AF",
"kM c #ACADAC",
"lM c #CFD0CF",
"mM c #6E6C6C",
"nM c #474645",
"oM c #767575",
"pM c #A3A2A2",
"qM c #1C1C1D",
"rM c #2C3176",
"sM c #2D2E4D",
"tM c #2D2D3C",
"uM c #2E2E41",
"vM c #2D2E41",
"wM c #2C2B3A",
"xM c #2C2A35",
"yM c #2B2932",
"zM c #29272F",
"{M c #27231C",
"|M c #221E15",
"}M c #2C2820",
"~M c #4A4741",
" N c #605E5A",
"!N c #6C6A66",
"#N c #75736F",
"$N c #868481",
"%N c #ABAAA8",
"&N c #A7A5A3",
"'N c #595957",
"(N c #343432",
")N c #323331",
"*N c #2C3380",
"+N c #2C3175",
",N c #2D2E64",
"-N c #2D2C49",
".N c #2D2922",
"/N c #2D2710",
"0N c #2F2A1A",
"1N c #363326",
"2N c #3A372A",
"3N c #413E33",
"4N c #46433B",
"5N c #4A4842",
"6N c #4C4A46",
"7N c #4B4945",
"8N c #585653",
"9N c #7C7B79",
":N c #949392",
";N c #919090",
"<N c #5D5C5C",
"=N c #2A2E75",
">N c #2B2B4E",
"?N c #2C2B3D",
"@N c #2D2D41",
"AN c #2E2E42",
"BN c #2E2E3E",
"CN c #2E2D3B",
"DN c #2C2B37",
"EN c #2A2720",
"FN c #29251B",
"GN c #2F2C25",
"HN c #484641",
"IN c #585651",
"JN c #71716C",
"KN c #868682",
"LN c #959593",
"MN c #E0DFE0",
"NN c #525150",
"ON c #343435",
"PN c #293081",
"QN c #2A2B66",
"RN c #2B2846",
"SN c #2C251F",
"TN c #2C250F",
"UN c #2C2614",
"VN c #2C2718",
"WN c #2E2A1B",
"XN c #353224",
"YN c #3B392D",
"ZN c #424036",
"[N c #46443D",
"]N c #494642",
"^N c #4B4845",
"_N c #4D4B48",
"`N c #A4A5A4",
"aN c #B9BAB9",
"bN c #666565",
"cN c #31302F",
"dN c #313231",
"eN c #828283",
"fN c #808082",
"gN c #272D7A",
"hN c #272A68",
"iN c #28295E",
"jN c #28274D",
"kN c #282636",
"lN c #28252B",
"mN c #2A272D",
"nN c #2E2D34",
"oN c #323137",
"pN c #373438",
"qN c #393636",
"rN c #393631",
"sN c #3B3832",
"tN c #61605B",
"uN c #767672",
"vN c #8D8D8A",
"wN c #9B9B99",
"xN c #A2A0A0",
"yN c #ABA9A9",
"zN c #D0D1D1",
"{N c #676768",
"|N c #6F6F70",
"}N c #2B3079",
"~N c #2B2D4F",
" O c #2B2B3C",
"!O c #2B2A3E",
"#O c #2A283C",
"$O c #27242E",
"%O c #262329",
"&O c #262226",
"'O c #252120",
"(O c #211C14",
")O c #25221C",
"*O c #595753",
"+O c #73716D",
",O c #7E7C79",
"-O c #858484",
".O c #9F9D9D",
"/O c #B2B0B0",
"0O c #A0A1A0",
"1O c #595857",
"2O c #343533",
"3O c #B6B6B7",
"4O c #C9C9CA",
"5O c #2B3083",
"6O c #2C2F74",
"7O c #2C2D69",
"8O c #2C2C62",
"9O c #2C2A4B",
":O c #2B2723",
";O c #2A2511",
"<O c #2C2617",
"=O c #322E20",
">O c #373326",
"?O c #3A362B",
"@O c #3C3930",
"AO c #3F3C35",
"BO c #44413C",
"CO c #4E4B49",
"DO c #727171",
"EO c #8C8B8B",
"FO c #ADACAD",
"GO c #B7B6B7",
"HO c #2E2C2B",
"IO c #312F2E",
"JO c #373837",
"KO c #4C4D4C",
"LO c #4F504F",
"MO c #656566",
"NO c #5C5C5D",
"OO c #2C317B",
"PO c #2D2E52",
"QO c #2D2D3F",
"RO c #2D2D43",
"SO c #2C2B40",
"TO c #2B2A3C",
"UO c #2C2B39",
"VO c #2B2A35",
"WO c #2A2732",
"XO c #272320",
"YO c #252119",
"ZO c #42413A",
"[O c #53524D",
"]O c #605F5A",
"^O c #6B6A66",
"_O c #868483",
"`O c #B6B4B4",
"aO c #C7C5C5",
"bO c #D8D9D9",
"cO c #3D3E3D",
"dO c #363535",
"eO c #353434",
"fO c #363536",
"gO c #2C2F75",
"hO c #2C2E6A",
"iO c #2B2D63",
"jO c #2C2B4D",
"kO c #2D2826",
"lO c #2D2614",
"mO c #2E291A",
"nO c #343024",
"oO c #373329",
"pO c #36342A",
"qO c #3A382E",
"rO c #413F35",
"sO c #4D4A49",
"tO c #545250",
"uO c #737371",
"vO c #878685",
"wO c #B8B8B9",
"xO c #E6E5E6",
"yO c #D2D2D3",
"zO c #393838",
"{O c #4A4B4A",
"|O c #4E4F4E",
"}O c #5E5D5E",
"~O c #EAEAEB",
" P c #9E9E9F",
"!P c #292D7A",
"#P c #2A2C53",
"$P c #2C2C42",
"%P c #2D2D45",
"&P c #2F2E44",
"'P c #2E2D40",
"(P c #2D2C3B",
")P c #2B2A36",
"*P c #2A2933",
"+P c #29272C",
",P c #282522",
"-P c #27231D",
".P c #2C2823",
"/P c #45433F",
"0P c #4C4A47",
"1P c #585652",
"2P c #71716D",
"3P c #868683",
"4P c #A09F9F",
"5P c #ABACAB",
"6P c #D7D6D7",
"7P c #DAD9DA",
"8P c #DCDDDD",
"9P c #BCBDBD",
":P c #403F3F",
";P c #3C3D3B",
"<P c #282E82",
"=P c #282D77",
">P c #292A66",
"?P c #2A284B",
"@P c #2B2524",
"AP c #2B2512",
"BP c #2C2618",
"CP c #2C271B",
"DP c #2F2B20",
"EP c #424037",
"FP c #47453E",
"GP c #4B4A47",
"HP c #767475",
"IP c #AEADAD",
"JP c #3F3D3E",
"KP c #414040",
"LP c #494848",
"MP c #A0A0A1",
"NP c #3D3D3E",
"OP c #3C3C3D",
"PP c #272C81",
"QP c #282B76",
"RP c #282A65",
"SP c #292947",
"TP c #2A2A3E",
"UP c #2A293D",
"VP c #29283A",
"WP c #282637",
"XP c #272532",
"YP c #262320",
"ZP c #26231C",
"[P c #221F1A",
"]P c #2D2A25",
"^P c #44413D",
"_P c #5B5955",
"`P c #72726E",
"aP c #C6C5C6",
"bP c #3E3D3E",
"cP c #535253",
"dP c #282E81",
"eP c #282966",
"fP c #282652",
"gP c #292547",
"hP c #292435",
"iP c #28221A",
"jP c #272316",
"kP c #2A261B",
"lP c #312D22",
"mP c #38342B",
"nP c #3F3C34",
"oP c #43413B",
"pP c #454441",
"qP c #525050",
"rP c #757474",
"sP c #E7E6E7",
"tP c #E3E3E4",
"uP c #DEDFDF",
"vP c #B3B2B2",
"wP c #2A2928",
"xP c #3B3C3B",
"yP c #2B2F7C",
"zP c #2B2D72",
"{P c #2B2E77",
"|P c #2B2D68",
"}P c #2B293C",
"~P c #2C2B36",
" Q c #2F2E39",
"!Q c #312F39",
"#Q c #323037",
"$Q c #343136",
"%Q c #363235",
"&Q c #393536",
"'Q c #3D3937",
"(Q c #3D3A36",
")Q c #474542",
"*Q c #757471",
"+Q c #8C8B88",
",Q c #B6B5B5",
"-Q c #8A8B8B",
".Q c #4B4949",
"/Q c #444342",
"0Q c #424343",
"1Q c #444545",
"2Q c #919192",
"3Q c #9F9FA0",
"4Q c #666667",
"5Q c #2F2E48",
"6Q c #2E2D43",
"7Q c #2D2C3E",
"8Q c #2D2B37",
"9Q c #2C2934",
":Q c #2A2834",
";Q c #28262E",
"<Q c #25221F",
"=Q c #221F1B",
">Q c #50514F",
"?Q c #3F3D3D",
"@Q c #313232",
"AQ c #2F3030",
"BQ c #777878",
"CQ c #828382",
"DQ c #7F807E",
"EQ c #C8C8C9",
"FQ c #363228",
"GQ c #39352C",
"HQ c #38342D",
"IQ c #3A3832",
"JQ c #413F39",
"KQ c #4C4A4A",
"LQ c #585656",
"MQ c #737272",
"NQ c #E1E2E2",
"OQ c #E5E6E6",
"PQ c #A3A1A1",
"QQ c #8D8C8D",
"RQ c #737374",
"SQ c #393A39",
"TQ c #3E3C3D",
"UQ c #4C4A4B",
"VQ c #575758",
"WQ c #2F2C2A",
"XQ c #4F4D4B",
"YQ c #585654",
"ZQ c #898987",
"[Q c #E0E1E1",
"]Q c #959494",
"^Q c #4B4A4B",
"_Q c #474647",
"`Q c #5C5B5B",
"aQ c #5F5E5E",
"bQ c #80807F",
"cQ c #272E84",
"dQ c #CDCECE",
"eQ c #464745",
"fQ c #4F4F50",
"gQ c #505052",
"hQ c #2B2B2C",
"iQ c #9FA0A0",
"jQ c #B1B2B2",
"kQ c #282A68",
"lQ c #282855",
"mQ c #B8B7B7",
"nQ c #525353",
"oQ c #7B7B7C",
"pQ c #CACACB",
"qQ c #D4D4D5",
"rQ c #262435",
"sQ c #C8C7C7",
"tQ c #878788",
"uQ c #E6E6E7",
"vQ c #B5B5B6",
"wQ c #454546",
"xQ c #8F8F90",
"yQ c #838384",
"zQ c #727273",
"{Q c #373636",
"|Q c #4A4949",
"}Q c #808081",
"~Q c #484748",
" R c #424243",
"!R c #444445",
"#R c #3E3F3E",
"$R c #3A3A3B",
"%R c #B1B1B2",
"&R c #282829",
"'R c #404042",
"(R c #4B4B4D",
")R c #707071",
"*R c #363637",
"+R c #4E4E50",
",R c #7D7D7E",
"-R c #70706E",
".R c #636464",
"/R c #7D7E7F",
"0R c #818282",
"1R c #C1C1BF",
"2R c #68686A",
"3R c #D9D9DA",
"4R c #7C7C7D",
"5R c #464747",
"6R c #505152",
"7R c #E8E8E7",
"8R c #79797B",
"9R c #3C3D3D",
":R c #424244",
";R c #4A4A4C",
"<R c #7A7A7C",
"=R c #757577",
">R c #4C4C4E",
"?R c #545456",
"@R c #79797A",
"AR c #AFAFB0",
"BR c #393A3A",
"CR c #4C4D4E",
"DR c #545656",
"ER c #838484",
"FR c #808181",
"GR c #C7C8C8",
"HR c #78787A",
"IR c #676769",
"JR c #707072",
"KR c #59595A",
"LR c #242423",
"MR c #434344",
"NR c #747475",
"OR c #2F2F30",
"PR c #454547",
"QR c #4F4F51",
"RR c #78797A",
"SR c #7D7E7E",
"TR c #383939",
"UR c #4B4C4D",
"VR c #535455",
"WR c #828384",
"XR c #565658",
"YR c #89898A",
"ZR c #7F7F81",
"[R c #A3A3A4",
"]R c #2B2A29",
"^R c #BBBBBC",
"_R c #A4A4A5",
"`R c #888889",
"aR c #333433",
"bR c #747374",
"cR c #595859",
"dR c #2F302E",
"eR c #312F2D",
"fR c #535355",
"gR c #CBCCCC",
"hR c #A6A7A7",
"iR c #989999",
"jR c #313230",
"kR c #2A2826",
"lR c #828284",
"mR c #737473",
"nR c #343532",
"oR c #333431",
"pR c #32322F",
"qR c #434443",
"rR c #40413F",
"sR c #353633",
"tR c #4D4D4A",
"uR c #7F7E7C",
"vR c #6A6A6C",
"wR c #848584",
"xR c #424342",
"yR c #767674",
"zR c #8B8C8A",
"{R c #9D9E9C",
"|R c #7C7C7A",
"}R c #878785",
"~R c #D9DAD9",
" S c #454443",
"!S c #4E4E4B",
"#S c #50504C",
"$S c #727371",
"%S c #ADABA8",
"&S c #A09E9A",
"'S c #282824",
"(S c #969595",
")S c #858482",
"*S c #5C5A52",
"+S c #474439",
",S c #393735",
"-S c #3E3C3A",
".S c #A5A3A3",
"/S c #B9B7B7",
"0S c #D0CFCE",
"1S c #BEBDBA",
"2S c #B7B6B3",
"3S c #ADADA9",
"4S c #96948F",
"5S c #6F6D67",
"6S c #625F59",
"7S c #65625C",
"8S c #2B2617",
"9S c #191401",
":S c #A9A9AA",
";S c #414241",
"<S c #353634",
"=S c #32322E",
">S c #2D2E2A",
"?S c #2A2A26",
"@S c #585755",
"AS c #656462",
"BS c #888786",
"CS c #A7A8A7",
"DS c #DFDDDD",
"ES c #878683",
"FS c #4E4C42",
"GS c #4E4C41",
"HS c #474537",
"IS c #3C3927",
"JS c #383520",
"KS c #39341F",
"LS c #342E17",
"MS c #292108",
"NS c #231B00",
"OS c #4C4D4D",
"PS c #4E4F4F",
"QS c #393A38",
"RS c #454542",
"SS c #D8D6D6",
"TS c #ADACA9",
"US c #9D9C99",
"VS c #9A9994",
"WS c #8D8C86",
"XS c #535146",
"YS c #2D2A1A",
"ZS c #1C1806",
"[S c #1F1B09",
"]S c #221D0A",
"^S c #231E0B",
"_S c #252011",
"`S c #24211C",
"aS c #252323",
"bS c #27262A",
"cS c #A9AAAA",
"dS c #61605E",
"eS c #C9C9C7",
"fS c #C2C2BF",
"gS c #B5B6B3",
"hS c #A8A9A5",
"iS c #8C8B87",
"jS c #6F6D65",
"kS c #4B483B",
"lS c #393526",
"mS c #383429",
"nS c #353128",
"oS c #302C23",
"pS c #2B271A",
"qS c #29251C",
"rS c #29251F",
"sS c #272528",
"tS c #262954",
"uS c #252C68",
"vS c #24317D",
"wS c #7D7C7B",
"xS c #A0A09F",
"yS c #504C44",
"zS c #4F4C43",
"{S c #4A483E",
"|S c #464337",
"}S c #413E2E",
"~S c #3E3927",
" T c #3B3622",
"!T c #352F18",
"#T c #2A2409",
"$T c #261E02",
"%T c #271E0A",
"&T c #262024",
"'T c #26243C",
"(T c #272955",
")T c #272C5F",
"*T c #272B5B",
"+T c #272E65",
",T c #27337C",
"-T c #27378D",
".T c #BFBEBE",
"/T c #2C2D2B",
"0T c #343430",
"1T c #464643",
"2T c #5B5A58",
"3T c #807F7F",
"4T c #9D9C97",
"5T c #74726B",
"6T c #545248",
"7T c #2E2B1C",
"8T c #1D1907",
"9T c #211C0A",
":T c #231F0D",
";T c #242012",
"<T c #252017",
"=T c #262322",
">T c #29282A",
"?T c #282735",
"@T c #272B54",
"AT c #272E6D",
"BT c #263385",
"CT c #25328A",
"DT c #30312E",
"ET c #292926",
"FT c #C3C4C3",
"GT c #858582",
"HT c #545249",
"IT c #49463C",
"JT c #484535",
"KT c #44412E",
"LT c #3E3A25",
"MT c #36311A",
"NT c #2C260C",
"OT c #282105",
"PT c #292104",
"QT c #282004",
"RT c #28200F",
"ST c #28253C",
"TT c #272853",
"UT c #262C66",
"VT c #263075",
"WT c #26327F",
"XT c #243489",
"YT c #A2A2A3",
"ZT c #484845",
"[T c #727270",
"]T c #E4E5E4",
"^T c #CACAC8",
"_T c #B8B8B5",
"`T c #ABABA7",
"aT c #9E9E9A",
"bT c #8F8F8A",
"cT c #7E7D77",
"dT c #71706A",
"eT c #696761",
"fT c #242010",
"gT c #1D1706",
"hT c #201A0A",
"iT c #211B0F",
"jT c #221D13",
"kT c #252018",
"lT c #2A2620",
"mT c #292933",
"nT c #292A40",
"oT c #272D6C",
"pT c #263183",
"qT c #343232",
"rT c #70706D",
"sT c #888886",
"tT c #ACABAA",
"uT c #A9A8A7",
"vT c #C1C2C2",
"wT c #777673",
"xT c #47453A",
"yT c #433F32",
"zT c #3E3A29",
"{T c #3B3624",
"|T c #332C17",
"}T c #271F05",
"~T c #251C02",
" U c #251D0F",
"!U c #262026",
"#U c #262238",
"$U c #272544",
"%U c #27274F",
"&U c #282A58",
"'U c #282E67",
"(U c #273485",
")U c #5A5856",
"*U c #D3D2D1",
"+U c #B0AFAC",
",U c #A9A9A5",
"-U c #A2A39E",
".U c #9C9C97",
"/U c #8B8B84",
"0U c #5B5851",
"1U c #434037",
"2U c #1A1503",
"3U c #1D1704",
"4U c #1F1908",
"5U c #201A0D",
"6U c #211B14",
"7U c #211D1C",
"8U c #232023",
"9U c #262429",
":U c #26242C",
";U c #26263B",
"<U c #262956",
"=U c #262C6A",
">U c #252D75",
"?U c #252F7E",
"@U c #243087",
"AU c #2B2A28",
"BU c #898887",
"CU c #C5C4C3",
"DU c #E2E3E2",
"EU c #5B5953",
"FU c #47443B",
"GU c #48463B",
"HU c #484639",
"IU c #474334",
"JU c #423E2C",
"KU c #3B3522",
"LU c #352F1B",
"MU c #2E2912",
"NU c #261F06",
"OU c #231B01",
"PU c #231A02",
"QU c #231B0D",
"RU c #241D24",
"SU c #24203B",
"TU c #232553",
"UU c #232967",
"VU c #232F7A",
"WU c #233185",
"XU c #4E4D4A",
"YU c #8C8A85",
"ZU c #7F7D77",
"[U c #1A1605",
"]U c #1D1909",
"^U c #201B13",
"_U c #211C17",
"`U c #221E1B",
"aU c #232020",
"bU c #26252F",
"cU c #252430",
"dU c #24243D",
"eU c #232755",
"fU c #232A6D",
"gU c #222E84",
"hU c #C0C0C1",
"iU c #B5B4B1",
"jU c #A4A29F",
"kU c #82807B",
"lU c #6B6963",
"mU c #59564E",
"nU c #363325",
"oU c #363224",
"pU c #353124",
"qU c #342F25",
"rU c #322D26",
"sU c #2C2925",
"tU c #25211B",
"uU c #221F1C",
"vU c #22212A",
"wU c #232441",
"xU c #232653",
"yU c #23275E",
"zU c #222C76",
"{U c #5C5B5C",
"|U c #777575",
"}U c #7B7A7A",
"~U c #444343",
" V c #413F3F",
"!V c #363434",
"#V c #5A5952",
"$V c #47453B",
"%V c #4A473C",
"&V c #464235",
"'V c #413D2C",
"(V c #37331F",
")V c #312B17",
"*V c #251E05",
"+V c #221A01",
",V c #231902",
"-V c #231A0E",
".V c #221C25",
"/V c #22203D",
"0V c #21265C",
"1V c #222A6A",
"2V c #232D74",
"3V c #223082",
"4V c #333233",
"5V c #4E4D4E",
"6V c #5E5C5D",
"7V c #333130",
"8V c #747372",
"9V c #CCCDCB",
":V c #BBBAB7",
";V c #ACAAA7",
"<V c #9F9E9B",
"=V c #959490",
">V c #514F47",
"?V c #292618",
"@V c #1A1504",
"AV c #1D1708",
"BV c #1E180F",
"CV c #1F1A11",
"DV c #211C12",
"EV c #231F1C",
"FV c #242124",
"GV c #25242B",
"HV c #26242F",
"IV c #252331",
"JV c #24233E",
"KV c #232657",
"LV c #22296F",
"MV c #202F8C",
"NV c #2D2E2D",
"OV c #A2A2A0",
"PV c #AEADAC",
"QV c #969796",
"RV c #5C5A53",
"SV c #47443A",
"TV c #464339",
"UV c #444135",
"VV c #393422",
"WV c #272008",
"XV c #241C0F",
"YV c #251F28",
"ZV c #242032",
"[V c #231F34",
"]V c #232552",
"^V c #232A6A",
"_V c #232F80",
"`V c #22328E",
"aV c #A5A3A4",
"bV c #B9B7B8",
"cV c #B7B6B4",
"dV c #ADADAB",
"eV c #969591",
"fV c #6F6F69",
"gV c #62615A",
"hV c #65645C",
"iV c #2B2819",
"jV c #1C1807",
"kV c #1E190A",
"lV c #1E1A11",
"mV c #201C1C",
"nV c #221F21",
"oV c #252224",
"pV c #262327",
"qV c #25232C",
"rV c #25253D",
"sV c #26295A",
"tV c #252A65",
"uV c #222866",
"vV c #212D82",
"wV c #2A2829",
"xV c #7C7A7A",
"yV c #BCBDBC",
"zV c #61605A",
"{V c #4E4C45",
"|V c #4F4D46",
"}V c #4E4C44",
"~V c #3C3A2B",
" W c #3A3521",
"!W c #342F18",
"#W c #292309",
"$W c #231D02",
"%W c #241C03",
"&W c #231F31",
"'W c #222455",
"(W c #222764",
")W c #222A6B",
"*W c #222F83",
"+W c #BCBCB9",
",W c #9B9995",
"-W c #8E8C87",
".W c #73726C",
"/W c #535249",
"0W c #2D2B1E",
"1W c #1C190A",
"2W c #1F1C0D",
"3W c #221D0E",
"4W c #231E10",
"5W c #252016",
"6W c #25201B",
"7W c #24211E",
"8W c #252324",
"9W c #26262B",
":W c #27272F",
";W c #26242E",
"<W c #25243B",
"=W c #232863",
">W c #222D87",
"?W c #848383",
"@W c #A5A4A3",
"AW c #D4D5D4",
"BW c #C6C7C6",
"CW c #B5B4B3",
"DW c #5D5C56",
"EW c #48473F",
"FW c #47453C",
"GW c #454131",
"HW c #3E3A28",
"IW c #36311D",
"JW c #2C2711",
"KW c #27220A",
"LW c #282208",
"MW c #28200D",
"NW c #272228",
"OW c #27243F",
"PW c #262754",
"QW c #252B6B",
"RW c #243182",
"SW c #24338B",
"TW c #233188",
"UW c #ECEDEC",
"VW c #818080",
"WW c #6E6D6D",
"XW c #D2D3D3",
"YW c #B3B1AF",
"ZW c #A0A09D",
"[W c #807E7A",
"]W c #6A6962",
"^W c #535147",
"_W c #2C2A1C",
"`W c #201C0D",
"aW c #221D14",
"bW c #231F1A",
"cW c #252221",
"dW c #282426",
"eW c #2B2727",
"fW c #2C282A",
"gW c #2B292F",
"hW c #29293C",
"iW c #282A59",
"jW c #262C6F",
"kW c #252F86",
"lW c #242323",
"mW c #222122",
"nW c #1C1A1B",
"oW c #686765",
"pW c #33322D",
"qW c #A5A4A1",
"rW c #6F6D68",
"sW c #4D4A42",
"tW c #3D392F",
"uW c #3E3A2F",
"vW c #3C382C",
"wW c #37332A",
"xW c #343129",
"yW c #2F2C27",
"zW c #292721",
"{W c #26241E",
"|W c #272427",
"}W c #262644",
"~W c #26295B",
" X c #262D70",
"!X c #262F79",
"#X c #272E76",
"$X c #262F7F",
"%X c #191716",
"&X c #747573",
"'X c #686866",
"(X c #373630",
")X c #25241C",
"*X c #33322C",
"+X c #5A5957",
",X c #7F7E7F",
"-X c #A2A3A3",
".X c #514F49",
"/X c #46443C",
"0X c #433F31",
"1X c #3C3828",
"2X c #34301E",
"3X c #2B2612",
"4X c #27210B",
"5X c #272006",
"6X c #272011",
"7X c #282229",
"8X c #282541",
"9X c #272858",
":X c #262C6B",
";X c #27307A",
"<X c #263283",
"=X c #24338D",
">X c #1E1D1A",
"?X c #5C5C58",
"@X c #60615E",
"AX c #444341",
"BX c #232016",
"CX c #2F2C24",
"DX c #6A6863",
"EX c #504D46",
"FX c #191505",
"GX c #1C190B",
"HX c #1E1A12",
"IX c #201C18",
"JX c #221F1D",
"KX c #252222",
"LX c #292627",
"MX c #2B282B",
"NX c #2A2931",
"OX c #292835",
"PX c #282942",
"QX c #272A59",
"RX c #272D71",
"SX c #263088",
"TX c #1C1C1A",
"UX c #201F1C",
"VX c #1A1813",
"WX c #1F1D19",
"XX c #25241E",
"YX c #302E26",
"ZX c #33322B",
"[X c #302E28",
"]X c #292720",
"^X c #34322C",
"_X c #242118",
"`X c #242016",
"aX c #242014",
"bX c #2C281C",
"cX c #302D21",
"dX c #363125",
"eX c #342E21",
"fX c #2E2717",
"gX c #211A05",
"hX c #211A02",
"iX c #231C0F",
"jX c #241E28",
"kX c #24213B",
"lX c #252448",
"mX c #262753",
"nX c #272A5C",
"oX c #282D6B",
"pX c #273389",
"qX c #2844F0",
"rX c #1F1E1B",
"sX c #1A1811",
"tX c #1B1915",
"uX c #1B1918",
"vX c #1D1A12",
"wX c #1E1B0F",
"xX c #1D1A0E",
"yX c #2D2A20",
"zX c #4C4A44",
"{X c #2D291E",
"|X c #1F1A0D",
"}X c #231D10",
"~X c #231D0F",
" Y c #211B0C",
"!Y c #1E1807",
"#Y c #1B1508",
"$Y c #19120D",
"%Y c #191314",
"&Y c #1A161D",
"'Y c #1D1A24",
"(Y c #211F2A",
")Y c #24222D",
"*Y c #24275A",
"+Y c #242A6E",
",Y c #242C79",
"-Y c #242E83",
".Y c #242F8B",
"/Y c #1F1D1A",
"0Y c #1B1913",
"1Y c #161208",
"2Y c #1B1817",
"3Y c #1C1B2F",
"4Y c #1E1B14",
"5Y c #1F1A05",
"6Y c #201A05",
"7Y c #241E0B",
"8Y c #2C2717",
"9Y c #201805",
":Y c #211806",
";Y c #201705",
"<Y c #1F1504",
"=Y c #1D1303",
">Y c #1C130E",
"?Y c #1B1525",
"@Y c #1C193D",
"AY c #1D1E56",
"BY c #1E246A",
"CY c #1F2A7D",
"DY c #212D87",
"EY c #1E1C19",
"FY c #1B1914",
"GY c #141109",
"HY c #120E04",
"IY c #161103",
"JY c #191721",
"KY c #1B2259",
"LY c #1D1E36",
"MY c #1F1B1E",
"NY c #201B1B",
"OY c #1F1A19",
"PY c #1C1719",
"QY c #1B1719",
"RY c #1D1818",
"SY c #1E191A",
"TY c #1D1921",
"UY c #1C1A2C",
"VY c #1C1A31",
"WY c #1B1932",
"XY c #1B1B3F",
"YY c #1B1E58",
"ZY c #1B2371",
"[Y c #1C2888",
"]Y c #181616",
"^Y c #1C1A18",
"_Y c #1E1B19",
"`Y c #120E07",
"aY c #0F0901",
"bY c #130A01",
"cY c #161633",
"dY c #1A2677",
"eY c #1C1F57",
"fY c #1D1E4E",
"gY c #1D1D49",
"hY c #1C1C4A",
"iY c #1B1B4A",
"jY c #1A1A49",
"kY c #1A1B4E",
"lY c #1A1F62",
"mY c #192783",
"nY c #1B1916",
"oY c #1D1A17",
"pY c #1E1D18",
"qY c #0F0B06",
"rY c #12143A",
"sY c #18268A",
"tY c #192581",
"uY c #19247C",
"vY c #19247D",
"wY c #19237D",
"xY c #18227C",
"yY c #172280",
"zY c #1C1A11",
"{Y c #0A0704",
"|Y c #0D0F37",
"}Y c #191712",
"~Y c #1B180D",
" Z c #151208",
"!Z c #080603",
"#Z c #080E36",
"$Z c #181512",
"%Z c #191711",
"&Z c #19170E",
"'Z c #191609",
"(Z c #131005",
")Z c #060502",
"*Z c #010004",
"+Z c #04000C",
",Z c #050E42",
"-Z c #19150C",
".Z c #171105",
"/Z c #110B02",
"0Z c #060401",
"1Z c #01000C",
"2Z c #020023",
"3Z c #020D58",
"4Z c #171412",
"5Z c #1A170E",
"6Z c #18140A",
"7Z c #130D03",
"8Z c #00000F",
"9Z c #01002D",
":Z c #010D61",
";Z c #18150E",
"<Z c #1A170C",
"=Z c #151308",
">Z c #0C0803",
"?Z c #00000E",
"@Z c #000029",
"AZ c #000D5D",
"BZ c #18150D",
"CZ c #131106",
"DZ c #000435",
"EZ c #001068",
"FZ c #18150B",
"GZ c #181205",
"HZ c #070401",
"IZ c #000B52",
"JZ c #001784",
"KZ c #181408",
"LZ c #000624",
"MZ c #666668",
"NZ c #6F6F71",
"OZ c #5F5F60",
"PZ c #130F04",
"QZ c #020200",
"RZ c #00000C",
"SZ c #000A3A",
"TZ c #001D8D",
"UZ c #555557",
"VZ c #191508",
"WZ c #151105",
"XZ c #090701",
"YZ c #000013",
"ZZ c #000038",
"[Z c #000C6B",
"]Z c #838385",
"^Z c #151612",
"_Z c #141105",
"`Z c #0E0C02",
"aZ c #00000B",
"bZ c #00032A",
"cZ c #000961",
"dZ c #191610",
"eZ c #19150D",
"fZ c #141003",
"gZ c #0B0902",
"hZ c #050401",
"iZ c #00001F",
"jZ c #00094B",
"kZ c #001A8E",
"lZ c #191612",
"mZ c #191510",
"nZ c #18140D",
"oZ c #161209",
"pZ c #0E0B01",
"qZ c #000321",
"rZ c #000948",
"sZ c #001577",
"tZ c #181815",
"uZ c #1A1711",
"vZ c #140F07",
"wZ c #0F0A03",
"xZ c #00001E",
"yZ c #001A87",
"zZ c #1A1A17",
"{Z c #181510",
"|Z c #15120C",
"}Z c #120E08",
"~Z c #0D0903",
" [ c #000218",
"![ c #000949",
"#[ c #001578",
"$[ c #1B1C19",
"%[ c #121008",
"&[ c #0A0905",
"'[ c #060503",
"([ c #050301",
")[ c #000537",
"*[ c #001A89",
"+[ c #13120D",
",[ c #0D0A03",
"-[ c #000322",
".[ c #000F62",
"/[ c #69696B",
"0[ c #1D1B1B",
"1[ c #1B1919",
"2[ c #14130D",
"3[ c #0D0B07",
"4[ c #0B0804",
"5[ c #090401",
"6[ c #030002",
"7[ c #020007",
"8[ c #010219",
"9[ c #000638",
":[ c #001063",
";[ c #48484A",
"<[ c #141411",
"=[ c #13120F",
">[ c #12110D",
"?[ c #11100C",
"@[ c #110E07",
"A[ c #100D04",
"B[ c #0E0901",
"C[ c #06000B",
"D[ c #040020",
"E[ c #03094B",
"F[ c #021B8A",
"G[ c #201E1C",
"H[ c #1F1C18",
"I[ c #151107",
"J[ c #130D01",
"K[ c #100700",
"L[ c #0E0507",
"M[ c #0C0514",
"N[ c #0A072C",
"O[ c #070A4D",
"P[ c #05157A",
"Q[ c #1A1819",
"R[ c #1A1818",
"S[ c #201F1E",
"T[ c #3D3B3A",
"U[ c #211F19",
"V[ c #130A00",
"W[ c #110914",
"X[ c #0F0E3C",
"Y[ c #0D1566",
"Z[ c #1F1E1E",
"[[ c #282720",
"][ c #1A1719",
"^[ c #171323",
"_[ c #15143F",
"`[ c #121B6E",
"a[ c #828182",
"b[ c #8F8E8F",
"c[ c #8D8B8C",
"d[ c #5B5A56",
"e[ c #2F2D24",
"f[ c #1A191A",
"g[ c #1C1E44",
"h[ c #1A216A",
"i[ c #182587",
"j[ c #B8B7B8",
"k[ c #B5B4B4",
"l[ c #696864",
"m[ c #35332A",
"n[ c #1D1A1B",
"o[ c #20224D",
"p[ c #737270",
"q[ c #3A3833",
"r[ c #1F1C15",
"s[ c #232234",
"t[ c #211E13",
"u[ c #5F5F61",
"v[ c #5D5D5F",
"w[ c #9A9A98",
"x[ c #494743",
"y[ c #29282E",
"z[ c #B5B6B6",
"{[ c #EBE9EA",
"|[ c #221F16",
"}[ c #2B2A2F",
"~[ c #A9AAA9",
" ] c #C6C4C3",
"!] c #5F5D5A",
"#] c #2C2A22",
"$] c #2E2C30",
"%] c #2C337E",
"&] c #C8C9C8",
"'] c #43413C",
"(] c #333032",
")] c #2D2F66",
"*] c #363331",
"+] c #2C2B46",
",] c #2A3074",
"-] c #39352F",
".] c #2C271F",
"/] c #2B2D4E",
"0] c #3C3830",
"1] c #2B250D",
"2] c #2B2B3B",
"3] c #666664",
"4] c #2B2410",
"5] c #2B2B3D",
"6] c #AFADAD",
"7] c #3F3B34",
"8] c #292310",
"9] c #282211",
":] c #292635",
";] c #262E86",
"<] c #18181A",
"=] c #2E2818",
">] c #24202D",
"?] c #232979",
"@] c #5E5C57",
"A] c #2E2816",
"B] c #221F2A",
"C] c #212775",
"D] c #C8C9C9",
"E] c #626363",
"F] c #242321",
"G] c #7B7C7A",
"H] c #A1A2A1",
"I] c #969493",
"J] c #3F3B35",
"K] c #23202B",
"L] c #202776",
"M] c #7E7C7B",
"N] c #6A6765",
"O] c #211A08",
"P] c #221E2A",
"Q] c #1F2574",
"R] c #302F31",
"S] c #242325",
"T] c #19191B",
"U] c #1F1E20",
"V] c #1D1B1E",
"W] c #141416",
"X] c #3C3A37",
"Y] c #383532",
"Z] c #201C27",
"[] c #1D2370",
"]] c #ACACAD",
"^] c #717173",
"_] c #313133",
"`] c #1F1F22",
"a] c #252427",
"b] c #222225",
"c] c #1F1F21",
"d] c #1A1A1D",
"e] c #1A191D",
"f] c #201F21",
"g] c #1D1C1F",
"h] c #8C8C8D",
"i] c #23211E",
"j] c #201E19",
"k] c #201D17",
"l] c #211D20",
"m] c #1F1F43",
"n] c #1C2683",
"o] c #434345",
"p] c #3C3C3E",
"q] c #323135",
"r] c #2D2C30",
"s] c #2C2B2F",
"t] c #2A2A2E",
"u] c #28282B",
"v] c #242428",
"w] c #201F24",
"x] c #1B1A1F",
"y] c #19181D",
"z] c #19191D",
"{] c #1B1A1E",
"|] c #1E1D20",
"}] c #383634",
"~] c #292723",
" ^ c #221F18",
"!^ c #23201F",
"#^ c #212252",
"$^ c #1F277F",
"%^ c #2E2E30",
"&^ c #29292B",
"'^ c #2E2D30",
"(^ c #2F2E31",
")^ c #2E2E32",
"*^ c #2F2F33",
"+^ c #303034",
",^ c #2F2F34",
"-^ c #2C2C31",
".^ c #29292F",
"/^ c #24242A",
"0^ c #202026",
"1^ c #1D1D24",
"2^ c #1A1A21",
"3^ c #18171E",
"4^ c #15151C",
"5^ c #17171D",
"6^ c #1C1C21",
"7^ c #1E1E21",
"8^ c #2D2B27",
"9^ c #232017",
":^ c #232124",
";^ c #21297B",
"<^ c #323032",
"=^ c #302E31",
">^ c #303133",
"?^ c #252528",
"@^ c #29292C",
"A^ c #353338",
"B^ c #36353A",
"C^ c #35343A",
"D^ c #36363C",
"E^ c #39393F",
"F^ c #3C3C42",
"G^ c #3B3B43",
"H^ c #383840",
"I^ c #313139",
"J^ c #292831",
"K^ c #1E1D26",
"L^ c #161520",
"M^ c #11111D",
"N^ c #13131E",
"O^ c #1C1C23",
"P^ c #1E1E23",
"Q^ c #1A1A1E",
"R^ c #18181B",
"S^ c #171719",
"T^ c #161618",
"U^ c #141417",
"V^ c #626361",
"W^ c #222129",
"X^ c #444446",
"Y^ c #3B3A3D",
"Z^ c #1F1F25",
"[^ c #222228",
"]^ c #232329",
"^^ c #29282F",
"_^ c #44434A",
"`^ c #4E4D54",
"a^ c #4B4A51",
"b^ c #56565B",
"c^ c #6F6F74",
"d^ c #86868B",
"e^ c #9D9DA1",
"f^ c #ACACB0",
"g^ c #ADADB1",
"h^ c #949498",
"i^ c #6A6A71",
"j^ c #2D2D3A",
"k^ c #0F0E1F",
"l^ c #0F0F1F",
"m^ c #131321",
"n^ c #1C1B26",
"o^ c #1F1E26",
"p^ c #1B1A21",
"q^ c #18181D",
"r^ c #17171B",
"s^ c #16161A",
"t^ c #151519",
"u^ c #161418",
"v^ c #161417",
"w^ c #454343",
"x^ c #1D1A11",
"y^ c #232129",
"z^ c #BEBEBF",
"{^ c #A5A5A7",
"|^ c #717174",
"}^ c #424245",
"~^ c #39393D",
" _ c #47474A",
"!_ c #4A4A4D",
"#_ c #414146",
"$_ c #3E3E45",
"%_ c #43434A",
"&_ c #46464D",
"'_ c #505058",
"(_ c #717178",
")_ c #7E7E83",
"*_ c #7B7B80",
"+_ c #87878B",
",_ c #A1A1A4",
"-_ c #BABABD",
"._ c #D2D2D4",
"/_ c #E1E1E3",
"0_ c #86868C",
"1_ c #343343",
"2_ c #0C0B20",
"3_ c #0E0E22",
"4_ c #131325",
"5_ c #1A1A28",
"6_ c #1D1C28",
"7_ c #1B1923",
"8_ c #18181F",
"9_ c #16161B",
":_ c #16151A",
";_ c #161519",
"<_ c #161517",
"=_ c #B2B1B0",
">_ c #19170F",
"?_ c #232128",
"@_ c #242E8C",
"A_ c #5D5D60",
"B_ c #46464A",
"C_ c #3B3B3F",
"D_ c #2F2E33",
"E_ c #3F3F45",
"F_ c #6B6B70",
"G_ c #86868A",
"H_ c #8F8F93",
"I_ c #98989C",
"J_ c #A8A8AC",
"K_ c #C2C2C6",
"L_ c #CCCCCF",
"M_ c #CBCBCE",
"N_ c #CECED1",
"O_ c #D7D7DA",
"P_ c #E0E0E2",
"Q_ c #85858C",
"R_ c #333247",
"S_ c #0B0A25",
"T_ c #0D0C26",
"U_ c #111028",
"V_ c #181729",
"W_ c #1B1A29",
"X_ c #1A1A26",
"Y_ c #181922",
"Z_ c #17171F",
"[_ c #17161C",
"]_ c #17151A",
"^_ c #161619",
"__ c #474546",
"`_ c #272525",
"a_ c #4A4844",
"b_ c #242328",
"c_ c #252D81",
"d_ c #8F8F91",
"e_ c #1D1D22",
"f_ c #26262D",
"g_ c #23232B",
"h_ c #1A1A24",
"i_ c #3D3D47",
"j_ c #8E8E92",
"k_ c #C3C3C6",
"l_ c #E6E6E8",
"m_ c #E9E9EB",
"n_ c #E7E7E9",
"o_ c #E1E2E4",
"p_ c #D8D9DC",
"q_ c #CDCED3",
"r_ c #C0C1C8",
"s_ c #B8B8C1",
"t_ c #ACACB5",
"u_ c #91909B",
"v_ c #686777",
"w_ c #2B2A45",
"x_ c #0D0C2C",
"y_ c #0F0E2C",
"z_ c #14132B",
"{_ c #18172B",
"|_ c #181924",
"}_ c #171821",
"~_ c #17171E",
" ` c #151518",
"!` c #8E8E8F",
"#` c #5F5E5B",
"$` c #2B2922",
"%` c #28272B",
"&` c #272C73",
"'` c #D1D1D3",
"(` c #D4D4D6",
")` c #59595B",
"*` c #545457",
"+` c #4E4E51",
",` c #464649",
"-` c #414145",
".` c #3B3B40",
"/` c #303035",
"0` c #292931",
"1` c #23232F",
"2` c #191826",
"3` c #464550",
"4` c #A9A8AD",
"5` c #DCDCDE",
"6` c #E0E0E3",
"7` c #E2E2E5",
"8` c #DBDBDD",
"9` c #D6D6D9",
":` c #D1D0D4",
";` c #C1C0C5",
"<` c #A6A6AC",
"=` c #838490",
">` c #5A5A71",
"?` c #454562",
"@` c #444361",
"A` c #3B3A59",
"B` c #2E2D4E",
"C` c #1D1C3F",
"D` c #131136",
"E` c #100E33",
"F` c #0F0D30",
"G` c #100E2D",
"H` c #13122C",
"I` c #1A192C",
"J` c #191827",
"K` c #171724",
"L` c #171721",
"M` c #141418",
"N` c #898786",
"O` c #55534E",
"P` c #2F2D30",
"Q` c #272962",
"R` c #9F9FA1",
"S` c #949495",
"T` c #303036",
"U` c #313137",
"V` c #2E2E35",
"W` c #2D2D35",
"X` c #2E2E36",
"Y` c #2C2C35",
"Z` c #282834",
"[` c #262735",
"]` c #222232",
"^` c #19192B",
"_` c #464554",
"`` c #A8A8AD",
"a` c #D4D3D6",
"b` c #C9C8CE",
"c` c #B2B2BC",
"d` c #A5A5B1",
"e` c #A09FAC",
"f` c #9B9AA7",
"g` c #8B8A99",
"h` c #707181",
"i` c #4F4F66",
"j` c #262547",
"k` c #131139",
"l` c #14123A",
"m` c #13113A",
"n` c #14113A",
"o` c #16143D",
"p` c #15133C",
"q` c #100E39",
"r` c #0D0A35",
"s` c #0B0930",
"t` c #0F0D2F",
"u` c #18172E",
"v` c #18182A",
"w` c #171726",
"x` c #171723",
"y` c #171720",
"z` c #16161D",
"{` c #15151A",
"|` c #73716E",
"}` c #353232",
"~` c #282546",
" a c #282C76",
"!a c #626264",
"#a c #565659",
"$a c #575759",
"%a c #4D4D51",
"&a c #45454A",
"'a c #3D3C42",
"(a c #39393E",
")a c #3A393E",
"*a c #37373D",
"+a c #34343C",
",a c #32323B",
"-a c #2F2F3A",
".a c #2C2C38",
"/a c #292935",
"0a c #252533",
"1a c #202030",
"2a c #212134",
"3a c #201F35",
"4a c #1B1A32",
"5a c #3F3E51",
"6a c #8C8B94",
"7a c #ABABAF",
"8a c #9E9DA2",
"9a c #82818D",
":a c #504E6A",
";a c #454365",
"<a c #454466",
"=a c #444365",
">a c #403F61",
"?a c #39385B",
"@a c #302F54",
"Aa c #25234B",
"Ba c #1F1C46",
"Ca c #1D1A42",
"Da c #1A163E",
"Ea c #18143D",
"Fa c #17133E",
"Ga c #14103E",
"Ha c #0F0B3D",
"Ia c #0B083A",
"Ja c #060535",
"Ka c #090932",
"La c #171632",
"Ma c #19192D",
"Na c #181829",
"Oa c #161620",
"Pa c #15151D",
"Qa c #383531",
"Ra c #28231E",
"Sa c #292A4E",
"Ta c #38383C",
"Ua c #343337",
"Va c #363539",
"Wa c #353539",
"Xa c #36363B",
"Ya c #37373E",
"Za c #393940",
"[a c #3C3B42",
"]a c #3C3C43",
"^a c #3A3A42",
"_a c #37373F",
"`a c #3C3C45",
"aa c #3D3D46",
"ba c #3A3A44",
"ca c #3A3A46",
"da c #3F3E4B",
"ea c #444351",
"fa c #464655",
"ga c #38384A",
"ha c #2B2B41",
"ia c #201E3B",
"ja c #33314D",
"ka c #646376",
"la c #767584",
"ma c #686778",
"na c #4D4C65",
"oa c #1F1D46",
"pa c #191643",
"qa c #1B1948",
"ra c #1C1A4D",
"sa c #1D1B53",
"ta c #1F1E58",
"ua c #21205D",
"va c #242361",
"wa c #242365",
"xa c #202169",
"ya c #1C1E6C",
"za c #191B68",
"{a c #16165D",
"|a c #121051",
"}a c #0E0A45",
"~a c #09053D",
" b c #030239",
"!b c #060537",
"#b c #131234",
"$b c #181730",
"%b c #19182C",
"&b c #171725",
"'b c #161622",
"(b c #16151F",
")b c #16161C",
"*b c #3C3833",
"+b c #2A230E",
",b c #2A2A3C",
"-b c #919193",
".b c #767678",
"/b c #535356",
"0b c #4C4C4F",
"1b c #4C4C50",
"2b c #49494D",
"3b c #454549",
"4b c #444448",
"5b c #3C3B41",
"6b c #3B3941",
"7b c #3A3941",
"8b c #393941",
"9b c #3A3B43",
":b c #3D3E46",
";b c #414049",
"<b c #44434C",
"=b c #45444F",
">b c #454550",
"?b c #44444F",
"@b c #4E4E59",
"Ab c #63636C",
"Bb c #6B6B74",
"Cb c #686871",
"Db c #71717A",
"Eb c #888790",
"Fb c #A09FA7",
"Gb c #AFAFB6",
"Hb c #7B7B86",
"Ib c #4F4F63",
"Jb c #2C2A4E",
"Kb c #1F1D47",
"Lb c #282650",
"Mb c #2B2A54",
"Nb c #2A2755",
"Ob c #272454",
"Pb c #211E54",
"Qb c #211F5C",
"Rb c #212168",
"Sb c #212277",
"Tb c #212484",
"Ub c #21258D",
"Vb c #212695",
"Wb c #21279C",
"Xb c #2028A8",
"Yb c #1C2AC1",
"Zb c #1628CA",
"[b c #1320AB",
"]b c #0F1685",
"^b c #0C0958",
"_b c #080241",
"`b c #030140",
"ab c #04023D",
"bb c #0C0938",
"cb c #161435",
"db c #191832",
"eb c #18172D",
"fb c #171729",
"gb c #171626",
"hb c #171523",
"ib c #15161D",
"jb c #2B2616",
"kb c #2C2C3F",
"lb c #4D4D4F",
"mb c #58585A",
"nb c #464648",
"ob c #3C3C40",
"pb c #3B3B42",
"qb c #3A3A41",
"rb c #393942",
"sb c #363640",
"tb c #32323E",
"ub c #302F3D",
"vb c #363644",
"wb c #494953",
"xb c #5F5F67",
"yb c #76767E",
"zb c #84848C",
"{b c #909098",
"|b c #A2A2AA",
"}b c #B2B2B9",
"~b c #C5C5CB",
" c c #CCCDD2",
"!c c #CFD0D5",
"#c c #D8D7DD",
"$c c #E0DEE4",
"%c c #DADADD",
"&c c #A3A4AB",
"'c c #6E6E83",
"(c c #34325E",
")c c #18164D",
"*c c #1A1951",
"+c c #1C1A54",
",c c #1D1957",
"-c c #1E1958",
".c c #201C65",
"/c c #20259B",
"0c c #202ABB",
"1c c #0C1DB1",
"2c c #090A66",
"3c c #060143",
"4c c #030046",
"5c c #020145",
"6c c #06053D",
"7c c #181737",
"8c c #181832",
"9c c #17162B",
":c c #161527",
";c c #171624",
"<c c #171621",
"=c c #2B261A",
">c c #2E2D3E",
"?c c #2B3283",
"@c c #868688",
"Ac c #333438",
"Bc c #343539",
"Cc c #35363B",
"Dc c #3A3A3F",
"Ec c #3D3D44",
"Fc c #3C3C44",
"Gc c #3B3A43",
"Hc c #41414A",
"Ic c #43434C",
"Jc c #42424B",
"Kc c #44444D",
"Lc c #4C4C56",
"Mc c #555461",
"Nc c #565663",
"Oc c #535361",
"Pc c #5D5D6A",
"Qc c #76767F",
"Rc c #8E8E95",
"Sc c #A5A5AC",
"Tc c #B5B5BB",
"Uc c #C1C1C7",
"Vc c #D3D3D8",
"Wc c #DDDDE2",
"Xc c #E4E4E9",
"Yc c #E6E6EC",
"Zc c #E3E3E9",
"[c c #DEDFE5",
"]c c #D8D8E0",
"^c c #CDCCD7",
"_c c #B0AFC0",
"`c c #86879C",
"ac c #5F5F80",
"bc c #2F2D61",
"cc c #181654",
"dc c #1B1958",
"ec c #1C195B",
"fc c #1C185E",
"gc c #1C175D",
"hc c #1D196C",
"ic c #1C26B6",
"jc c #0A20C5",
"kc c #070D7A",
"lc c #040253",
"mc c #02014E",
"nc c #010049",
"oc c #030342",
"pc c #0D0C3D",
"qc c #13123A",
"rc c #171637",
"sc c #191833",
"tc c #17162A",
"uc c #171627",
"vc c #16161F",
"wc c #2E2D3A",
"xc c #2C3075",
"yc c #D0D0D2",
"zc c #D6D6D8",
"{c c #4F4F53",
"|c c #48484B",
"}c c #3D3D42",
"~c c #3A393F",
" d c #3B3A40",
"!d c #3B3C43",
"#d c #3A3B42",
"$d c #373741",
"%d c #373742",
"&d c #353541",
"'d c #30303E",
"(d c #383845",
")d c #4B4B56",
"*d c #53535E",
"+d c #50505B",
",d c #5B5B65",
"-d c #7F7F87",
".d c #A3A3AB",
"/d c #ADADB5",
"0d c #AAA8B1",
"1d c #B2B0B8",
"2d c #DADADF",
"3d c #DFDFE4",
"4d c #E2E2E7",
"5d c #E3E3E7",
"6d c #DDDEE2",
"7d c #D2D3D9",
"8d c #C9C9D1",
"9d c #C2C2CA",
":d c #B5B5BF",
";d c #A3A2AE",
"<d c #848399",
"=d c #4D4C78",
">d c #38386C",
"?d c #2E2E66",
"@d c #211F5F",
"Ad c #1A175C",
"Bd c #1B165D",
"Cd c #1B155F",
"Dd c #1A1461",
"Ed c #19125F",
"Fd c #1A146D",
"Gd c #1922B9",
"Hd c #051098",
"Id c #030671",
"Jd c #01025A",
"Kd c #00004D",
"Ld c #010147",
"Md c #050440",
"Nd c #0B0A3C",
"Od c #15143B",
"Pd c #1A1937",
"Qd c #171522",
"Rd c #16151E",
"Sd c #15151B",
"Td c #2C2A34",
"Ud c #2C2D65",
"Vd c #E8E8E9",
"Wd c #ADADAF",
"Xd c #57575A",
"Yd c #49494C",
"Zd c #38383B",
"[d c #343438",
"]d c #38383E",
"^d c #3D3C44",
"_d c #3C3B44",
"`d c #3B3A44",
"ad c #3A3944",
"bd c #3B3B46",
"cd c #40404A",
"dd c #45454F",
"ed c #4C4C57",
"fd c #4D4D58",
"gd c #4E4E5A",
"hd c #52525F",
"id c #60606C",
"jd c #777781",
"kd c #81818B",
"ld c #7F7F88",
"md c #8B8B93",
"nd c #D2D3D7",
"od c #DCDCE1",
"pd c #D9D9DE",
"qd c #DCDBE0",
"rd c #E5E4E9",
"sd c #E4E3E9",
"td c #DAD9E1",
"ud c #D3D2DC",
"vd c #CACAD5",
"wd c #BABAC9",
"xd c #ACACBE",
"yd c #9E9EB2",
"zd c #9393A9",
"{d c #8C8CA2",
"|d c #7F7F97",
"}d c #6D6C87",
"~d c #4F4D73",
" e c #1D1A57",
"!e c #141256",
"#e c #17155D",
"$e c #1A1764",
"%e c #1B176A",
"&e c #1A166D",
"'e c #181570",
"(e c #171474",
")e c #161377",
"*e c #161689",
"+e c #1523C7",
",e c #0414AF",
"-e c #020A88",
".e c #010363",
"/e c #000050",
"0e c #00004C",
"1e c #000044",
"2e c #050540",
"3e c #0F0E3D",
"4e c #15143A",
"5e c #171635",
"6e c #181731",
"7e c #17162D",
"8e c #171625",
"9e c #161621",
":e c #424039",
";e c #2A272C",
"<e c #2C2A4A",
"=e c #2B2F78",
">e c #58585B",
"?e c #404045",
"@e c #3D3D45",
"Ae c #3A3A43",
"Be c #393742",
"Ce c #373542",
"De c #343441",
"Ee c #32323F",
"Fe c #2F2F3E",
"Ge c #373645",
"He c #494954",
"Ie c #5E5E68",
"Je c #7A7A83",
"Ke c #7D7D87",
"Le c #878791",
"Me c #A0A0A8",
"Ne c #B5B5BC",
"Oe c #C6C6CD",
"Pe c #CFCFD5",
"Qe c #CECED4",
"Re c #D1D1D8",
"Se c #DBDBE1",
"Te c #E1E2E6",
"Ue c #E2E3E7",
"Ve c #D4D4DA",
"We c #C2C1CA",
"Xe c #A6A5B2",
"Ye c #9190A1",
"Ze c #797991",
"[e c #58577E",
"]e c #4B4A77",
"^e c #484776",
"_e c #454474",
"`e c #424171",
"ae c #3D3C6E",
"be c #383569",
"ce c #2F2B64",
"de c #1F1B5D",
"ee c #1A165C",
"fe c #1A1563",
"ge c #1A1670",
"he c #19167C",
"ie c #171685",
"je c #15168E",
"ke c #141696",
"le c #1318A3",
"me c #121FC0",
"ne c #0317BE",
"oe c #020E98",
"pe c #01056B",
"qe c #000054",
"re c #000051",
"se c #00004A",
"te c #020245",
"ue c #0C0B3C",
"ve c #151439",
"we c #191835",
"xe c #19182E",
"ye c #171728",
"ze c #171722",
"{e c #17171A",
"|e c #19181B",
"}e c #1A191C",
"~e c #292621",
" f c #2C2723",
"!f c #2C2D52",
"#f c #3D3D40",
"$f c #3A3940",
"%f c #3B3A42",
"&f c #3A3B44",
"'f c #3C3C47",
"(f c #43434E",
")f c #4C4B57",
"*f c #514F5C",
"+f c #54535F",
",f c #545361",
"-f c #5F5E6B",
".f c #767580",
"/f c #8E8E96",
"0f c #AAAAB1",
"1f c #B7B7BE",
"2f c #D0D0D5",
"3f c #DFDFE3",
"4f c #E5E5EA",
"5f c #E7E7EC",
"6f c #E4E4EA",
"7f c #DFE0E7",
"8f c #D2D2DC",
"9f c #B2B2C3",
":f c #B3B4C5",
";f c #AEAEC0",
"<f c #A1A0B4",
"=f c #8D8CA3",
">f c #72718C",
"?f c #5D5C7B",
"@f c #46456C",
"Af c #28265B",
"Bf c #1E1C57",
"Cf c #211D5A",
"Df c #211E5D",
"Ef c #201D61",
"Ff c #1F1D67",
"Gf c #1E1D6E",
"Hf c #1F1E73",
"If c #201E79",
"Jf c #1D1B7E",
"Kf c #1A1A87",
"Lf c #191B97",
"Mf c #171BA3",
"Nf c #141BAC",
"Of c #121BB4",
"Pf c #111BBB",
"Qf c #101EC9",
"Rf c #0114AE",
"Sf c #000778",
"Tf c #00005B",
"Uf c #000056",
"Vf c #00004F",
"Wf c #000049",
"Xf c #000043",
"Yf c #05053F",
"Zf c #0E0E3C",
"[f c #141338",
"]f c #161535",
"^f c #171631",
"_f c #18172C",
"`f c #181828",
"af c #181826",
"bf c #181823",
"cf c #181822",
"df c #181821",
"ef c #181820",
"ff c #191A1D",
"gf c #1C1B1F",
"hf c #1D1C1E",
"if c #28251D",
"jf c #2D2613",
"kf c #2D2C40",
"lf c #767679",
"mf c #636366",
"nf c #555558",
"of c #525255",
"pf c #4D4D50",
"qf c #3E3E43",
"rf c #3A3A40",
"sf c #3C3B43",
"tf c #3A3942",
"uf c #383741",
"vf c #373642",
"wf c #383643",
"xf c #31323F",
"yf c #2E2F3D",
"zf c #363745",
"{f c #545460",
"|f c #767680",
"}f c #8A8A92",
"~f c #9999A0",
" g c #A7A7AF",
"!g c #B2B2BB",
"#g c #C5C5CC",
"$g c #D2D2D9",
"%g c #DCDCE3",
"&g c #DDDDE3",
"'g c #DEDEE3",
"(g c #D3D3DA",
")g c #CACAD2",
"*g c #C3C3CB",
"+g c #B6B7C1",
",g c #9494A6",
"-g c #5E5D82",
".g c #4B4A76",
"/g c #4E4E7A",
"0g c #4D4E7A",
"1g c #4A4977",
"2g c #454373",
"3g c #3E3C6F",
"4g c #39366B",
"5g c #333066",
"6g c #2A2761",
"7g c #27235F",
"8g c #272360",
"9g c #262366",
":g c #252271",
";g c #232280",
"<g c #222393",
"=g c #20239F",
">g c #1E24AB",
"?g c #1B23BA",
"@g c #1924C8",
"Ag c #011ACB",
"Bg c #00098D",
"Cg c #000069",
"Dg c #00005C",
"Eg c #00004E",
"Fg c #000048",
"Gg c #020243",
"Hg c #05053E",
"Ig c #09083A",
"Jg c #0E0D37",
"Kg c #121135",
"Lg c #1A192D",
"Mg c #1A192B",
"Ng c #191928",
"Og c #191926",
"Pg c #191925",
"Qg c #191923",
"Rg c #191822",
"Sg c #191921",
"Tg c #1A1A20",
"Ug c #1C1B21",
"Vg c #1E1E22",
"Wg c #28241F",
"Xg c #2D271A",
"Yg c #2E2C40",
"Zg c #9B9B9C",
"[g c #777779",
"]g c #39393C",
"^g c #323235",
"_g c #3B3B44",
"`g c #3C3C46",
"ag c #43424E",
"bg c #4F4D5A",
"cg c #4E4C59",
"dg c #504F5C",
"eg c #565662",
"fg c #5A5A66",
"gg c #5B5B69",
"hg c #656573",
"ig c #83838E",
"jg c #A6A6AE",
"kg c #BABAC0",
"lg c #CACACF",
"mg c #D4D4D8",
"ng c #D7D7DC",
"og c #E5E5EB",
"pg c #E4E4EB",
"qg c #D6D6DF",
"rg c #CDCED9",
"sg c #BCBDCC",
"tg c #ADADBF",
"ug c #A09FB4",
"vg c #9695AB",
"wg c #8F8EA4",
"xg c #82829A",
"yg c #616180",
"zg c #302D60",
"{g c #1E1B56",
"|g c #1F1E59",
"}g c #222162",
"~g c #242266",
" h c #252369",
"!h c #27256E",
"#h c #292777",
"$h c #2A2982",
"%h c #2A2A85",
"&h c #292986",
"'h c #27288C",
"(h c #262899",
")h c #2428A8",
"*h c #2228BA",
"+h c #2028C6",
",h c #000FA8",
"-h c #000581",
".h c #000163",
"/h c #000058",
"0h c #000053",
"1h c #03023E",
"2h c #08063B",
"3h c #0C0B38",
"4h c #121134",
"5h c #141430",
"6h c #14142D",
"7h c #15142A",
"8h c #151528",
"9h c #151627",
":h c #161625",
";h c #1A1922",
"<h c #1A1A22",
"=h c #1B1B21",
">h c #1D1D21",
"?h c #25221D",
"@h c #2C271C",
"Ah c #2F2D40",
"Bh c #2C3287",
"Ch c #8E8E90",
"Dh c #4B4B4E",
"Eh c #444449",
"Fh c #424247",
"Gh c #3F3F44",
"Hh c #3E3E49",
"Ih c #41414C",
"Jh c #484853",
"Kh c #494955",
"Lh c #494956",
"Mh c #484855",
"Nh c #51515E",
"Oh c #6F6E79",
"Ph c #8F8F98",
"Qh c #9999A1",
"Rh c #96969E",
"Sh c #9F9FA7",
"Th c #B4B5BC",
"Uh c #C3C4CA",
"Vh c #CCCBD3",
"Wh c #D1D0D8",
"Xh c #D3D3DB",
"Yh c #D1D1DA",
"Zh c #CECED9",
"[h c #CACAD7",
"]h c #C7C6D4",
"^h c #C1C0CE",
"_h c #B8B7C6",
"`h c #A6A5B7",
"ah c #87869E",
"bh c #818199",
"ch c #71708F",
"dh c #4E4D78",
"eh c #3C3B6E",
"fh c #3D3B6F",
"gh c #3C3A70",
"hh c #3B3972",
"ih c #393774",
"jh c #333174",
"kh c #2B2A72",
"lh c #282772",
"mh c #272675",
"nh c #28277D",
"oh c #29298A",
"ph c #292991",
"qh c #282890",
"rh c #272898",
"sh c #262AB1",
"th c #252FCB",
"uh c #0012B1",
"vh c #000473",
"wh c #00005F",
"xh c #010148",
"yh c #03033E",
"zh c #040437",
"{h c #040433",
"|h c #050530",
"}h c #07062D",
"~h c #09072B",
" i c #0A0929",
"!i c #0B0B27",
"#i c #0C0C26",
"$i c #0D0D24",
"%i c #0F0E22",
"&i c #111021",
"'i c #121220",
"(i c #13131F",
")i c #14141E",
"*i c #1C1B1D",
"+i c #1E1D1F",
",i c #343535",
"-i c #3D3E3E",
".i c #CCCDCC",
"/i c #2F2D28",
"0i c #2F2C21",
"1i c #2E2E3D",
"2i c #2C317C",
"3i c #616163",
"4i c #515155",
"5i c #4E4E52",
"6i c #4A4A4E",
"7i c #3A3B41",
"8i c #393843",
"9i c #383843",
":i c #373743",
";i c #363643",
"<i c #353542",
"=i c #333340",
">i c #353543",
"?i c #4B4A56",
"@i c #605F69",
"Ai c #777680",
"Bi c #8A8A93",
"Ci c #9999A2",
"Di c #A2A2AB",
"Ei c #B3B2BA",
"Fi c #CCCAD1",
"Gi c #D8D8DF",
"Hi c #DBDBE2",
"Ii c #DEDEE4",
"Ji c #E2E1E7",
"Ki c #DFDEE4",
"Li c #D4D3DB",
"Mi c #CFCFD7",
"Ni c #C8C8D1",
"Oi c #A8A8B6",
"Pi c #88889E",
"Qi c #636387",
"Ri c #52517C",
"Si c #53527D",
"Ti c #51507D",
"Ui c #4E4C7C",
"Vi c #484778",
"Wi c #3F3E71",
"Xi c #3D3C6F",
"Yi c #38366C",
"Zi c #2E2B65",
"[i c #292563",
"]i c #292664",
"^i c #29266B",
"_i c #282676",
"`i c #282784",
"ai c #28299C",
"bi c #282BA9",
"ci c #272CB2",
"di c #262DBF",
"ei c #000592",
"fi c #00005E",
"gi c #00005A",
"hi c #000055",
"ii c #010050",
"ji c #02004C",
"ki c #020048",
"li c #010041",
"mi c #00003C",
"ni c #010038",
"oi c #020134",
"pi c #020131",
"qi c #02022F",
"ri c #02022D",
"si c #03032A",
"ti c #050428",
"ui c #090826",
"vi c #0F0E26",
"wi c #111025",
"xi c #121022",
"yi c #121020",
"zi c #12111E",
"{i c #14131E",
"|i c #17161F",
"}i c #1B1B22",
"~i c #232326",
" j c #262629",
"!j c #2F2E2F",
"#j c #3C3B3C",
"$j c #403E3F",
"%j c #9C9C9B",
"&j c #6A6965",
"'j c #2A2833",
"(j c #2B2D66",
")j c #6B6B6D",
"*j c #5C5C5E",
"+j c #333237",
",j c #343439",
"-j c #35353A",
".j c #3B3B45",
"/j c #41414B",
"0j c #484852",
"1j c #4A4A55",
"2j c #4C4C58",
"3j c #50505C",
"4j c #5A5A67",
"5j c #61616F",
"6j c #797883",
"7j c #8F8D96",
"8j c #A6A6AD",
"9j c #CACAD0",
":j c #D7D7DD",
";j c #E4E3EA",
"<j c #DDDDE5",
"=j c #D8D8E2",
">j c #D7D7E1",
"?j c #CECEDA",
"@j c #BDBDCD",
"Aj c #AEADC0",
"Bj c #9A99AF",
"Cj c #9494AA",
"Dj c #757590",
"Ej c #565679",
"Fj c #323163",
"Gj c #22205A",
"Hj c #25235D",
"Ij c #26245F",
"Jj c #272461",
"Kj c #282565",
"Lj c #29286E",
"Mj c #292876",
"Nj c #29297C",
"Oj c #2C2C84",
"Pj c #2C2C88",
"Qj c #2A2B87",
"Rj c #292A8E",
"Sj c #282B9C",
"Tj c #282CAC",
"Uj c #262DC2",
"Vj c #000DB1",
"Wj c #00037E",
"Xj c #00006A",
"Yj c #000063",
"Zj c #010057",
"[j c #020053",
"]j c #02004F",
"^j c #030243",
"_j c #04033F",
"`j c #05043C",
"aj c #060539",
"bj c #070637",
"cj c #070635",
"dj c #070732",
"ej c #08082F",
"fj c #0C0B2D",
"gj c #12112C",
"hj c #15142B",
"ij c #1E1D2D",
"jj c #2A2935",
"kj c #2C2B35",
"lj c #24232C",
"mj c #26262C",
"nj c #37373A",
"oj c #3E3E40",
"pj c #2B2B2D",
"qj c #2C2C2D",
"rj c #47443E",
"sj c #2B294B",
"tj c #2B2F7A",
"uj c #A8A8AA",
"vj c #89898C",
"wj c #666669",
"xj c #47474B",
"yj c #48484C",
"zj c #3C3C41",
"{j c #383841",
"|j c #363641",
"}j c #353540",
"~j c #343440",
" k c #33333F",
"!k c #31313E",
"#k c #343542",
"$k c #4A4B56",
"%k c #595A64",
"&k c #66666F",
"'k c #B3B3BB",
"(k c #C1C1CA",
")k c #CBCBD2",
"*k c #D2D1D8",
"+k c #D9D9DF",
",k c #E1E1E6",
"-k c #E8E8EC",
".k c #E9E9ED",
"/k c #CCCCD5",
"0k c #B4B3C0",
"1k c #A7A6B5",
"2k c #9F9FAE",
"3k c #88889F",
"4k c #616186",
"5k c #4E4D7A",
"6k c #4D4C79",
"7k c #4C4B7A",
"8k c #4A4A79",
"9k c #3A386C",
":k c #302E68",
";k c #2C2966",
"<k c #2D2966",
"=k c #2C2866",
">k c #2C296C",
"?k c #2B2A80",
"@k c #2A2A99",
"Ak c #292CAB",
"Bk c #2A30BF",
"Ck c #2931C8",
"Dk c #272FC5",
"Ek c #262FCB",
"Fk c #00089F",
"Gk c #00007E",
"Hk c #00006B",
"Ik c #000061",
"Jk c #000060",
"Kk c #010059",
"Lk c #010054",
"Mk c #03014F",
"Nk c #0A064B",
"Ok c #0D0949",
"Pk c #0E0A46",
"Qk c #100D43",
"Rk c #131142",
"Sk c #141340",
"Tk c #14143D",
"Uk c #15153A",
"Vk c #191836",
"Wk c #1D1C35",
"Xk c #222134",
"Yk c #363743",
"Zk c #5B5C62",
"[k c #5D5E61",
"]k c #38383D",
"^k c #676869",
"_k c #38393A",
"`k c #2B2C2C",
"ak c #404140",
"bk c #3F3E3E",
"ck c #2B2724",
"dk c #2C2D54",
"ek c #B9B8B9",
"fk c #A3A2A4",
"gk c #9D9C9E",
"hk c #929294",
"ik c #78787B",
"jk c #5B5B5E",
"kk c #3B3B3E",
"lk c #2C2C30",
"mk c #323237",
"nk c #333339",
"ok c #35353B",
"pk c #36363D",
"qk c #36373E",
"rk c #37383F",
"sk c #393945",
"tk c #3E3E4A",
"uk c #43434F",
"vk c #52515E",
"wk c #545360",
"xk c #5B5A68",
"yk c #767681",
"zk c #888892",
"{k c #95959D",
"|k c #A9A9B1",
"}k c #D1D1D6",
"~k c #EAEAF0",
" l c #E9E9F0",
"!l c #E3E3EA",
"#l c #DADAE2",
"$l c #D0D0DB",
"%l c #C5C5D4",
"&l c #BEBDCF",
"'l c #B9B8CA",
"(l c #AFAEC2",
")l c #9A99B0",
"*l c #82819B",
"+l c #757491",
",l c #6C6C8A",
"-l c #56567B",
".l c #323165",
"/l c #22205C",
"0l c #262460",
"1l c #282664",
"2l c #28266B",
"3l c #2A2875",
"4l c #2C2A7A",
"5l c #2E2D7D",
"6l c #2F2E81",
"7l c #2E2E87",
"8l c #2E2E8B",
"9l c #2D2D8D",
":l c #2C2D94",
";l c #2A2CA7",
"<l c #292DBF",
"=l c #0011C3",
">l c #0008A0",
"?l c #00037F",
"@l c #00006C",
"Al c #000065",
"Bl c #00005D",
"Cl c #030156",
"Dl c #0A0652",
"El c #0D0950",
"Fl c #0E0A4D",
"Gl c #100D4B",
"Hl c #141149",
"Il c #171447",
"Jl c #181544",
"Kl c #191742",
"Ll c #1A193E",
"Ml c #1C1B3C",
"Nl c #1F1E3B",
"Ol c #24233A",
"Pl c #383848",
"Ql c #5A5B64",
"Rl c #696A6F",
"Sl c #656569",
"Tl c #6E6E71",
"Ul c #3B3B3D",
"Vl c #626164",
"Wl c #565459",
"Xl c #555458",
"Yl c #555559",
"Zl c #525256",
"[l c #434348",
"]l c #373842",
"^l c #363742",
"_l c #343344",
"`l c #474755",
"al c #5D5D68",
"bl c #75757E",
"cl c #898991",
"dl c #9898A0",
"el c #ADADB6",
"fl c #C6C6CC",
"gl c #D1D1D7",
"hl c #D8D8DE",
"il c #E1E1E7",
"jl c #DADBE1",
"kl c #D2D2DB",
"ll c #C2C2CD",
"ml c #A7A7B6",
"nl c #636388",
"ol c #52527E",
"pl c #53537F",
"ql c #52517F",
"rl c #4C4B7C",
"sl c #454477",
"tl c #414074",
"ul c #3F3E72",
"vl c #39386E",
"wl c #302D69",
"xl c #2D2967",
"yl c #2D296D",
"zl c #2C2A80",
"{l c #2C2D9A",
"|l c #2C2EA3",
"}l c #2B2DA1",
"~l c #2B2EAA",
" m c #2B30BF",
"!m c #0008A1",
"#m c #000080",
"$m c #01005C",
"%m c #030258",
"&m c #040355",
"'m c #050452",
"(m c #070550",
")m c #0A064E",
"*m c #0D084C",
"+m c #100C49",
",m c #121047",
"-m c #151443",
".m c #191740",
"/m c #1C1A3E",
"0m c #1F1D3C",
"1m c #22223B",
"2m c #27273B",
"3m c #4F4F5D",
"4m c #9C9CA1",
"5m c #444447",
"6m c #353337",
"7m c #2D2C2F",
"8m c #32302F",
"9m c #5C5A59",
":m c #4F4D4C",
";m c #28251E",
"<m c #2D2819",
"=m c #2E2C3F",
">m c #6D6D6F",
"?m c #38373C",
"@m c #333137",
"Am c #353339",
"Bm c #34343A",
"Cm c #3A3945",
"Dm c #3F3E4A",
"Em c #40404B",
"Fm c #42424E",
"Gm c #484755",
"Hm c #4E4D5B",
"Im c #545462",
"Jm c #555465",
"Km c #605E6F",
"Lm c #757582",
"Mm c #8C8C96",
"Nm c #A5A5AD",
"Om c #B9B9C0",
"Pm c #C9C8CF",
"Qm c #D3D2D8",
"Rm c #DADAE0",
"Sm c #E5E5EC",
"Tm c #DEDEE7",
"Um c #DADAE3",
"Vm c #D8D7E1",
"Wm c #B1B1C3",
"Xm c #A7A7BB",
"Ym c #9E9EB4",
"Zm c #8E8EA7",
"[m c #757591",
"]m c #22215C",
"^m c #25245F",
"_m c #262562",
"`m c #272566",
"am c #29266D",
"bm c #292772",
"cm c #2A2878",
"dm c #2B2A7E",
"em c #2D2D85",
"fm c #2E2E88",
"gm c #2D2D88",
"hm c #2D2D8F",
"im c #2C2EA6",
"jm c #2B30C1",
"km c #2A30C9",
"lm c #292FC6",
"mm c #0010C4",
"nm c #0009A5",
"om c #00088C",
"pm c #00067D",
"qm c #000377",
"rm c #00026F",
"sm c #000062",
"tm c #000059",
"um c #040051",
"vm c #07024F",
"wm c #0B064C",
"xm c #0F0A49",
"ym c #131045",
"zm c #181542",
"{m c #1A1840",
"|m c #1D1B3F",
"}m c #1A1838",
"~m c #110F2C",
" n c #434256",
"!n c #B0AFB5",
"#n c #D9D8DA",
"$n c #6B6B6E",
"%n c #2A292C",
"&n c #2E2D3F",
"'n c #2B3286",
"(n c #AAAAAB",
")n c #5A5A5D",
"*n c #3B3C41",
"+n c #3B3A41",
",n c #3C3A42",
"-n c #383842",
".n c #32313F",
"/n c #353544",
"0n c #4A4A56",
"1n c #72727D",
"2n c #A8A7AF",
"3n c #B4B3BC",
"4n c #BCBBC4",
"5n c #C7C7CF",
"6n c #E0DFE6",
"7n c #E5E4EB",
"8n c #E7E5EC",
"9n c #E0E0E6",
":n c #D4D4DB",
";n c #C6C6D0",
"<n c #B5B5C1",
"=n c #A09FAF",
">n c #8888A0",
"?n c #616187",
"@n c #4E4D7C",
"An c #4F4D7D",
"Bn c #4D4C7D",
"Cn c #49487A",
"Dn c #424175",
"En c #3A3970",
"Fn c #312F6B",
"Gn c #2C2A69",
"Hn c #2D2A6A",
"In c #2C286C",
"Jn c #2C297A",
"Kn c #2C2A89",
"Ln c #2B2B9B",
"Mn c #2B2DAB",
"Nn c #2B30B8",
"On c #2B31C1",
"Pn c #2A30C5",
"Qn c #0017C9",
"Rn c #0012B8",
"Sn c #000BA6",
"Tn c #00058D",
"Un c #000166",
"Vn c #020055",
"Wn c #040052",
"Xn c #07014F",
"Yn c #0A024C",
"Zn c #0E0649",
"[n c #140E45",
"]n c #191541",
"^n c #1C1941",
"_n c #1F1D42",
"`n c #1E1C3F",
"an c #171636",
"bn c #424158",
"cn c #9F9EA6",
"dn c #78787C",
"en c #323134",
"fn c #313033",
"gn c #E7E8E8",
"hn c #BBBCBB",
"in c #201D18",
"jn c #2B271B",
"kn c #2F2E3F",
"ln c #2B3183",
"mn c #333337",
"nn c #36363A",
"on c #37373B",
"pn c #393944",
"qn c #383844",
"rn c #393946",
"sn c #4D4D5A",
"tn c #4F4E5C",
"un c #515060",
"vn c #5E5E6C",
"wn c #777782",
"xn c #82828C",
"yn c #7F7F89",
"zn c #BBBAC2",
"{n c #D6D6DB",
"|n c #E2E2EA",
"}n c #D9D9E2",
"~n c #D2D2DD",
" o c #CDCDDA",
"!o c #C5C4D4",
"#o c #B4B3C6",
"$o c #A1A0B7",
"%o c #9292AA",
"&o c #81819B",
"'o c #6D6B8A",
"(o c #57557C",
")o c #323066",
"*o c #22205D",
"+o c #272363",
",o c #272569",
"-o c #28266E",
".o c #292974",
"/o c #2C2B7A",
"0o c #2F2E7F",
"1o c #302F84",
"2o c #2F2E8A",
"3o c #2E2E8E",
"4o c #2C2D92",
"5o c #2B2CA1",
"6o c #2B2DB0",
"7o c #2A2EC1",
"8o c #0013CB",
"9o c #000EB2",
":o c #000A8C",
";o c #000881",
"<o c #01087E",
"=o c #02087A",
">o c #030877",
"?o c #040975",
"@o c #070973",
"Ao c #0A0970",
"Bo c #0D0C6D",
"Co c #14146A",
"Do c #191B69",
"Eo c #1D1E62",
"Fo c #222055",
"Go c #211F49",
"Ho c #424159",
"Io c #93929C",
"Jo c #C9C8CA",
"Ko c #8B8B8E",
"Lo c #5B5B5F",
"Mo c #353538",
"No c #6A6867",
"Oo c #373531",
"Po c #322E24",
"Qo c #2E2C3B",
"Ro c #2B3078",
"So c #5B5A5E",
"To c #4C4B4F",
"Uo c #4C4C51",
"Vo c #4D4D52",
"Wo c #4B4B50",
"Xo c #48484D",
"Yo c #434349",
"Zo c #3F3F48",
"[o c #404049",
"]o c #3F3F49",
"^o c #444450",
"_o c #484857",
"`o c #474757",
"ao c #50505F",
"bo c #636370",
"co c #787783",
"do c #8D8E98",
"eo c #9B9CA5",
"fo c #A7A6AF",
"go c #B7B6BF",
"ho c #C3C2CB",
"io c #CFCFD6",
"jo c #D1D1D9",
"ko c #D2D2DA",
"lo c #C4C4D1",
"mo c #BCBCCB",
"no c #B8B8C8",
"oo c #B4B4C5",
"po c #A5A5B8",
"qo c #8B8BA3",
"ro c #787894",
"so c #6C6B8B",
"to c #5C5B82",
"uo c #444275",
"vo c #3D3C73",
"wo c #3C3B74",
"xo c #393875",
"yo c #383777",
"zo c #37367A",
"{o c #33337B",
"|o c #2E2E7A",
"}o c #2B2B7B",
"~o c #2C2B81",
" p c #2B2C90",
"!p c #2B2C9B",
"#p c #2A2DA4",
"$p c #2A2DAC",
"%p c #2B2EB2",
"&p c #2B2FBE",
"'p c #041CCA",
"(p c #051DC9",
")p c #081EC8",
"*p c #0B1FC7",
"+p c #0E21C5",
",p c #1525C4",
"-p c #1B29C7",
".p c #1F29B2",
"/p c #232685",
"0p c #232263",
"1p c #1E1D4A",
"2p c #3F3F59",
"3p c #868691",
"4p c #BABABE",
"5p c #D5D5D7",
"6p c #AAAAAD",
"7p c #7A7A7E",
"8p c #47474D",
"9p c #373739",
":p c #423F38",
";p c #2B2B56",
"<p c #2A3085",
"=p c #6C6C6F",
">p c #5E5E61",
"?p c #5D5D61",
"@p c #5A5A5E",
"Ap c #56565A",
"Bp c #4A4A4F",
"Cp c #3F3F46",
"Dp c #373744",
"Ep c #343443",
"Fp c #313140",
"Gp c #393947",
"Hp c #54545F",
"Ip c #5B5B68",
"Jp c #B0B0B8",
"Kp c #B3B3BC",
"Lp c #BBBBC4",
"Mp c #D9D9E0",
"Np c #DFDFE5",
"Op c #E2E2E8",
"Pp c #C9C9D2",
"Qp c #C2C2CC",
"Rp c #B5B5C2",
"Sp c #A3A3B3",
"Tp c #86869F",
"Up c #565682",
"Vp c #4B4B7D",
"Wp c #4B4A7E",
"Xp c #4A497D",
"Yp c #454479",
"Zp c #3E3D73",
"[p c #38376F",
"]p c #35346E",
"^p c #312F6C",
"_p c #2C2868",
"`p c #2B2769",
"ap c #2B276F",
"bp c #2B287A",
"cp c #2B2989",
"dp c #2A2A9C",
"ep c #2A2CAC",
"fp c #2B2FB9",
"gp c #2B30C2",
"hp c #232BAD",
"ip c #242783",
"jp c #22225A",
"kp c #3B3958",
"lp c #6E6D7D",
"mp c #A1A1A8",
"np c #D5D5D9",
"op c #BBBBBD",
"pp c #8A8A8E",
"qp c #4C4C53",
"rp c #313138",
"sp c #2C2724",
"tp c #3F3F43",
"up c #313136",
"vp c #3F3F47",
"wp c #404048",
"xp c #3E3E48",
"yp c #3D3D48",
"zp c #525260",
"{p c #535362",
"|p c #60606E",
"}p c #777783",
"~p c #82828D",
" q c #7F7F8B",
"!q c #8B8B96",
"#q c #AFAFB7",
"$q c #D2D2D8",
"%q c #E3E3E8",
"&q c #E6E6EB",
"'q c #E7E7EE",
"(q c #E3E2EB",
")q c #DAD9E2",
"*q c #D3D2DD",
"+q c #BABACC",
",q c #ACACC2",
"-q c #9F9FB5",
".q c #9594AC",
"/q c #8E8DA7",
"0q c #81809D",
"1q c #6F6F8E",
"2q c #53537B",
"3q c #282763",
"4q c #201F60",
"5q c #222064",
"6q c #232169",
"7q c #24226E",
"8q c #262473",
"9q c #272677",
":q c #28277C",
";q c #292982",
"<q c #2B2B8A",
"=q c #2B2B8E",
">q c #2B2B95",
"?q c #2A2BA1",
"@q c #2A2CB0",
"Aq c #292DC2",
"Bq c #232CBB",
"Cq c #252992",
"Dq c #252462",
"Eq c #343254",
"Fq c #515168",
"Gq c #848492",
"Hq c #C5C5C7",
"Iq c #4F4F56",
"Jq c #303038",
"Kq c #323234",
"Lq c #525254",
"Mq c #636365",
"Nq c #4B4948",
"Oq c #2D2C41",
"Pq c #6A6A6D",
"Qq c #5A595D",
"Rq c #59595D",
"Sq c #4B4B51",
"Tq c #404047",
"Uq c #3D3D43",
"Vq c #3E3E44",
"Wq c #403F48",
"Xq c #333343",
"Yq c #323242",
"Zq c #3A3A4A",
"[q c #4B4B59",
"]q c #7E7E87",
"^q c #8C8C95",
"_q c #96969F",
"`q c #A4A4AD",
"aq c #B4B4BD",
"bq c #C6C6CE",
"cq c #CECED6",
"dq c #DBDBE3",
"eq c #DFDFE6",
"fq c #D4D4DD",
"gq c #C1C0CC",
"hq c #A6A4B5",
"iq c #9190A4",
"jq c #797995",
"kq c #5A5885",
"lq c #4D4B7E",
"mq c #48477C",
"nq c #46447B",
"oq c #434078",
"pq c #3E3B74",
"qq c #363470",
"rq c #2A286A",
"sq c #282569",
"tq c #28256F",
"uq c #28267A",
"vq c #282685",
"wq c #28278F",
"xq c #282898",
"yq c #2829A0",
"zq c #282BAE",
"{q c #282EC6",
"|q c #232DC1",
"}q c #262A9B",
"~q c #28276A",
" r c #2A2751",
"!r c #2D2B50",
"#r c #5D5C77",
"$r c #C8C8CF",
"%r c #D3D3D6",
"&r c #A3A3A8",
"'r c #52525B",
"(r c #2F2F37",
")r c #4F4D4D",
"*r c #28251F",
"+r c #2D281A",
",r c #606063",
"-r c #404044",
".r c #323236",
"/r c #36353B",
"0r c #38363D",
"1r c #38373E",
"2r c #39383F",
"3r c #3E3D48",
"4r c #3D3C48",
"5r c #454551",
"6r c #535360",
"7r c #585865",
"8r c #595968",
"9r c #565667",
":r c #616170",
";r c #787884",
"<r c #8F8F99",
"=r c #ADADB4",
">r c #BCBCC3",
"?r c #DFE0E8",
"@r c #D2D2DE",
"Ar c #B2B2C6",
"Br c #B3B3C7",
"Cr c #AEADC3",
"Dr c #A1A0B8",
"Er c #8D8BA7",
"Fr c #727090",
"Gr c #5D5C81",
"Hr c #474673",
"Ir c #2A2764",
"Jr c #211E61",
"Kr c #232164",
"Lr c #242268",
"Mr c #24216D",
"Nr c #252273",
"Or c #26247A",
"Pr c #27267F",
"Qr c #2A2985",
"Rr c #2A298A",
"Sr c #292A92",
"Tr c #282BA0",
"Ur c #282BAC",
"Vr c #272AB5",
"Wr c #272ABE",
"Xr c #262BC5",
"Yr c #232DCB",
"Zr c #272CA5",
"[r c #2A296F",
"]r c #262350",
"^r c #1C1A47",
"_r c #49486A",
"`r c #BFBFC8",
"ar c #DEDEE1",
"br c #B0B0B5",
"cr c #55555E",
"dr c #2C2C36",
"er c #25221E",
"fr c #2C281D",
"gr c #3F3E47",
"hr c #3A3947",
"ir c #393846",
"jr c #363645",
"kr c #303042",
"lr c #383849",
"mr c #555563",
"nr c #767682",
"or c #8D8D97",
"pr c #AEAEB7",
"qr c #ABAAB4",
"rr c #B3B2BC",
"sr c #DFDFE7",
"tr c #E1E1E8",
"ur c #CACAD3",
"vr c #C3C3CD",
"wr c #B6B7C3",
"xr c #9494A9",
"yr c #5E5E87",
"zr c #4C4B7D",
"{r c #4F4E81",
"|r c #4F4E82",
"}r c #4B497F",
"~r c #45447B",
" s c #3E3D76",
"!s c #383773",
"#s c #33316F",
"$s c #2C286B",
"%s c #29256A",
"&s c #29256B",
"'s c #292571",
"(s c #28267C",
")s c #28278B",
"*s c #27289E",
"+s c #2729AA",
",s c #262CC4",
"-s c #262CB3",
".s c #292874",
"/s c #272352",
"0s c #201E4C",
"1s c #48476A",
"2s c #E7E7EB",
"3s c #BDBDC3",
"4s c #565660",
"5s c #35353D",
"6s c #D5D6D4",
"7s c #201D19",
"8s c #2B271D",
"9s c #2F2E40",
":s c #3F3E48",
";s c #464551",
"<s c #50505D",
"=s c #51505F",
">s c #575766",
"?s c #5B5B6A",
"@s c #5C5C6D",
"As c #666676",
"Bs c #838390",
"Cs c #A5A5AE",
"Ds c #BCBDC5",
"Es c #D5D6DC",
"Fs c #DADAE1",
"Gs c #DDDCE4",
"Hs c #E6E5ED",
"Is c #E4E4EC",
"Js c #D4D4E0",
"Ks c #CCCCDA",
"Ls c #BCBBCE",
"Ms c #ADADC2",
"Ns c #A0A0B7",
"Os c #9696AE",
"Ps c #8F8FA8",
"Qs c #82829E",
"Rs c #2F2E68",
"Ss c #1E1D5F",
"Ts c #212062",
"Us c #232166",
"Vs c #24216B",
"Ws c #25226F",
"Xs c #262472",
"Ys c #282881",
"Zs c #2A2A8B",
"[s c #2B2B8F",
"]s c #2A2A90",
"^s c #292997",
"_s c #282AA2",
"`s c #282AB1",
"as c #272BC4",
"bs c #242DC1",
"cs c #27287F",
"ds c #26235A",
"es c #212052",
"fs c #46466B",
"gs c #ADADB9",
"hs c #E9E9EE",
"is c #60606B",
"js c #30303C",
"ks c #35353F",
"ls c #404043",
"ms c #6A6868",
"ns c #322E25",
"os c #2E2C3D",
"ps c #2A328D",
"qs c #474753",
"rs c #4B4B5A",
"ss c #4A4A59",
"ts c #70707C",
"us c #90909A",
"vs c #9999A3",
"ws c #9696A0",
"xs c #9F9FA9",
"ys c #B6B6BE",
"zs c #CCCCD4",
"{s c #D3D3DC",
"|s c #D1D1DC",
"}s c #D0D0DD",
"~s c #CDCCDB",
" t c #C8C7D6",
"!t c #C1C0D0",
"#t c #B8B7C9",
"$t c #A6A6BA",
"%t c #8786A1",
"&t c #81809C",
"'t c #717093",
"(t c #4E4D7E",
")t c #3D3B75",
"*t c #3D3C76",
"+t c #3C3B77",
",t c #3B3A79",
"-t c #39387B",
".t c #33327B",
"/t c #28287C",
"0t c #28277F",
"1t c #292886",
"2t c #2A2993",
"3t c #292A99",
"4t c #282998",
"5t c #2729A0",
"6t c #272AB9",
"7t c #25299A",
"8t c #252471",
"9t c #201F5C",
":t c #414069",
";t c #A09FAE",
"<t c #CDCDD3",
"=t c #4E4E58",
">t c #292731",
"?t c #2A2E6F",
"@t c #60606D",
"At c #787782",
"Bt c #8B8A94",
"Ct c #9A99A3",
"Dt c #A4A3AD",
"Et c #A9A7B2",
"Ft c #B4B3BD",
"Gt c #D9D9E1",
"Ht c #DCDCE4",
"It c #DCDCE5",
"Jt c #DEDEE6",
"Kt c #D4D4DC",
"Lt c #CFCFD8",
"Mt c #C7C8D2",
"Nt c #A8A8B8",
"Ot c #8888A1",
"Pt c #64638C",
"Qt c #535282",
"Rt c #545385",
"St c #525185",
"Tt c #4F4D83",
"Ut c #49477F",
"Vt c #403E78",
"Wt c #3D3B77",
"Xt c #383674",
"Yt c #2F2B6E",
"Zt c #2A266C",
"[t c #2B276D",
"]t c #2B2774",
"^t c #2A277F",
"_t c #29288D",
"`t c #2829A4",
"at c #282BB2",
"bt c #282BBB",
"ct c #272CC7",
"dt c #232AB6",
"et c #24258E",
"ft c #211F67",
"gt c #393763",
"ht c #888899",
"it c #D8D8DD",
"jt c #717078",
"kt c #42414C",
"lt c #2D2C37",
"mt c #323239",
"nt c #2F3034",
"ot c #E5E4E5",
"pt c #282523",
"qt c #2B2A41",
"rt c #8E8E99",
"st c #A7A5AF",
"tt c #BBB9C2",
"ut c #CACAD1",
"vt c #D8D7DE",
"wt c #DEDCE4",
"xt c #D9D9E4",
"yt c #D7D7E3",
"zt c #CECEDC",
"{t c #BDBDCF",
"|t c #AEAEC3",
"}t c #9A9AB2",
"~t c #9494AE",
" u c #757594",
"!u c #56567F",
"#u c #33316A",
"$u c #222161",
"%u c #252465",
"&u c #262568",
"'u c #27256A",
"(u c #2A2876",
")u c #2A287F",
"*u c #2A2986",
"+u c #2C2C8D",
",u c #2D2C90",
"-u c #2C2B8F",
".u c #2B2A96",
"/u c #2A2AA3",
"0u c #292BB3",
"1u c #272CC9",
"2u c #212BC2",
"3u c #22269B",
"4u c #21206D",
"5u c #312F5F",
"6u c #6F6F87",
"7u c #E0E0E4",
"8u c #B9B9BD",
"9u c #2F2F38",
":u c #2F3035",
";u c #3D3E40",
"<u c #E6E4E5",
"=u c #2B2930",
">u c #DAD8E1",
"?u c #E1E0E8",
"@u c #E8E7EE",
"Au c #E9E9EF",
"Bu c #DEDDE5",
"Cu c #CDCCD6",
"Du c #B4B4C2",
"Eu c #A7A7B8",
"Fu c #9F9FB2",
"Gu c #8888A3",
"Hu c #62618C",
"Iu c #4E4E80",
"Ju c #4D4D80",
"Ku c #4D4C81",
"Lu c #4B4A81",
"Mu c #43427A",
"Nu c #3A3975",
"Ou c #312F70",
"Pu c #2C2A6E",
"Qu c #2D2B6F",
"Ru c #2D2A6F",
"Su c #2C2970",
"Tu c #2C2976",
"Uu c #2B2AA1",
"Vu c #2A2CB3",
"Wu c #2A2FC7",
"Xu c #1F2AC9",
"Yu c #2126A3",
"Zu c #222173",
"[u c #28245B",
"]u c #504F73",
"^u c #C4C3CF",
"_u c #E8E7EA",
"`u c #CFCED1",
"au c #9A9AA0",
"bu c #4B4955",
"cu c #303136",
"du c #333437",
"eu c #24221D",
"fu c #E3E3EB",
"gu c #DBDAE4",
"hu c #D1D0DD",
"iu c #C6C5D7",
"ju c #BEBED2",
"ku c #B9B9CD",
"lu c #AFAFC5",
"mu c #9A9AB3",
"nu c #8282A0",
"ou c #757596",
"pu c #6C6C8F",
"qu c #33316D",
"ru c #262569",
"su c #28276D",
"tu c #282674",
"uu c #2A297F",
"vu c #2C2B84",
"wu c #2F2E85",
"xu c #302F89",
"yu c #2F2F8F",
"zu c #2E2E93",
"{u c #2D2D94",
"|u c #2C2C9B",
"}u c #2A2CAD",
"~u c #292DC5",
" v c #2027AD",
"!v c #222278",
"#v c #221F5A",
"$v c #3A3865",
"%v c #9F9DAF",
"&v c #BFBEC6",
"'v c #AAAAB3",
"(v c #81818C",
")v c #444251",
"*v c #282634",
"+v c #2D2D37",
",v c #303037",
"-v c #303033",
".v c #2C2B34",
"/v c #2A3189",
"0v c #C3C3CF",
"1v c #A9A8B8",
"2v c #8A88A2",
"3v c #65638D",
"4v c #535283",
"5v c #4C4C82",
"6v c #45457E",
"7v c #41417B",
"8v c #3F3E7A",
"9v c #3A3876",
":v c #312D70",
";v c #2C296E",
"<v c #2C2A6F",
"=v c #2C2A76",
">v c #2B2CA3",
"?v c #2C2DAB",
"@v c #2D2EA9",
"Av c #2D2FB2",
"Bv c #2C30C7",
"Cv c #1F28BA",
"Dv c #21217C",
"Ev c #221D5B",
"Fv c #2D2B5E",
"Gv c #5E5C78",
"Hv c #656578",
"Iv c #4C4C63",
"Jv c #3A3A51",
"Kv c #312F42",
"Lv c #2D2B3A",
"Mv c #2F2E36",
"Nv c #42413D",
"Ov c #302E37",
"Pv c #908FAB",
"Qv c #767595",
"Rv c #575680",
"Sv c #33326B",
"Tv c #222163",
"Uv c #252467",
"Vv c #292775",
"Wv c #29287A",
"Xv c #2A2981",
"Yv c #2B2A87",
"Zv c #2E2D8C",
"[v c #2F2E90",
"]v c #2E2D91",
"^v c #2D2D98",
"_v c #2C2EAD",
"`v c #2B2FC7",
"av c #1E29C4",
"bv c #202080",
"cv c #211D5D",
"dv c #27255C",
"ev c #403F60",
"fv c #43425B",
"gv c #35344E",
"hv c #2E2D45",
"iv c #2D2C3C",
"jv c #515153",
"kv c #616162",
"lv c #C3C3C1",
"mv c #D1D2D2",
"nv c #34323A",
"ov c #2B2E78",
"pv c #4A4881",
"qv c #43417C",
"rv c #3A3977",
"sv c #313072",
"tv c #2C2B71",
"uv c #2D2B72",
"vv c #2D2975",
"wv c #2C2A83",
"xv c #2C2B91",
"yv c #2B2DB3",
"zv c #2A2FCA",
"{v c #1D28CA",
"|v c #1F1F83",
"}v c #201C5F",
"~v c #28265F",
" w c #464467",
"!w c #58576E",
"#w c #656475",
"$w c #5A5969",
"%w c #29293B",
"&w c #2D2E3A",
"'w c #2E2F37",
"(w c #363638",
")w c #D9DADA",
"*w c #73716F",
"+w c #38363C",
",w c #2B2C67",
"-w c #2A287C",
".w c #2C2B82",
"/w c #2F2E87",
"0w c #302F8C",
"1w c #2F2F92",
"2w c #2E2F96",
"3w c #2D2D9A",
"4w c #2C2DA8",
"5w c #2B2DB6",
"6w c #2A2EC7",
"7w c #1E1F86",
"8w c #1F1B61",
"9w c #414066",
":w c #585770",
";w c #71707F",
"<w c #666673",
"=w c #39394C",
">w c #262639",
"?w c #3B383B",
"@w c #2C294C",
"Aw c #2B2E7A",
"Bw c #2B2DAA",
"Cw c #2B2DB2",
"Dw c #2B2EB9",
"Ew c #2B2FC5",
"Fw c #1F1E8C",
"Gw c #201A65",
"Hw c #262463",
"Iw c #3F3E67",
"Jw c #555470",
"Kw c #6D6C7F",
"Lw c #686776",
"Mw c #454457",
"Nw c #323144",
"Ow c #31303E",
"Pw c #37373C",
"Qw c #8F8E8D",
"Rw c #3C3A38",
"Sw c #2C2721",
"Tw c #2C2C4D",
"Uw c #1E209B",
"Vw c #1E1B73",
"Ww c #2F2D6D",
"Xw c #777592",
"Yw c #A4A3B0",
"Zw c #C1C0CA",
"[w c #BBBAC4",
"]w c #93939D",
"^w c #6A6A76",
"_w c #403F4D",
"`w c #2D2C38",
"aw c #313239",
"bw c #343538",
"cw c #2E2D42",
"dw c #1E22AA",
"ew c #1E1E83",
"fw c #2E2C70",
"gw c #706F8F",
"hw c #B8B8BE",
"iw c #85848D",
"jw c #484754",
"kw c #2C2C39",
"lw c #303138",
"mw c #232428",
"nw c #353334",
"ow c #2F2B22",
"pw c #2D2C42",
"qw c #2A318B",
"rw c #1E25BC",
"sw c #212297",
"tw c #26246E",
"uw c #313063",
"vw c #66668A",
"ww c #C9C8D7",
"xw c #E6E5EA",
"yw c #BDBEC3",
"zw c #898A91",
"{w c #33333A",
"|w c #29292E",
"}w c #605E5C",
"~w c #343128",
" x c #2C2C40",
"!x c #2B3187",
"#x c #1F28C8",
"$x c #2326A4",
"%x c #24216E",
"&x c #151350",
"'x c #484775",
"(x c #BCBCCE",
")x c #C6C7CC",
"*x c #93949B",
"+x c #4C4D5A",
",x c #2E2E3B",
"-x c #B0B0B2",
".x c #E4E3E4",
"/x c #767473",
"0x c #3A3830",
"1x c #2B2A3A",
"2x c #2C2F73",
"3x c #2427A8",
"4x c #262371",
"5x c #1C1A56",
"6x c #E5E5E9",
"7x c #A3A3AA",
"8x c #2E2E3C",
"9x c #797878",
":x c #41403A",
";x c #292830",
"<x c #2C2B52",
"=x c #2B2F81",
">x c #252AB6",
"?x c #272575",
"@x c #201E5A",
"Ax c #4D4D7A",
"Bx c #AEAEC1",
"Cx c #B1B1B8",
"Dx c #8B898A",
"Ex c #D2D0D1",
"Fx c #E1DFDF",
"Gx c #464441",
"Hx c #292628",
"Ix c #2C2837",
"Jx c #2B2D65",
"Kx c #282679",
"Lx c #23215D",
"Mx c #4B4A78",
"Nx c #A09FB3",
"Ox c #D5D4DA",
"Px c #E8E7EB",
"Qx c #BEBEC5",
"Rx c #585866",
"Sx c #2C2C3B",
"Tx c #7A7B7C",
"Ux c #AAABAB",
"Vx c #292623",
"Wx c #2C2C50",
"Xx c #282780",
"Yx c #242261",
"Zx c #494777",
"[x c #9696AB",
"]x c #CCCCD3",
"^x c #636371",
"_x c #5E5F60",
"`x c #8D8E8E",
"ax c #272520",
"bx c #292A93",
"cx c #262469",
"dx c #464575",
"ex c #8A8AA2",
"fx c #BEBEC9",
"gx c #83838D",
"hx c #555560",
"ix c #3E3F3F",
"jx c #5B5B59",
"kx c #2A2825",
"lx c #2D2920",
"mx c #292DAB",
"nx c #292773",
"ox c #413F70",
"px c #73728D",
"qx c #A6A6B3",
"rx c #DAD9E0",
"sx c #787882",
"tx c #474752",
"ux c #606062",
"vx c #737474",
"wx c #2C3187",
"xx c #2A2EB6",
"yx c #2B2A79",
"zx c #3A376B",
"{x c #575679",
"|x c #8A899F",
"}x c #D2D0DC",
"~x c #E1E0E6",
" y c #B7B7BD",
"!y c #878790",
"#y c #4A4954",
"$y c #414148",
"%y c #939191",
"&y c #C3C1C1",
"'y c #8C8D8D",
"(y c #2A2FBC",
")y c #312E67",
"*y c #333162",
"+y c #656487",
",y c #E6E6EA",
"-y c #BFBFC5",
".y c #404046",
"/y c #423F3B",
"0y c #2A2731",
"1y c #2C2A53",
"2y c #2B2F82",
"3y c #2930C5",
"4y c #2D2A65",
"5y c #222059",
"6y c #C0BFD1",
"7y c #9898A1",
"8y c #4C4B58",
"9y c #414147",
":y c #464343",
";y c #2A262A",
"<y c #2D2938",
"=y c #2C2E66",
">y c #2F2F88",
"?y c #2D2B66",
"@y c #26245D",
"Ay c #55537F",
"By c #A6A6AF",
"Cy c #4E4D5A",
"Dy c #41404A",
"Ey c #424248",
"Fy c #888788",
"Gy c #292626",
"Hy c #2D2825",
"Iy c #2D2D51",
"Jy c #2D2A68",
"Ky c #282661",
"Ly c #B0B0C2",
"My c #403F4A",
"Ny c #969596",
"Oy c #4B494B",
"Py c #2D281C",
"Qy c #2E2D46",
"Ry c #2D2E8E",
"Sy c #4F4F7D",
"Ty c #A1A2B6",
"Uy c #D4D5DC",
"Vy c #E7E8ED",
"Wy c #BFBFC7",
"Xy c #4C4B5A",
"Yy c #ACABAC",
"Zy c #4F4D4F",
"[y c #2D281F",
"]y c #2F2E45",
"^y c #2D2E95",
"_y c #2C2A6D",
"`y c #282766",
"ay c #4C4C7C",
"by c #9899AF",
"cy c #CCCDD5",
"dy c #5F5F6D",
"ey c #42424D",
"fy c #42424A",
"gy c #BDBCBC",
"hy c #5E5B5C",
"iy c #2F2B29",
"jy c #302B24",
"ky c #2F2D45",
"ly c #2C328C",
"my c #2C2EA8",
"ny c #2D2B82",
"oy c #2A286F",
"py c #474578",
"qy c #82829D",
"ry c #92929A",
"sy c #3F3F42",
"ty c #818081",
"uy c #2D2C3F",
"vy c #2C317D",
"wy c #2B2FC1",
"xy c #2E2E9D",
"yy c #2F2E7C",
"zy c #34326B",
"{y c #3D3B6A",
"|y c #6F6E8F",
"}y c #CACBD8",
"~y c #E5E6E9",
" z c #44444A",
"!z c #626265",
"#z c #43413D",
"$z c #2B2934",
"%z c #2C2C55",
"&z c #2E30A8",
"'z c #313181",
"(z c #222058",
")z c #53517B",
"*z c #C0C0D0",
"+z c #AEAEB4",
",z c #575763",
"-z c #3B3B47",
".z c #767777",
"/z c #2A282C",
"0z c #2D2A3A",
"1z c #2C2F68",
"2z c #2D2FAC",
"3z c #303083",
"4z c #2E2C69",
"5z c #26255E",
"6z c #55547F",
"7z c #BBBBCC",
"8z c #BABAC1",
"9z c #3A3946",
":z c #43424B",
";z c #5C5C5F",
"<z c #403E3E",
"=z c #494748",
">z c #2B2828",
"?z c #2E2A27",
"@z c #2E2F53",
"Az c #2D31BA",
"Bz c #303087",
"Cz c #2F2D69",
"Dz c #292861",
"Ez c #54547F",
"Fz c #C4C4CC",
"Gz c #5D5D6B",
"Hz c #373745",
"Iz c #44444B",
"Jz c #979697",
"Kz c #4C4B4C",
"Lz c #2A2724",
"Mz c #2F2A1F",
"Nz c #302F49",
"Oz c #2F308C",
"Pz c #2F2C68",
"Qz c #2A2863",
"Rz c #50507D",
"Sz c #A2A3B6",
"Tz c #D5D5DC",
"Uz c #CCCDD4",
"Vz c #5E5E6D",
"Wz c #44444C",
"Xz c #3F4040",
"Yz c #514F50",
"Zz c #313048",
"[z c #2F3095",
"]z c #2F2B6D",
"^z c #2A2866",
"_z c #4D4C7B",
"`z c #9898AE",
"az c #D1D2D9",
"bz c #686876",
"cz c #3B3B4A",
"dz c #41414D",
"ez c #BEBDBE",
"fz c #5F5D5F",
"gz c #312E2D",
"hz c #313148",
"iz c #2E30A0",
"jz c #2E2C79",
"kz c #2A296A",
"lz c #9392A9",
"mz c #C6C6CF",
"nz c #7A7A86",
"oz c #464650",
"pz c #43434B",
"qz c #454548",
"rz c #38362F",
"sz c #303048",
"tz c #2D30AF",
"uz c #2E2D88",
"vz c #2B2A71",
"wz c #484878",
"xz c #87879F",
"yz c #BABAC4",
"zz c #62626D",
"{z c #4B4B55",
"|z c #5E5C5C",
"}z c #3F3D39",
"~z c #302F40",
" { c #2F3386",
"!{ c #2C31C6",
"#{ c #2E2FA0",
"${ c #2D2C7B",
"%{ c #666585",
"&{ c #9897AA",
"'{ c #D3D2DB",
"({ c #AEAEB5",
"){ c #51515C",
"*{ c #3A3A3D",
"+{ c #616164",
",{ c #2E31AD",
"-{ c #303082",
".{ c #32306A",
"/{ c #343366",
"0{ c #66658B",
"1{ c #CFCDDA",
"2{ c #BDBDC4",
"3{ c #8D8D95",
"4{ c #5E5D60",
"5{ c #2E32B8",
"6{ c #313187",
"7{ c #2E2B68",
"8{ c #23225D",
"9{ c #545380",
":{ c #CCCAD8",
";{ c #CBCAD1",
"<{ c #9A9AA3",
"={ c #565664",
">{ c #383946",
"?{ c #41424A",
"@{ c #424348",
"A{ c #3D3C41",
"B{ c #5C5B5E",
"C{ c #2D32C4",
"D{ c #30308A",
"E{ c #272560",
"F{ c #555581",
"G{ c #CAC9D7",
"H{ c #AFAFB8",
"I{ c #5A5A69",
"J{ c #C3C3D1",
"K{ c #E8E8EE",
"L{ c #3C3C4A",
"M{ c None",
"                                                                                                                                                                                                                                                                                                                                ! # $ % & ' ( ) * ! # $ + , - . + / 0                                                                                                                                                                                                                         1                                                                                                                                                                                                                                                                                       2 3 4 5 6                                                                                                                                                                                                                                                                                                                   ",
"                                                                                                                                                                                                                                                                                                                                                                                                                                                                                                                                                                                                                                                                                                                                                                                                                                                                                        7 8 9 :                                                                                                                                                                                                                                                                                                                   ",
"                                                                                                                                                                                                                                                                                                                                                                                                                                                                                                                                                                                                                                                                                                                                                                                                                                                                                        ; < = >                                                                                                                                                                                                                                                                                                                   ",
"                                                                                                                                                                                                                                                                                                                                                                                                                                                                                                                                                                                                                                                                                                                                                                                                                                                                                        ? @ A B                                                                                                                                                                                                                                                                                                                   ",
"                                                                                                                                                                                                                                                                                                                                                                                                                                                                                                                                                                                                                                                                                                                                                                                                                                                                                        C D E F                                                                                                                                                                                                                                                                                                                   ",
"                                                                                                                                                                                                                                                                                                                                                                                                                                                                                                                                                                                                                                      G H ) I J K L M 1 G N ) O . P Q R S                                                                                                                                                                                                               T U V                                                                                                                                                                                                                                                                                                                     ",
"                                                                                                                                                                                                                                                                                                                                                                                                                                                                                                                                                                                                                              W X Y * $ Z ) J O W X Y * $ Z ) [ ] ^ _ ` a b c                                                                                                                                                                                                             d E                                                                                                                                                                                                                                                                                                                     ",
"                                                                                                                                                                                                                                                                                                                                                                                                                                                                                                                                                                                                                        e f g h i j * * j e f g h i j * * j e f g k l m a n o p q r s t u v w                                                                                                                                                                                             x                                                                                                                                                                                                                                                                                                                       ",
"                                                                                                                                                                                                                                                                                                                                                                                                                                                                                                      $                                                                                                           $ * y z { | } ~  !$ * y !!#!| } ~  !$ * y !!#!| $!%!&!'!(!)!*!+!,!-!.!/!0!1!                                                                                                                                                                                            2!                                                                                                                                                                                                                                                                                                                      ",
"                                                                                                                                                                                                                                                                                                                                                                                                                                                                                                3!) 4!G 5!/                                                                                               6!7!i 8!9!1 M :!;!6!7!i 8!9!1 M z <!=!J i 8!9!1 M z >!=!J ?!@!A!B!C!D!E!F!G!H!I!J!K!L!                                                                                                                                                                                                                                                                                                                                                                                                                                                                                                                  ",
"                                                                                                                                                                                                                                                                                                                                                                                                                                                                        M!N!O!- P!5!Q!5!$ R!S!T!- U!5!Q!1 G V!S!                                                                                      W!X!Y!Z![!]!5!* 9!W!X!T!Z![!]!5!$ ^!_!`!a!- b!]!5!$ ^!_!c!d!e!f!g!h!i!j!k!l!m!n!o!p!q!r!s!                                                                                                                                                                                                                                                                                                                                                                                                                                                                                                                  ",
"                                                                                                                                                                                                                                                                                                                                                                                                                                                                    Q!0 # t!u!v!w!x!y!1 5!Q!z!{!v!w!% |!$ 1 Q!}!Z!T!~!                                                                            ^!$ 5! #- T!~!!#R!9!* 5! #- T!~!!#R!9!* Q!##Z!T!~!!#R!9!* Q!##$#%#&#'#(#)#*#+#,#-#.#/#0#1#2#3#                                                                                                                                                                                                                                                                                                                                                                                                                                                                                                                  ",
"                                                                                                                                                                                                                                                                                                                                                                                                                                                                  R!5!# * 4#5#6#{ 7#M!$ Q!G R!5#6#{ 8#_!9!5!G V!9#:#;#<#L                                                                     S!M!M 1 9!W!3!O!;#<#:!M 1 9!W!9#:#;#<#:!M 1 ^!y!9#:#;#<#:!M 1 ^!y!=#>#{ ?#@#A#B#C#D#E#F#G#H#I#J#K#L#                                                                                                                                                                                                                                                                                                                                                                                                                                                                                                                ",
"                                                                                                                                                                                                                                                                                                                                                                                                                                                              M#w!N#$ # 0 :!. O#7!P#!!9!Q!1 Q#R#S#7!c!T#M 1 $ 4#U#S#9#V#X M 1 * _!W#S#9#V#T#y * $ 4#U#S#3!P#T#y * $ 4#U#S#3!P#T#y * $ 4#U#S#3!P#T#y * $ 4#U#S#9#V#T#y * $ 4#U#S#9#V#T#y * $ 4#U#S#9#V#T#y * g!X#U#v!7!`!Y#Z#[#B#]#^#_#[ `#a#b#c#d#                                                                                                                                                                                                                                                                                                                                                                                                                                                                                                                ",
"                                                                                                                                                                                                                                                                                e#f#g#h#E#i#j#k#l#m#n#o#z!p#6#{ q#T#Q!# r###Z!6!{ 7#L Q!r#!                                                                                                               s#u!t#u# #9!]!]!M!h g u!G#+ ^!Q!Q!v#h g u!s#~ y 5!1 R!k {!g h i Y * * 4#k {!g h i Y $ $ R!h g g h i j * * R!h g g h i j * * R!h g g h i j * * R!h g g h i j * * R!h g g h i j * * R!w#{!g h i j * x#y#w#{!g k z#{#|#}#~# $Z!!$s t u v w                                                                                                                                                                                                                                                                                                                                                                                                                                                                                                                 ",
"                                                                                                                                                                                                                                                                                #$$$%$&$'$m!W#($)$*$+$,$-$5#:#. .$N#5!! 0 L /$6!0$1$N#1 r#]!M!f | 2$3$                                                                                                r#M!4$5$v!6$##^!]!# Q#7$8$| 9$z!/ 0 0 v#7$5$v!f + j 1 5!R!:$5$v!f ;$<$* 1 R!7$=$S#f ;$<$$ * W!>$I | } ~  !$ * W!>$I | } ~  !$ * W!>$I | } ~  !$ * W!>$I | } ~  !$ * W!>$I | } ~  !$ * V!?$8$| } ~  !$ * @$?$8$| A$B$C$D$[#E$F$2$,!-!.!G$H$1!                                                                                                                                                                                                                                                                                                                                                                                                                                                                                                                ",
"                                                                                                                                                                                                                                                                                I$J$K$L$M$N$O$P$Q$R$S$T$U$[ V$J w!e 1 ! # T#6$| 2$?$;$* ! # M!s#g g s#) ^!                                                                                        / ! W$M!W n!X$9#x!M ]!r#Q#Y$2$=!3!% y 0 ]!_!Y$2$=!7! # !1 Q!R!Y$2$=![ ) N $ 5!R!>$5$X$[ ;$4!G 5!y!.$;#6!7!i 8!9!1 y!.$;#6!7!i 8!9!1 y!.$;#6!7!i 8!9!1 y!.$;#6!7!i 8!9!1 y!.$;#6!7!i 8!9!1 V!Y$n!=!J i 8!9!Z$[$Y$n!=!J ]$^$_$a `$a$b$F!G!H!I!J!K!                                                                                                                                                                                                                                                                                                                                                                                                                                                                                                                ",
"                                                                                                                                                                                                                                                                                  c$d$e$f$g$h$i$j$a k$k$U$l$m$I 3$~ * ! ! L G#u!n$<!}!G ! ! M!4$5$v!f }!M 0 # Q#                                                                                U!0 W$W$Q#o$0$p$=$q$Q!r#r#Q#o$;#p$=$q$5!! # R!r$9$=!=$s$G Q!Q!y!t$f :#=$U!Q!0 5!|!q#>!6!p#U!5!Q!1 r#P!7$T!Z![!]!5!* r#P!7$T!Z![!]!5!* r#P!7$T!Z![!]!5!* r#P!7$T!Z![!]!5!* r#P!7$T!Z![!]!5!$ u$v$u#a!- b!]!5!$ w$v$u#a!- b!x$y$D$z${$|$}$n!o!p!q!~$                                                                                                                                                                                                                                                                                                                                                                                                                                                                                                                ",
"                                                                                                                                                                                                                                                                                   %!%#%$%r %%&%'%(%)%k$*%+%g u!G# #G # ! M!?$5$O![ % / # r#M!W 2$=!3!##Y 0 ! Q#>$n!=!3!% y ]!! Q#3$=$p$3! #<$5!#                                           6#t#,%T#W!r#_!7#u#6#t#,%T#y!! 4#8#G#6#t#,%L |!]!|!-%V#v!.%q#v#r#5!W$t!`!/%0%1%x!y!* Q!u$2%g | w!% |!$ 5!0 b!- T!;![!V!9!1 0 b!- T!~!!#R!9!1 0 b!- T!;![!V!9!1 0 b!- T!;![!V!9!1 0 b!- T!~!!#R!9!1 ! 3%Z!Y!;![!V!4%Z$! !#- Y!;!b!5%6%7%8%9%-#.#/#0#1#2#:%                                                                                                                                                                                                                                                                                                                                                                                                                                                                                                              ",
"                                                                                                                                                                                                                                                                                  ;%<%=%>%?%@%A%B%C%D%E%*%F%=$S#9$z!/ ]!! v#1$M#p$=$q$Q!r#r#_!1$M#p$5$G%1 # # _!1$M#p$5$f!5!! r#R!H%I%O!- J%]!# # K%x!w!L%L%c!M%4#0 |!M%c!L%L%P#N%v## W!t!w!/%| N!s$Q## W!t!w!/%L%V#O%v## W!t!1%/%L%V#N%_!]!u$v#8#{!L%P%s$R!1 ]!R!Q%=$O#u#7#v#G $ R%;$5#6#{ 8#_!9!$ R%~ 9#:#;#<#:!M 9!8!i 9#:#;#<#:!M 9!8!i 9#:#;#<#:!M 9!8!i 9#:#;#<#:!M 9!8!i 9#:#;#<#:!M 9!S%i 9#:#;#<#:!M 4%T%e 3!O!;#U%V%W%X%Y%Z%[%F#G#H#I#J#]%                                                                                                                                                                                                                                                                                                                                                                                                                                                                                                              ",
"                                                                                                                                                                                                                                                                                  ^%_%`%a%b%c%d%e%f%g%S$h%?$i%X$3!z!j 0 r#4#j%<!a!t#,%L y!# R!q#u#N$g j%:!|!# R!7#u#N$u!H%L |!! r#W!k%u!| `!l%V!Q!]!]!J%- 6!{ 7#L 5!! r#[!- a!{ q#T#0 r#r#[!- 6!>!j%X 0 W$r#[!- a!{ q#z # u$W$!#{!6!{ 7#X ]!r#5!s$9#Y!9$X!X * 0 G -%7!Y!. o$T#9!1 <$ #J T!. .$:!/ $  !+ M#N$J K L M G H ) M#N$J K L M G H ) M#N$J K L M G H ) M#N$J K L M G H ) M#N$J K L M G N ) M#N$J K L M G m%;$0$T!n%o%-$W%B#p%q%r%s%t%u%v%w%x%                                                                                                                                                                                                                                                                                                                                                                                                                                                                                                              ",
"                                                                                                                                                                                                                                                                                  y%z%{%|%}%~%[% &!&#&S$y#,%#!O!Z![!! r#! y!M%c!L%L%V#O%v## |!t!w!0%/%P#N%_!0 |!l%1%/%L%P#N%_!# ]! ! #O 6#{ 7#:!5!Q!<$z!O :#R#<#!!1 ]!Y % O :#. .$N#5!# Y % O :#. .$N#Q!! M % 9#6!0$$&~ ]!r#^!x!7!6#J w!~ 0 ! / }!f | 8$7$;$$ Q!Y ) } L%2$3$e ^!5!y  #f | 2$%&!!M * j ) } /%O W X Y $ Z ) } /%O W X Y $ Z ) } /%O W X Y $ Z ) } /%O W X Y $ Z ) } /%O W X Y $ Z ) } /%O W X Y &&'&(&)&/%h$*&U$Z#+&,&-&.&/&0&1&2&3&4&                                                                                                                                                                                                                                                                                                                                                                                                                                                                                                              ",
"                                                                                                                                                                                                                                                                                    5&6&7&i$8&9&:&;&<&T$=&>&?&@&O#7$b!Q#0 ! 5!f!5$6!& A&z Q!# 5!G%8$a!& A&X 5!# 5!G%2$6#A$r$!!Q!]!/ ##. S#7!P#e * ]!/ ##. O#9#P%i * # ^!% . O#9#P%i 1 # ^!% R#O#5#Y$~ 1 # G z!#!B&- C& #5!u$5!z!k {!B&#!% 1 r#* + , Z!0%D&z!9!0 9!;$E&- ' #!+ M 5!^!~ E&- ' I%;$j $ Y N#~!- ' >!i <$G Y N#~!p#B&>!i <$G Y N#~!p#B&>!i <$G Y N#~!p#B&>!i <$G Y N#~!p#B&>!i <$G Y N#~!p#B&>!i <$G j F&G&p#B&<!H&I&J&K&L&M&@&N&O&P&Q&R&                                                                                                                                                                                                                                                                                                                                                                                                                                                                                                              ",
"                                                                                                                                                                                                                                                                                    S&T&U&V&E#i#E!k#l#W&X&Y&Z&[ T!. 1$N#1 ]!^!l%7!6#J w!e 1 # / x![ N$J w!e 1 ]!9!##6$| 2$?$;$1 ! $ }!G#g u!G# #G # G  #s#g u!G# #G # G  #G#u!u!G#+ 9!]!G  #s#n$v!&  #/ ]!1 ) ?$5$:#7!l%9!W$]!+ >$n!X$/$M%9!r#Q!) >$n!X$9#x!M ]!1 ~ Y$2$=!3!##Y Q!G e W n!=!7!}!<$$ / z P%2$=![ ;$[&9!y z W 8$=![ ~ R%9!M z W 8$=!J i 8!9!M z Y$n!=!J i 8!9!M z Y$n!=!J i 8!9!M z Y$n!=!J i 8!9!Y X Y$n!=!J ]$^$_$C!]&^&n!_&`&a&b&c&d&                                                                                                                                                                                                                                                                                                                                                                                                                                                                                                            ",
"                                                                                                                                                                                                                                                                                    e&f&g&h&'$i&j&k&Q$l&m&n&Z&9$| 2$?$;$* ]!G x!6$L%I 3$~ * # G % 9$L%I 3$~ $ ]!* }!G#u!n$<!}!$ ! 1 ) 4$5$v!6$##^!# * ) 4$5$v!6$##^!# * ;$?$2$| 9$}!M ]!* i P%O a!9#o&5!# 5!N#1$M#p&- P!]!u$# ;$K M#p$p#J%# W$]!~ $&M#p$=$q$Q!r#Q!e o$;#p$=$f!5!# * T#q&6$X$=$s$9!1 9!M!A&} :#p#U!1 * ^!_!8#{ 6!p#q$1 * ^!_!8#{ a!- b!]!1 ^!_!v$u#a!- b!]!1 ^!_!v$u#a!- b!]!1 ^!_!v$u#a!- b!]!* M 4#v$u#a!- b!x$r&s&t&u&v&w&5$x&y&z&{&                                                                                                                                                                                                                                                                                                                                                                                                                                                                                                            ",
"                                                                                                                                                                                                                                                                                    |&}&~& '!'#'$'%'&'r&m&''('s#g )'*' #G ]!$ }!G#g u!G# #G # G  #s#g u!s#;$/ # 1 ;$?$5$O![ % / # 1 ;$W n!X$9#x!M # 1 ~ Y$2$=!9#x!M ]!1 N#$&M#O!9#z!Z 0 5!L ,%>!T!- q#M!r#5!T#q#{ 6#t#,%T#|!! N#H%{ 6#t#+'z y!! !!j%{ 6#t#,%T#|!]!T#8#G#6#t#,%L W$Q!R!-%V#v!.%q#v#]!$ |!l%`!/%/%1%% ! * Q!r#,'{!| w!% # * Q!r#3%Z!Y!;![!W$* Q!! 3%Z!Y!;![!W$* Q!! 3%Z!Y!;![!W$* Q!! 3%Z!T!~!!#-'&&5!! !#- Y!;!b!.'B#/'0'1'2'3'4'5'6'7'                                                                                                                                                                                                                                                                                                                                                                                                                                                                                                            ",
"                                                                                                                                                                                                                                                                                      8'9':';'@%<'v&='(%)%x#>'?'@'A'B'C'^!]!* ) 4$5$v!6$##^!# * ;$?$2$| U#-%Q!! 1 N#1$M#p$=$q$Q!! Q!e 1$M#p$=$q$Q!r#Q!e o$;#p$=$q$5!! 0 M!3%;!N$Z![!# ]!Q!V!x!1%/%L%c!M%K%0 4#t!`!/%L%V#O%V!W$M!-%`!/%L%N!o&4#W$M!-%`!/%L%V#O%R!! _!l%1%/%L%P#N%y!# u$_!8#{!L%P%O%W$1 # V!Q%p#Y!u#8#|!Q!9!S%i /$6#{ 8#u$1 ^!S%i 9#:#;#<#|!1 ^!S%i 9#:#;#<#|!1 ^!S%i 9#:#;#<#|!1 ^!S%i 9#:#;#<#|!D'E'T%e 3!}$F'<#G'X%H'I'J'K'O!;#u%L'M'N'                                                                                                                                                                                                                                                                                                                                                                                                                                                                                                          ",
"                                                                                                                                                                                                                                                                                      O'P'Q'R'S'T'U'V'W'X'Y'Z'[']'=!3!% y ]!1 ;$W n!X$9#x!M ]!1 N#$&0$6#5$7#M!W$Q!T#q#<!a!u!H%L K%]!X q#{ 6#t#,%T#K%0 T#8#G#6#t#,%T#u$! r#u$2%g S#P#M%K%# # ]!J%p#a!u#8#V!# r#! b!- a!<!j%v#u$|!K%3%Z!6!>!,%M!K%|!K%3%Z!a!{ j%v#u$u$W$!#{!6!{ 7#R!r#! 5!s$9#Y!9$X!V!Q!5!9!M%7!T!. .$y!1 G H + J T!. .$|!* 9!N ) M#N$J K y!1 G N ) M#N$J K y!1 G N ) M#N$J K y!1 G N ) M#N$J K y!1 G 4!;$0$^'_'K G'X%`'a'b'c'd'e'f'g'h'i'                                                                                                                                                                                                                                                                z! #}!+ -%;!8$O!=!- C&P!!!                                                                                                                                                                                                                ",
"                                                                                                                                                                                                                                                                                      j'k'l'm'j&n'o'p'q')%y$r's'M#t'5$f!5!# 5!N#o$0$p$=$q$5!! 0 M!3%F%O#/%`!M%|!0 4#M%c!L%L%P#N%W!# _!M%`!/%| N!s$V!! v#t!1%/%L%V#O%W!u$0 <$z!O 6#<!j%V!! 5! !}!5#O!R#u'4#! 0 j ##5#:#. o$M!u$! / t!I =!;#1$L |!r#^!l%/$6!0$K L K%r#^!x!7!6#J w!Q#W$# / }!f | 8$:$_!Q!1 Z ) } | 2$%&V!1 * j + f | 2$%&V!* $ Z ) } /%O W W!* $ Z ) } /%O W W!* $ Z ) } /%O W W!* $ Z ) } /%O W W!* $ <$;$A$/%O *&v'S B#w'x'y'z'{'|'}'~' (                                                                                                                                                                                                                                                              !(t!) }! #t!c!R#T!#(O#} !#X + }!i v#3%I $(%(.%&(%                                                                                                                                                                                           ",
"                                                                                                                                                                                                                                                                                      '((()(*(+(,(-(.(/(0(W&1(2(3(N$g H%L W$Q!T#7#u#6#t#,%L K%! r#u$,'- 6#u#7#R!! W$r#[!- a!{ q#4#W$u$W$!#- 6!>!H%_!u$K%W$!#{!6!{ 7#_!u$# / x!7!T!. o$4## Q!Y z!J N$M#1%_!# 0 M % [ N$[ `!M!u$r#G M%3!6#J w!L |!u$* x!6$| 2$:$T#K%K%5!##<!t#{!h X W$r#$  #s#u!t#G#Q#Q!Q!M ;$h g u!s#_!5!1 Y e k g u!s#4#1 * j N#C&Z!{!h R!* * j e w#{!g h R!* * j e w#{!g h R!* * j e w#{!g h R!* 4(5(]$w#{!g k 6(|#(%K&7(8(9(:(;(<(=(>(                                                                                                                                                                                                                                                              X!O%~  # #l%t$G#L%?(@(O 2%:!+ }!;$L 2%3!A(B(S#>$f!}!%                                                                                   q#x!                                                                                                ",
"                                                                                                                                                                                                                                                                                      C(D(E(F(G(H(I(J(K(L(M(N(t!w!0%/%P#N%y!]!4#t!w!/%L%P#N%W!W$Q!<$}!5#O!R#<#v#r#]!Y % O :#. .$Q#u$! M x!O :#. .$M!K%r#/ x!7!6#J w!M!W$! G % 9$| 2$3$v#]!0 M }!f /%O %&_!]!0 ^!##9$L%I 3$M!W$W$* x!} /%=$;!T#K%K%Q!##G#u!n$I%z K%K%0 }!F%5$S#U#z W$W$1 ) 4$5$v!9$:!0 0 9!i :$8$v!f v#1 5!y !!?$8$v!f 4#* 1 Y z 3$n!| } R!$ * y !!:$5$v!} R!$ * y !!?$8$| } R!$ * y !!?$8$| } R!$ * O(P(?$8$| A$6(D$[#Q(R(S(T(U(V(W(0!X(Y(                                                                                                                                                                                                                                                        a!9#3$q$e + }!##[!V#.%$(Z({!q#N#+ }!) z 2%R#6![(a!<![! #x!}!L !(                                                                              N% #                                                                                              ",
"                                                                                                                                                                                                                                                                                      ](^(_(`(a(b(w&c(d(e(f(g(m#G%8$a!& A&4#r#r#Q!G%I N$} q&_!r#]!/ ##. O#9#P%Q#r## ^!% . O#9#P%M!W$r#G x!R#S#O %&L K%u$1  #k {!B&#!X ! ! *  #C&- ' #!M!0 0 9!;$E&p#B&I%v#Q!0 9!;$~!p#B&#!:!! W$5!~ N!/$6!/$;$K%K%]!) V#9#:#O ) K%K%]!) P#3!=!2$) u$u$Q!i `!3!=!I e # # $ !!1%[ :#5#X 1 5!^!T#.$;#O!O z 1 * / L <#;#O!O z * * / M!h(6$6!I z * * / M!r$9$a!I N#* * / M!r$9$a!I N#* 4(i(Q r$9$a!O j(k('!f%l(m(n(o(p(q(r(s(t(                                                                                                                                                                                                                                          )  #) N#f!{ 6##(T!9$!#X ;$ #+ N#v$I ?(u(B&V#b!z! #+ e b!C&- =!=!6$3%) % ##e k%J p$                                                                                                                                                                            ",
"                                                                                                                                                                                                                                                                                        J$K$v(w(M$N$O$P$x(S$T$y(% [ V$J w!v#r#! G  #u#t#{!h L r#r#$  #s#g u!G#:!! ! G  #s#g u!u#T#r#W$5!+ 4$p#6#0$z W$K%0 + %&8$p$/$X ! W$5!;$W 2$=!3!L 0 # $ i W 2$=!7!v#1 ]!G z 1$M#O!9#Q#0 W$0 T#7#u#6#t#P!R!W$# z q#{ 6#t#J%R!u$! !!j%{ 6#t#J%R!W$# X 7#G#6#t#U!|!]!5!:!&(h N$u!G%r#5!* y!t!`!/%0%7#y!$ $ y!l%`!/%/%7#K%G * Q!r#,'{!| 7#K%G * Q!! 3%Z!Y!u'V!9!* Q!! 3%Z!T!<#R!z({(|(! !#- Y!}(5%C%B#~( )!)2'3'#)$)%)7'                                                                                                                                                                                                                                      u'O%i + + ~ N%P%L%&)u(2$3%v#i }!+ X b!#!L%')N$;#V#t!+  #;$s$h(>!v!B(n$Q%N#z!% ;$2%D&/%6!9#3$U!e                                                                                                                                                                   ",
"                                                                                                                                                                                                                                                                                        ()d$)):'f$g$h$i$*)k$+),)##6$| I 3$Q## ! * ) 7$8$S#U#T#! r#* ) 4$5$v!6$L # ! * ) F%=$S#6$T## r#Q!e o$M#')Z!}!u$W$0 i $&J p&p#+ W$W$Q!e o$0$X$5$;$! # 1 X r$9$=!p# ## 0 1 _![!;!N$g t!W$! # 4#t!w!/%L%-)Q#! ! v#M%`!/%L%+'M!r#W$M!-%`!/%L%+':!W$r#Q#M%w!/%L%-)_!0 0 R!% $&n$' -)R!1 5!! R!Q%=$O#c!Q#G 1 ! V!Q%p#Y!`!_!^!1 ^!S%i /$6#c!_!^!1 ^!S%i 9#:#~!:!M 1 ^!S%i 9#:#~!:!M D'E'T%e 3!O!;!V%.)X%H'I'J'K'O!/)0)1)M'N'                                                                                                                                                                                                                              6#6!0$N!G%e +  #) x!r$g B(2)g ,%~ ) + ) !!P!C&- =!X$g s#N%) }! #t!!#P%.%3)6#-)) ##% + [!F%I 6!t#G#b!!!;$                                                                                                                                                                ",
"                                                                                                                                                                                                                                                                                         %!%4)5)$%{!%%&%6))%k$4%+ G#u!u!s#v#]!! 1 ;$>$n!=!9#T## r#1 ~ W 2$=!3!L 0 ! * ;$?$=$X$3!:!]!u$]!X j%<!a!t#J%V!W$# z j%{ 6#u!P!W!r#]!X 7#u#N$u!U!|!]!0 4#-%P#L%/%j%V!5!0 # r#3%Z!N$o$M!Q!# r#! b!- a!V#X 0 W$u$W$!#- a!N!z # u$|!K%3%Z!a!V#!!r#K%|!u$3%{!6!P#X ]!r#r#! U!/$O#:$X * ]!0 G -%7!Y!~!T#^!Q!Q!9!M%7!T!;!L / * 9!N ) M#T!;!:!M 1 G N ) M#N$C&L M 1 G N ) M#N$C&L M 1 G m%;$0$T!7)-$R X%`'a'x'c'd'8)9):)h';)                                                                                                                                                                                                                            <)=)6#3!>$f!N#)  # #+ b!5#A(&)0%%&2%l%;$+ N#P!;!n!6!')v!A$s$) }!z!}!) -)- 2)6#1$s$t!## #f!u'I%6![(/$!(L ~  #                                                                                                                                                              ",
"                                                                                                                                                                                                                                                                                        >)?)@)A)B)C)D)A%E)D%E%g!Z'3$2$| U#i ! ! 5!e $&J p$=$) r#r#5!N#1$M#p$5$;$! ! 5!T#,%#!O!Z!##W$W$# _!M%`!/%L%-)Q#! ! v#M%`!/%L%+'Q## ! v#t!w!/%L%,%_!]!# K%_!v$p#Y!P#:!1 # 1 N + /$:#E&!!* # Q!Z ##5#:#~!N#Q!u$# y % O :#~!e 0 u$! ^!l%/$6!, ;$# |!W$^!x!7!6#w#~ 0 W$# y + f | D&;$$ # Q!Y ) } L%I%e ^!Q!1 Z ;$} | >!!!M 1 $ Z ) } L%<!z Y * $ Z ) } /%{ X Y * $ Z ) } /%{ X Y * $ '&(&)&/%3(U$Z#S B#w'x'y'z'F)G)3&~' (                                                                                                                                                                                                                          H)I)F'N$u!s#J%z ;$ #}!~ -%W#O![(S#D&u'O%i + i O%u'D&S#[(X$0$O%;$z!##) L !(O ?(a!:$&(O%z!##N%2%Y$6#J)u!j%N#;$+ + ~                                                                                                                                                           ",
"                                                                                                                                                                                                                                                                                        K)L)M)N)O)b%c%d%P)g%S$x#r'o%0$6#5$G%|!# Q!T#j%<!6#u!U!y!! 0 T#q#{ 6#u!U!y!r#! u$V!Q%u!v!H%_!# W$W$r#[!- a!V#z # W$u$W$!#- a!N!X 0 W$u$W$!#- a!c!T#0 r#! 1 O%3!T!~!z G 0 5!j z!J N$k N#$ ]!Q!M % [ N$w#e 5!W$! ^!x![ N$w#i Q!W$r#$ l%U#| #! #0 |!K%1 z!<!t#6$z!5!W$! G + s#u!W# #G ]!]!^!;$h g U#) / 0 Q!M ~ k {!6$~ Y 1 1 Y i w#Z!9$i j * * j e w#{!9$i j * * j e w#{!9$i j * 4(5(]$w#Q)R)S){#|#(%K&7(8(9(T)U)u =(>(                                                                                                                                                                                                                          s$V)W)a![(9#2%L ;$}! #~ M%>!0%p&6#[ W f!N#+ + + z!t${!3)$(2$-%~ z!z!) X ,'R#O!6!D&<#q$}!% % }!+'O#%(.%.$-%z!) + ;$x!                                                                                                                                                        ",
"                                                                                                                                                                                                                                                                                        X)Y)Z)[)|%}%~%[%])#&=&^)_)`)a)O#/%H%4#0 0 4#M%c!L%L%-)v#]!]!4#t!w!/%L%,%_!! u$0 <$}!O 6#V#T#0 W$]!Y % O :#;!e 0 W$# y % O :#~!N#Q!u$! M % 3!6!w#i Q!r#]!M  #f | I%i 9!0 0 / }!f /%<!i G ]!0 ^!##9$L%>!~ * ! # 9!% 9$| #!;$* r#W$5!##u#t#;###5!K%|!0 }!F%5$/$l%* W$W$1 ) 4$5$9###9!# # $ ;$7$8$7!}!M Q!0 ^!e ?$n!7!;$<$* 1 M N#?$n![ ~  !$ * y !!?$8$[ ~  !$ * y !!?$8$[ ~  !$ * b)z ?$8$[ B$C$D$[#Q(R(S(T(c)d)/!0!X(e)                                                                                                                                                                                                                      f)g)h)i)6#J)u!j%N#)  #+ ~ M%C&- :#:#Z!w#P!z + }!i 4#[!I $(%(u!!( # #}!) !!!#I%0%6!/$:$b!+ % z!z j)' u(' 3$!(l%;$) ) z!7#;!                                                                                                                                                    ",
"                                                                                                                                                                                                                                                                                        k)l)m)n)o)p)q)r)s)t)f(u)v)w)x)9(6#P#L Q!! W$r#[!- a!V#X 0 r#W$r#[!Z!6!P#T#]!u$# / x!7!T!~!N#1 r## / x!7!6#w#e 1 r## / x![ N$w#i 5!W$! 9!##f O#U#}!* ! # 9!+ s#g U#+ ^!]!]!^!;$h {!6$) / Q!0 9!+ G#u!U#+ 9!]!]!G  #s#n$[  #/ # W$5!+ ?$5$=$t!G W$|!]! #>$n!- M%G W$u$Q!) >$n!p#l%/ # r#1 ~ Y$2$=$##Y Q!0 9!!!N!O 5$) 4!G 1 M z P%2$8$~ R%9!1 M z P%2$8$i 8!9!1 M z Y$n!8$i 8!9!* y)X Y$n!8$]$^$_$a C!]&^&n!2$a&z){)|)})                                                                                                                                                                                                                    ('}!~))  *O#%(.%.$-%z!) + ~ t!4$2$a!p&| & !#z + }!~ :!,'3!A(B(v!Y$N%~  #+ N#P!~!5$O!L%( 2%~ ##z!e j)5$[(S#I%X!O%i ) + ;$;$-)-                                                                                                                                                   ",
"                                                                                                                                                                                                                                                                                          !*#*$*%*&*'*z'(*)*D%**+*,*}!5#O!;!!!5!r#]!Y % O :#~!N#Q!W$# y % /$6!, e Q!W$r#$ x!6$| I%;$* ! # 9!% 9$L%>!~ * ! # 9!% 9$| #!~ $ ! ! $  #s#n$5#% G ! ! * ) 4$5$7!}!M 0 ]!9!i 7$5$7! #y 5!0 9!i ?$n!7! #Y Q!]!G e N!5#5$o&Q!r#r#Q!e 1$M#t#P!# K%K%# ;$$&M#g P!# K%K%]!i 1$0$u!U!0 r#r#Q!e o$;#g G%* ]!0 $ X S!R#g U!5!5!* ^!:!t$f {!q$1 5!* / Q#-*} {!b!]!5!$ ^!_!v$u#Z!b!]!5!$ M 4#v$u#- b!x$y$'!s&t&.*/*@&x&0*1*2*{&                                                                                                                                                                                                                  3*4*5*) 6*7*B&u(' 3$!(l%;$) ;$% X!I%v![(X$0$3%L ) }!;$X ,'R#6!8*N$u#f!e +  #i o&$&f 6!p&[ j)!!}!z!~ 2%[ p&a!9#3$q$N#)  #i R!b!/$@(&)                                                                                                                                              ",
"                                                                                                                                                                                                                                                                                          9*^(:*`(;*<*a!['=*y$>*k$?*@*. O#A*i 1 r## ^!% . O#u#~ 5!W$r#$ z!D&' f  #1 r#! *  #C&- 0$z!G ! ! $ + , - 0$ #^!]!# $ ;$4$=$5#t!* ! r#1 i c!9#- O%* ! r#1 e `!3!- N%G ]!# $ z 1$0$p#M%/ Q!]!* M!q#<!=$G%1 0 0 1 4#J%:$Z!S!+ V!]!0 Q#J%:$g <# #_!W$r#L [!:${!<#z!Q#u$r#L J%?$g <#}!4#r#! :!P!%&{!.$}!V!0 Q!_!G%Y$g ?$P!R!G $ u$e r$- 3$q$W!^!9!r#!!t$Z!u#8#_!/ * 1 G o&5${ 8#_!/ G $ 9!s$5$W)v$y#B*[#C*H'D*n!E*F*G*H*I*                                                                                                                                                                                                                J*K*L*M*f)N*O*O 8*T!U#w!o&N#;$+ ;$e q#5$u($(p#j%i ) }!) z P!C&- :#O!A$U!z ;$+ ) ##f!1%Y!3)- H%;$z!##) P!u#6#8*T!9$!#T#~  #~ :!J%& S##(Y!                                                                                                                                            ",
"                                                                                                                                                                                                                                                                                          P*y(Q*R*S*T*a!U*V*W*=&+$X*Y*Z*g U# #G ! ! G  #s#g U# #$ r#r#1 ;$?$5$5$l%9!r#W$5!;$>$n!p#x!M ]!! * ~ >$n!=$z!j 0 ! 5!L H%>!Z!j%:!|!# Q!T#q#{ g H%L y!! 0 T#7#u#g ,%L |!]!0 4#-%V#- j%Q#W$0 ]!# ! !#- ~!!#_!* Q!0 Q!U!p#{ 7#:!1 # r#! b!Z!<!j%z # K%|!K%3%{!<!H%N#W$|!y!K%3%Z!{ j%!!r#K%K%u$!#g U#S!!!5!# ! ]!q$8$. o$T#^!Q!Q!9!M%2$. .$:!y * * / l%I J K L M 1 G N ) I J K L y(y$[*4!;$O _'K l#]*X%`'a'x'^*e'f'9):)h'i'                                                                                                                                                                                                              _*`*H&('('?!J%$!O!p&/%#![!X ~ + ~ M!,'3!A(B(v!G#A&x!+ + i N%h(>!v![(5$[!:!~ }! #) N#&(n$&)/%:$Q%N% # #-%<#' u(u(2$,'v#i  #;$X f!4$2$6!p$0%I%                                                                                                                                        ",
"                                                                                                                                                                                                                                                                                            c$a*9'b*c*d*e*f*[#f(g*Y'h*i*=$9###j*# ! * ) 4$=$3!z!^!! W$5!N#1$M#u!U!0 W$W$Q!e 1$M#u!q$5!! ! 5!z q&9$g b!! r#! 0 R!l%1%{!P#N%_!0 ]!_!M%`!g V#O%v#]!]!4#t!w!{!P#-%4#0 # K%_!8#5$P%s$R!5!# * 4!) 5$;#.$X G Q!* H  #5$R#u'X $ # Q!Z ##=$. .$e ]!|!W$^!t!- M#1%) ! y!u$9!t!=$[ c!+ ! |!W$^!x!8$p#7$+ 1 r#]!Y + 7!n!3$e ^!Q!1 Z ;$[ 2$%&z Y * G H i J O W X Y * $ Z ) J O W X Y x#g!<$;$J O *&U$k*S B#w'x'l*{'|'m*3&~' (                                                                                                                                                                                                            A'n*o*p*q*r*Z's*w#T!t*p$M#,'L i + ;$T#,'R#6!A(6#J Y$M%+  #;$##b!N!n$&)' &(!!;$ # #~ L !#5$[(O#( .$f!) }!% &(- u(%(g -);$) ) ;$z O%w!U#O#A(X$0$N%~                                                                                                                                     ",
"                                                                                                                                                                                                                                                                                            u*v*w*x*y*z'o'z*A#)%0({*|*>$n!p#x!M ]!! * ~ >$n!=$z!Y ]!W$0 X j%<!u!,%L W!r#]!X q#{ u!,%T#y!! 0 4#N%V#g `!t!R!0 ]!# ]!b!Z!{ q#T#Q!# r#! b!Z!<!j%X 0 r#W$r#[!Z!{ 7#L Q!r#! 1 O%2$9$X!T#$ ]!5!Z }!I J 1%z 9!0 5!j }!I M#1%!!$ # 0 M % 2$M#w!i 0 K%W$* -%5$8$?$}!]!|!K%5!t!/$t#h % ]!|!K%5!##. .%{ ##1 r#! G + 6$u!G#) / 0 Q!M ~ 9$g h e j * * j N#f g h i j * * j e f g h i j *$g!}*N#f g k z#{#|#(%K&7(~*:(;(U)u =(>(                                                                                                                                                                                                             +!+#+Y#>'}!) O%Y$| &)u(2$,'v#e + ;$X b!I%0%')6!9#%&M%)  #+ ;$e j%p#$(S#S!t! #)  #) z b![ p&6#7!>$P!;$z!}!P!5#[(&)' %&2%x!~ ;$!!l%-)k /%B(&)I -%e  #+                                                                                                                                 ",
"                                                                                                                                                                                                                                                                                            $+%+&+'+(+$')+*+++,+g*-+.+/+n%)'q$0+! ! 5!z h(6$g [!! r#! # _!M%c!g P#N%v## ! v#M%`!g N!O%v## ! K%v#8#p#u#7#:!1 # 5!Z ##=$R#<#!!1 ! 0 j % =$. .$N#5!W$# y % 5$0$1$N#1 r#]!M  #7!8$:$i 9!0 Q!y  #[ I %&N#^!Q!Q!M }!7!I %&e 9!]!]!^!##3!n!:$;$* W$W$5!l%3!0%>!x!Q!K%|!]!x!. N$W#M%Q!|!y!]!}!& S#U#l%* W$W$1 ) D&S#6$}!M Q!0 ^!e #!v!f ;$ !$ * y !!I%| } ~  !$ * y !!#!| } ~ 1+k(*$j z I%| A$B$C$D$[#Q(*!2+,!V(d)/!0!X(3+                                                                                                                                                                                                        4+5+6+7+8+4*9+(':+q&u!&)%(g -);$) ) ;$!!U!7$O O!p$u!s#-%) }! #e _!!#/$@(N$%&2%% ~ + ) !!U!} :#X$u!G#[!i z! #o&. :#[(S#D&u'O%e ;$i }!P!c!{!B(2){![!;$) + i M!                                                                                                                            ",
"                                                                                                                                                                                                                                                                                            ;+<+=+>+?+@+%%A+B+C+f(+*_ D+{ g H%E+y!! 0 4#O%N!g c!M%4## W$W$r#[!Z!{ q#X ]!u$K%u$3%{!>!j%X 0 r#! 5!s$n!. o$z $ ]!Q!M % 2$J w!N#* ! # / x!2$J w!e 5!W$! 9!##3!2$?$;$* ! # 9!+ U#u!G#+ ^!]!]!^!;$6$u!s#~ y 5!5!M ~ 9$g s#;$/ 0 0 9!+ R#v!&  #/ # W$5! #A$=!3!M%$ u$|!# z!( p$5#N%1 |!W!! }!#!X$5#M%9!r#W$5!;$>!=!9###Y Q!]!9!N#>!=![ ;$[&9!* y X { :#[ ~ R%9!1 M z >!=!J i 8!F+$ Y X >!=!J N#G+_$a C!]&H+_&I+a&z){)|)J+                                                                                                                                                                                                    K+L+M+N+O+P+3*Q+Y*R+S+T+O [(&)' %&2%x!~ ;$i O%X!>!v!@(A(3!O%~ }! #i :!!#R#O!6#I%X!-%e + + e G%h N$[(:#;#2%!!}!}!o&#!/%p&6#J Y$G%z ~ ;$~ e 8#/$A(B(B&u'% i ) ~ T#b!I%0%                                                                                                                      ",
"                                                                                                                                                                                                                                                                                            X)U+V+W+F(X+Y+Z+[+]+T$k$^+_+`!r P#N%_!# ! |!M!7#- u#q#T#0 W$# y x!p#. .$e 0 K%r#/ l%p#. .$N#Q!W$# / }!7!2$3$i G ]!]!^!##7!I 3$~ $ ! ! G % 3!I 3$~ $ r#r#* }!W#n$<!}!G ! ! * ) ( v!f }!M 0 ]!9!i D&v!f + j * 5!/ e D&v!f ) j 5!]!G e u#a!9#o&Q!r#r#Q!e E&p&- J%! |!|!! ) C&p$- b!W$W!W!W$+ w#p&- J%# K%u$0 e E&p$=$G%1 # ]!* T#?$:#=$q$1 1 $ M Q#%&:#=$q$1 5!* ^!_!c!a!- b!0 1 G / 4#c!a!- b!x$y$'!s&`+a+i#5$x&0*1*b+c+                                                                                                                                                                                            d+e+f+g+h+i+j+k+l+m+n+o+p+R+>'N%R#}$[(S#D&u'O%i ) ;$x!!#P%.%$(q+g J%)  #+ ~ T#b!I%0%6#J Y$G%!!) + ~ M%`!/%B(?(n!j%;$z!}!s$, 5$:#X$g h U!T#~ + e v#P!U#6!A(S#?$N%N#) ;$!!U!;!8$a!g s#b!!!+ }!) G%:$S#t*                                                                                              ",
"                                                                                                                                                                                                                                                                                            r+s+t+u+v+w+x+A*y+z+M({+w$7 !#Z!<!j%X 0 r#r#Q!o&n!. 1$N#5!W$! ^!l%n!J `!~ 0 K%W$G t!2$M#1%e 5!W$! G + 6$g s#+ 9!# # 9!+ U#u!G# #G ! ! G  #U#u!s#;$/ # r#1 ;$#!O![ % / # r#1 ~ >!=!3!##Y Q!]!G N#{ :#7!}!<$* 5!/ N#I%X$7!;$4!* ]!* :!V#Y!Z!j%:!|!# Q!T#P#N$u!-)z 4#K%r#!!V#6#.%-*N#v#y!u$e V#a!.%+'z 4#u$! z c!6#u!j%M!u$0 Q!R!j%/%0%1%% |!G 9!K%7#/%/%1%% K%G * Q!##Z!T!~![!W!/ G 5!##- Y!;!|+5%}+~+ ,!,@&#,$,5'$)%)%,                                                                                                                                                                                            &,',(,),*,+,,,-,.,/,0,1,2,('4*3,4,5,p&6#[ W f!N#+  #) ~ H%- 3)2)t#8#}!) + ~ z q$;!8$6#p#, U!z )  #+ + 2%Z!3)$(u!.$O%x! #N%P%0$T!A(O!R#[!M!~ + i L U!{ B&p$N$u#G%!!) + e G%P#. 6!O!. 3%T#) z!}!z!Q%g 3)$(8$                                                                                          ",
"                                                                                                                                                                                                                                                                                              6,7,8,9,:,;,<,=,>,?,@,=&y(x!p#. .$N#Q!W$# / }!7!2$?$;$* r#r#$ x!3!I ?$+ Q!u$u$1 l%9#=$4$) * r#r#* ) ( v!9$z!/ ]!# $ ;$( v!6$##^!# ! * ;$I%| U#N%Q!! ! 5!N#, p$=$q$Q!r#r#5!N#E&X$5$f!1 ]!]!* z ~!p$5$s$9!5!5!G Q#V#6!Z!3%r#]!Q!5!W!8#0%/%P#-%4#0 ]!4#q#0%L%V#s$:!W$W$M!,%L%| N!G%T#|!|!L H%L%| N!o&L u$W$Q#q#0%| Y$o&_!0 ]!u$N%p#Y!u#8#v#^!$ 0 t!=$Y!u#8#_!^!1 ^!y!9#:#;#<#M!y * / |!3!A,B,<#V%.)a C,D,E,O!F,G,0)H,I,J,                                                                                                                                                                                            K,E$L,M,N,O,P,Q,Q)R,?&j() S,N%k Z!=!=!Z!w#P!z + }!~ Q#3%5#?(u(' u'l%;$) ;$!!s$`!W#6#O#A$b!L ;$}! #i N%2$u($(/%:$Q%N% #l%,%C&/%?(@(I v$!!;$+ ~ X q$E&=$O!:#6$U!z ) + ~ M%j%E&6#@(2$8#e + z!##) O%2$$(%(t#h(% ####z!X !(O ?(u(0%T,U,V,                                                              ",
"                                                                                                                                                                                                                                                                                              W,X,Y,Z,:,[,],^,V*++{+_,&&l%O O W ~ 1 r#! $ + } ' #!}!9!! r#*  #f ' D&% 1 u$u$Q! #} =!9#O%1 r#r#1 e h =!O N%G ]!# * N#k :#I O%$ # r#Q!T#V#O#g h() W!]!0 Q#X!S#' <# #R!]!0 Q#h(v!B&u') W!0 Q!_!r$| n$u') |!5!0 0 ;$5$6#{ 7#Q#G Q!5!N#2$6#( -*T#1 # ! ;$8$a!& t$N#! |!|!}!5$6!} h(~ u$V!V!z!8$a!f X!~ r#y!|! #O 6!7!`!i 5!! ]!T#. v!7!c!X M 1 * M!W#| [ `!L y * $ 4#U#S#9#V#T#Y $ G R!6$v!9#`,a,]*X%b b,c,d,e,f,g,h,i,j,                                                                                                                                                                                            k,l,m,n,o,p,q,r,q)R)s,1(t,('t!c!R#u,8*6#6$[!L ) }!;$T#[!A$O#8*T!C&o&N#;$) i x!Q%:$T!B(n!k%T#~  # #~ O%;#=!t*T!W#c!U!) }!) H%=$&)u(.%c!U!}!) ~ !!s$1%6$O##(2$2%!!;$ #+ ) i q#| u(.%c!P!x! ### #G%M#p$@(Y!} 1$f!+ z!i 2%} O#8*N$e*V#s$@*                                                            ",
"                                                                                                                                                                                                                                                                                                v,v*w,x,y,%%z,{,W*0(7 |,C';#O!;#% 9!r#W$5!;$I%=!3!% y # W$5!;$I%X$9#x!/ r#K%# z Y$a!u!H%L W!! 0 T#P#N$g H%L |!]!5!L c!6#u!j%M!|!! r#W$x!- 6#u#7#L 5!! r#z!- a!<!j%X 0 r#W$##Z!6!{ 7#L 5!]!!  #/$O#f X!T#$ 0 * v#M#N$J 1%X ^!Q!1 Q#J N$M#K z G ]!0 T#[ N$M#w!~ ]!|!u$e 3!O!5$7$##r#V!W!i 6$O#t#h x!# y!|!z { .%.%{ ##1 r## Q#h g u!s#~ y * * R!C&Z!{!h i j * * R!w#{!g k e Z $ $ },~,Q)%%k H& -|#(%!-8(#-$-%-&-'-(->(                                                                                                                                                                                              )-*-+-,---.-B(/-0-s,1-2-}!9+Z&3--(4-5-2$3%v#;$}!) !!U!~!8$6!p$[ b!X ;$ #+ ;$i 7#B&u(u!S!l% #) }!+ O%C&p#:#=!- k !#;$}!!!k%/$A(@(v!#!S!x!;$+ ) ) }!A&Z!u(v!S!M%z! #}!) T#2%t#@(S#D&u'o&;$z!}!s$I%0%')O!/$?$J%;$z!;$[!E&5$:#')L%& q$Z&C'.+                                                        ",
"                                                                                                                                                                                                                                                                                                6-7-8-9-:-@%;-z*'!<-(#^)+ & [(p#U!0 W$W$5!e C&p$5$f!5!r#r#5!N#E&X$- !#u$K%K%r#v#H%/%/%P#N%Q#! # _!j%0%/%P#N%_!0 ]!4#q#/%| Y$o&_!]!W$0 Q#5#O!R#<#!!1 r#]!L O :#. .$N#5!W$# L /$6!0$1$N#1 ! 0 v#f | 8$:$i ^!Q!5!Q#f L%O >$!!/ 5!1 M!f L%I %&N#^!0 0 L 9$| n!:$) 5!K%K%N#A$v!/%#!t!# V!V!e u#B&N$W#-%0 y!y!X 4$8$S#U#x!G ! ! Q#:$8$v!f + j * 1 R!?$n!| } ~  !$ * V!3$n!| A$i H G $ W!=->-| A$B$C$D$[#E$i$?-@-A-B-C-D-E-                                                                                                                                                                                              F-G-H-I-J-K-B(N+L-M-B%N-Y*(&O-P-I $(%(u!r$z!+  #+ e G%P#R#Y!A(Z!!#:!~  # #i Q#J%5$t*0%7$Q%l%~  # #M%P#. T!#(Y!9$!(i }!i !(U#N$#(N$[ W M%)  # #e R!b!O &)a!3$!(t!) }!+ !!,'I #(6#7!>$U!~ }!}!O%7$O O!p&.%u#!#i z!+ U!w!6$T!@(p&[ q$C'Z&Q-R-~,@&                                                  ",
"                                                                                                                                                                                                                                                                                                S-T-U-V-W-c%X-Y-*#S$w$>&Z'w#X$g H%L W!! 0 T#P#6#u!H%L y!! 0 T#c!T!0%c!N%Q#r#K%K%x!Z!a!{ q#z # W$W$z!p#a!<!q#T#Q!r#W$z!- =!U#X!!!Q!r#]!T#[ N$J w!N#1 r## X [ N$J w!e 1 r## T#6$| 2$?$;$* ! # Q#s#g u!G#+ ^!Q!Q!v#h {!g h ~ y 5!5!_!k {!g s#;$/ 0 0 M!s#n$v!&  #^!r#K%X 4$- =!9#N%5!y!R!N#:$=$p$5#N%1 |!W!z >$2$=!/$t!^!! r#v#N!O =!3! #H * 5!V!N!I :#[ ~ R%9!1 W!V#O :#J N#S%^!Z-[-]-n!^-J H&_-_$a `-a-b-c-d-F*e-?)f-                                                                                                                                                                                              g-h-H-n)i-j-k-l-m-n-o-p-q-r-s-2%9#A(B(v!u#t$x!+ + ~ N%A&s#/%B(0%!#_!e  #+ ~ T#J%[ p&T!. P#G%e + }!t!r$u#| &)B(2$k%z }!;$!#w#- =!=!- C&N%) }! #i M!,'3!A(6!#!S!s$~ }! #e J%f :#=!- w#[!i }!z!M%X!>!v!B(t*5#j)z z!z!-%j)3$' u($(8$G%9+Z&t,s,t-b%w&-,u-v-w-x-y-z-{-                                ",
"                                                                                                                                                                                                                                                                                                |-}-~- .!.#.$.%.7%&.t)>*U$'.F#/%P#N%Q#! # 4#q#/%L%V#O%v#]!]!4#q#' N$<!H%z ! |!r#X I :#. .$e 0 W$]!L O O!R#<#!!5!W$# :!M#O!=$:$) 1 r#! T#9$L%I 3$~ $ ! ! T#9$L%I 3$~ $ # ! L G#u!n$<! #G ! ! Q#7$5$v!f }!M Q!0 _!:$8$v!f + j 1 5!4#:$5$v!f ) j 5!]!_!N!5#a!9#o&Q!u$K%:!o$0$p&Z![!W$W!V!z K M#p$- b!W$W!W!X $&0$X$=$P!]!W$r#_!<#. p$=$s$9!5!5!y!-*A$:#=$q$1 5!* K%+'& O!p#J%0 1 G W$U,u#a!(.).+*Y''!*.+.,.-...9%/.0.1.                                                                                                                                                                                              2.3.H-4.:'5.c-k-6.n%]-7.B$8.!!2%. O!A(N$J Y$M%) + ) x!b!V#u!B(O#,%~ ;$) + ~ z P!6$:#=!{!h J%!!+ }!% !#P%n$3)q+u!,%;$z!) P!N!;#N$#(O#} O%) }! #;$X 3%6$N$6![ W q$i  #}!~ f!w#T!#(O#} 3%!! ###x!!#P%.%3)J)t#,%~ ##% x!M%X!- u(%(.%v$9.:.;.<.=,=.>.?.@.A.B.C.D.E.F.                                ",
"                                                                                                                                                                                                                                                                                                G.H.I.J.K.L.O+M.N.<&@,G'O._+{!a!{ q#z ]!r#W$##- a!<!j%X 0 ! W$##- p$M#1$i 0 K%W$!!3!6#J w!i 5!W$! X [ N$M#1%e 5!W$! :!u#.%t#u#}!$ r#r#:!s#g u!G# #G ! ! :!s#g u!s#;$/ # r#M!3$8$O![ % M ]!! Q#W 2$=!3!##Y Q!]!_!P%I :#7!}!<$* 5!R!W 8$X$7!;$4!* ]!W!j%<!Y!Z!j%L W!W$v#q#{ 6#.%-*N#v#y!L H%{ 6#.%-*N#v#y!:!j%u#N$u!-)X W!! V!Q%h 6#u!7#_!! 1 r#l%`!/%/%1%% K%9!# % 1%' v!F%[!V!^!* P.!#- 3'Q.b!R.S.C*T.U.o'V.s#W.X.Y.7'                                                                                                                                                                                              Z.[.].^._.`.X$a.],b.s*H&4*r'P-#!5,p&a!9#3$M%)  # #+ ~ q#O A(T!>$,'x!~ + ;$!!U!& 6!p&| & !#z ) }!}!) -)- 2)%(.%.$O%%  #G%q&u#L%?(@(O s$~  #}!) !!P!, p#a!- C&b!e  #}!) O%Y$L%B(?(O 2%L + % z!+ -)- 3)%(.%.$N%% % z!;$7#5#[(&)F#b.c.9+d.e.f.g.h.i.j.k.l.m.n.o.p.                                ",
"                                                                                                                                                                                                                                                                                                  q.r.s.t.H(u.v.w.x.>*O.P.1(y.:#. .$e 0 W$]!L O O!R#<#N#Q!r#]!L J 6!8$?$+ Q!u$u$!!U#| I 3$;$1 r#! X 9$| n!:$~ $ r#r#:!7$8$v!6$##9!! r#M!4$5$v!6$##^!# ! M!?$2$| U#N%Q!r#! _!o$0$p$p#U!Q!! ! v#o$0$X$5$f!1 # ]!R!<#;#p$5$s$9!5!5!|!7#<!6!Z!3%r#]!Q!W$% 1%/%L%c!-%v## V!-%c!L%| P%G%T#|!Q#O%c!L%| P%f!X |!v#N%`!/%L%V#s$Q#! |!% 1$n$0%N!O%V!* ]!V!Q%p#Y!u#8#_!/ 1 |!!(8$a!. <#M!y ^!T%e 3!O!;#U%V%.)*#z.p E,a!U#{.|.}.~.                                                                                                                                                                                               /!/#/$/%/&/'/(/Y+)/*/+/4*Z'?&$,,/6!X$t#G#N%) }!}!~ M!b!W#O!6##!S!N%e ) ) e N%?$v![(X$0$3%T#) z! #T#2%3!A(B(/%F%8#t!z!-%,'Y$n$$(Z(g b!)  #}!+ e o&c!R#a!O#} 3%!!+ z! #t!q&.%$(Z(t#A& #}!z! #T#!(5#@(&)/%4$v$l%% z!N#!(. O!A(w&+!-/./Z&N-B+//y./-,(0/1/2/3/4/5/6/                              ",
"                                                                                                                                                                                                                                                                                                  7/$$8/9/0-:/)&;/</+*=/**>/}%Y!/$P%;$5!r## X . O#5#Y$~ 1 r#! L w#{!' D&% 1 u$u$T#C&- ' D&z!$ r#r#:!F%p#O#R#M%1 r#r#Q#c!9#X$2$s$* ! r#Q#w!7!=!I O%$ # r#R!H%{ O#g h() V!]!W!J%:$S#' <# #R!]!W!P!?$v!B&u') W!Q!K%f!>$| n$u') |!5!Q!1 f!5$6#{ 7#Q#G 5!G s$8$6!( -*z 0 r#]!P!=$6!A$r$~ W$y!W$b!8$a!} X!;$u$y!W$P!2$N$f X!N#0 r#Q!O%0$| M#w!z 9!5!M ##W#| [ `!L y G j }!W#v!9#V#T#Y 9!H ~ 6$v!9#P#-$?/)#@/b'c,v!9#f,A/B/C/                                                                                                                                                                                              D/E/F/G/H/I/J/K/L/E,M/j(4*S,N/O/E&/%&)B(n!U!) }! #;$X J%G#t#a!I 7$f!z ;$ #+ ;$b!=$u($(p#j%i + }! #N#!#<!n$p&O!O 7$s$####) q#2$@($(' q&x!) + + ~ t!&(4$6#u(5$v$!!+ z!##}!J%I t*B(| k -)O%+ }!N#3%A$S##(6!5#7$s$####~ 3%G#g X$c%6$P/Q/@*R/>,S/l*T/U/V/W/X/Y/Z/[/]/                              ",
"                                                                                                                                                                                                                                                                                                  ^/i(_/`/a/b/c/d/{,l&e/f/_ u#u!u!u#z!1 r#! L G#n$v!&  #^!! W$M!W n!X$/$l%^!! u$:!>$n!X$/$l%/ # W$4#,%I%N$Z!j%:!|!# 4#q#{ 6#t#,%T#W!r#4#8#G#6#u!H%:!|!! r#u$,'- 6#u#7#L Q!! ! b!- a!<!q#T#Q!r#r#[!Z!6!{ 7#L 5!# # q$/$O#f X!T#$ 1 <$ #M#N$J 1%X ^!1 Z z![ 6#J 1%e 1 # G M%3!N$M#w!) r#y!0 -%W#v!n!4$% r#|!0 x!>!.%g s###Q!r#G + h g t#u#+ ^!5!Y e k {!g h i j G <$!!C&{!g k e Z G Z N#C&Z!{!~,U$g/)#h/i/j/k/m$+(l/m/n/                                                                                                                                                                                                o/p/q/r/s/t/5-u/Q)}(v/Q+w/x/+ +'Z!2)%(.%q#z!+  #) N#P!;!n!6!| ( b!T#~  #}!~ N%3!A(B(v!G#t$O%)  #i J%F%2$O!#(S#} f!##z!i ,'& v!8*6#h f!i  #z!}!+ ~ H%S#2)t#<#-%% z!## #s$D&L%')a!3!%&U!~  #i J%~!8$O!')v!A$G%z!% + P!N!. T!@(n$y/N#z!z/{///U*..|/x+}/~/ 0!0#0$0%0                            ",
"                                                                                                                                                                                                                                                                                                    &0'0(0O,)0*0+0,0X%0(w$U$F%=$S#6$x!$ r#r#:!:$=$O!3!s$Q!r#r#v#$&J p&p#U!0 W$r#Q#o$0$p$p#U!Q!r#W$y!t!w!/%L%c!-%4#0 y!t!w!/%L%V#O%v## W!t!1%/%v!W G%v## ]!Z z!5#O!R#<#!!5!]!Y % O :#. .$N#5!# y % /$6!0$1$N#1 0 j ) } | 8$:$i ^!1 y  #f L%O >$!!/ * Y  #f L%O %&~ * # * l%6$v!=$;!}!]!y!# l%u#t#B&#!t!# y!r#% ;!5$O#W#t!1 W$1 ) 7$8$S#6$}!M 5!/ N#?$8$| } ~  !9!j X 3$n!| A$i H 9!j X 3$n!m$9$'#_$-0.0/0^,00:/G!102030                                                                                                                                                                                                40G-50607080/-90l+b.M/:0z/;0s-<0,/B($(0%.$l%;$ #+ i O%S!#!6#X$;#[!M!i  #}!;$O%W#6!8*N$J W U!~  #~ G%1%9$Y!t*p$J f!z!##;$!#k Z!X$X$R#b!N#+ z!z!;$M!3%t#B(0%7$&(-% ###}!s$w#- =!=!{!k b!e  #;$f!K 9$Y!t*p$M#G%}!x!z!s$,%, 0%$(6#+'4*Z&z/=0>0?0@0A0B0;'C0=%D0E0F0G0                            ",
"                                                                                                                                                                                                                                                                                                    H0I0J0K0J/L0M0Y-N0S$(#O0P0n!X$/$l%/ ! u$Q#1%J 6!p#7#:!y!! 4#j%{ 6#u!,%T#y!! 4#7#u#6#t#,%L |!r#W$# b!- a!{ q#T#Q!r#r#[!- a!<!j%X 0 W$W$!#- X$W#S!N#0 # / x![ N$J w!e 1 # / x![ N$J w!e 1 # 9!##6$| 2$?$;$* ]!9!) s#u!t#u#+ ^!5!/ ;$h {!g h ~ y * M ~ k {!g s#+ 9!]!* z!G#0%:#0$t!* K%! ##7$=$=!9#O%Q!y!W$z!%&n!X$5#-%$ W$0 ) W 2$=!9###Y Q!^!!!N!O :#[ ~ R%^!Y T#V#O :#J N#T%/ Y T#P%] Q0?-Q%R0S0T0U0:&V0W0X0Y0Z0[0                                                                                                                                                                                                ]0^0_0`0a0b0c0d0@%e0f0V,C'9+g0h0. :#@(Y!:$s$~  #}!+ + z!t$O#$(2$!#4#i }! #;$O%#!/%p&a!9#3$U!i  #+ l%2%>$n$u($(8$o&+ ##) [!F%2$O!#(/$3%!!) }!z!) X b!7!')N$;#V#q$;$z!}!O%;!2$6!')v!& !#z  # #t!!(%&B&u($(8$o&+ x!% % % r$Z!3)6#/+i0:+C'('1,j03(a.k0l0m0= n0o0p0F.                            ",
"                                                                                                                                                                                                                                                                                                    q0r0s0t0$'u0;,v07%w0x0y0$&J p&p#U!0 W$u$R!,';!S#' `!M%_!]!y!M%`!/%L%V#O%v## W!t!w!/%v!W G%v## # j ##5#:#. .$N#5!# Y % O O!R#<#N#Q!! M ##J O!=$7$+ 5!# G x!6$L%I 3$~ * # G % 9$L%I 3$~ $ ]!* }!G#u!n$<!}!G # * ) 4$5$S#6$}!M Q!9!i :$8$v!f ) Z 1 ^!i 7$5$v!f  #M ]!Q!) Y$n!A(- J%! y!W$+ K M#'){!!#u$V!u$+ K M#p$- b!! K%# ~ o$;#p$=$G%1 0 G T#S!R#=!=$q$* $ y v#+'& O!p#J%Q!G y V!Q%s#Y!' 1%Z&z0{0|0}0F$J/..~0 1!1#1                                                                                                                                                                                              $1%1&1'1i+c*.,(16.}%)1*15*5*i +1#!/%#(6!<!q$i  #z!}!e R![!/%%(u!t$}! # #}!+ -%7$O 6!X$t#G#b!N# #}!z!x!q&p#&)%(t#Q%##}!) q$1%9$Y!t*Z!,'T#;$}!z!+ N#J%9$:#X$g h [!e }!z!M%u'#!S#t*X$[ 8#;$}!z!##l%q&p#&)%(t#Q%####x!}!X !(O ?(6#T,U,,15*-1.1/1016.1121314151617181                            ",
"                                                                                                                                                                                                                                                                                                    91:1;1<1U*a.L-=1N.<&>*O-j%{ 6#u!,%T#W!W$W$|!2%Z!6#u#7#L Q!r#r#[!p#a!<!j%X ]!W$r#[!- X$W#S!N#0 # / x![ N$J w!e 1 # / x![ N$M#w!i Q!r#$ }!{ .%t#{ ##5!! * }!G#g u!G# #G # G  #s#g u!s#;$/ # 1 ;$3$8$O![ % / # 1 ~ W n!X$9###Y Q!G N#P%I :#7!+ H 1 9!e >$8$=!7!+ H 0 ]!z ,%I%a!u!-)z V!W$e j%{ 6#.%-*N#4#K%i H%{ 6#.%-*!!W!r#!!7#G#6#u!j%M!! * Q#k%w#O#' 1%% 0 M W$##K B&v!F%b!! ^!* ]![!p#N$G#Q%k$C%B#>1?1@1L.n-A1B1C1D1                                                                                                                                                                                              E1F1M,N,G1x+(/w&H1P0*15*5*Q-[!, =$=!X$U#b!N#+ z!}!~ :!,'t#B(v!G#A&N%~  # #l%X!>!| @(A(/$!(T# #z! #i v$/$A(B(v!W s$) + -%!(>$B&u(0%,'Q#~ }!z!+ e P!( 6!')v!A$,'e }!##z!x!h(g $(&){!.$O%#### #i v$/$A(B(S#%&G%}!% z!N#!(R#O!a!I1J1q$K1:.L1M1N1>.O1P1Q1R1S1T1U1V1                            ",
"                                                                                                                                                                                                                                                                                                    W1X1Y1Z1[1]1u.^1_1`1=&@$-%`!/%L%V#O%v#r#! Z z!5#O!R#<#!!5!# y % O O!R#<#e 0 ! M ##J O!=$7$+ 1 # G x!6$L%I 3$~ * ]!9!% 6$v!n!:$;$* r#5!+ 7$8$v!U#l%* r#5!+ 4$5$v!6$##^!]!$ ~ 3$2$| U#-%5!# 1 !!o$0$p$=$q$Q!! 5!N#o$0$p$=$f!5!# * z <#. X$=$P!0 Q!G Q#7#<!a!Z!3%W$# ]!4#t!w!0%L%V#s$4#K%:!N%c!L%| P%f!M!y!T#O%c!L%| N!o&_!W$Q#t!1%0%| Y$o&K%5!y!}!<#g v!G#v$r#^!5!K%2%n!6#. <#u$9!y a1!!7!6!W#b1c1)#d1e1f1j-c-g1h1i1j1k1                                                                                                                                                                                              l1m1n1o1p1q1.,r1)'z,s19+C'>'t1u1;#N$8*I 3%z ) z!}!;$X ,'5$A(6#J Y$q$i  #}!##[!N!.%3)J)u!j%e  ###+ X 3%R#O!A(N${ P!;$ ###l%q&- u(T!q&## # #}! #i o&~!Y!t*p$M#2%z  #%  #Q#,'2$u(3)/%?$k%l%## #z ,'R#O!A(6#<!J%+ % ##~ ,'I%' 6!5#7$[!+ Z&Y*v1w1)'d08&U*k.x1y1z1{1|1                          ",
"                                                                                                                                                                                                                                                                                                    }1~1 2!2#2$2W0A*%2&2'2f/w$3%Z!a!{ q#X # r#^!l%3!a![ w!e 1 # ^!l%[ N$M#w!i 5!! $ }!{ .%t#{ ##1 # $ }!G#g u!G# #G ]!G  #G#n$v!& }!9!r#Q!) >$2$=!9#l%^!r#Q!) >$n!X$9#x!M ]!* !!1$;#N$5$7#M!r#5!T#q#{ 6#t#,%L u$0 T#7#u#6#t#,%L W$5!:!&(k Y!' 1%l%W$5!]!u$2%{!N$E&,'y!# r#! [!p#a!<!H%Q#|!y!|!,'Z!6!I%+'T#V!R!V!j)g 6!{ j%M!|!y!u$!#- =!U#X!4#0 ]!5!o&7!O#R#<#K%9!9!Y % J T!J $&W$9!M R%i ;#T!0$o$g*C%f%(2)2*2Y!;#+2,2-2.2                                                                                                                                                                                              /202122232,.425262728292## #o&q&{ v!&)' !(L ;$z!}!;$X b![ ')6!9#%&q$e + z! #~ H%- 2)%(.%.$-%z!}!+ !![!#!/%p&a!I%J%;$z!}!~ 8#5#A(6!{ r$N%~  #}!) x!S!n$&)&)2$,'M!) % }!X !(3!A(B(O#D&<#M%}! #e 3%#!0%')6!#!b!) ####;$[!~!8$O!L%& !(;$:2;2]$<2=2p&>2n%(+?2@2A2B2C2                          ",
"                                                                                                                                                                                                                                                                                                      D2E2F2G2H2I2J2U%K2L2u)M2N2,/=!M#$&i 0 r#$ x!U#v!I 3$;$1 # G x!6$| n!:$;$* ! 1 + 7$8$v!6$x!$ ! 1 ) 4$5$v!6$##^!# 1 ~ Y$O a!9#o&0 W$]!~ $&M#p$=$U!]!u$]!i 1$0$p$=$q$5!# Q!Q#!#F%O#/%`!M%K%0 4#t!`!/%L%V#O%y!]!4#t!w!/%L%P#N%|!Q!V!##o$t#S#u#7#y!0 $ [&;$9#:#0$o$4## Q!Y % O :#. .$:!y!u$9!M%I :#;#$&z R!y!1 N%5#O![ c!X y!u$9!x!J 6!p#7$Q#]!1  !i A$L%I >$|!9!/ [&N#A$L%5#P%u$^!/ 4!e & /%O P%g*O2` P2Q2R2S2] 0,T2U2V2                                                                                                                                                                                              W2X2Y2Z270[2]2^2_2O+`29+C'5*a2b2Y$n$3)T!j%e + }! #) N#U!D&O!p$u!s#J%!!+ z!+ M!,'O ?(u(' 3$!(## #+ e U!7$O 6!=!W#[!i z!}!!!2%. O!O![ W q$i  #}! #}!k%p#&)2)u!q&% ####}!N#!(R#6!A(6#7!>$N%}!}!;$b!4$O O!p$0$3%~ ##% + U!P#R#O!p&[ k%]$w/@*|*c2d2I2(/e2f2g2n,h2i2j2                          ",
"                                                                                                                                                                                                                                                                                                        k2l2:,m2F#],u1%!z0_,$ N2. 6#g , }!5!! 1 }!w#Z!' D&z!$ ! $ + C&u!Y!W#M%1 ! 5!i c!9#X$2$s$1 r#5!i `!3!=!2$s$* ! ]!M![!4$S#n$S!+ |!# L [!:$S#B&.$z!V!r#L J%?$S#' .$}!y!r#! 5!f!8$a!D&+'V!# # 1 G%8$a!( -*_!r#r#Q!f!2$6#f h(_!! ! 5!O%0$v!7!P#4#]!Q!Y }!W#S#9#N!_!]!0 / ##R#O#5#W :!K%K%5!M%R#S#O 3$z V!V!# t!D&/%/%D&N#|!|!Q!}!w#Z!0%D&:!Q!1 Y !!F%=$n$<!|!M M 4!L 4$=$n$u#u$y M 4!L 4$=$n$n2o2W%p2P2q2F$r2s2t2u2v2w2                                                                                                                                                                                                x2y2z2{2|2}2~290 3o-9.9+C'5*Q-q#2$?(N$N!b!x!) + + ~ t!1%0%B(B(n!&(z ) }!+ X !#} O#8*T!U#w!t! # #;$M%7#~!0%@(g Q%e }!}!i [!w#- a!=$, J%N#) }!}!) G%M#X$t*O#A$o$G%;$}!i [!w#p#O!X$' I%s$ #z! #O%j%E&/%&)L%7#i z!% }!O%8#7$T!$(Z!+'9+Z&z/h**/!34+(1#3$3%3&3'3D.(3                          ",
"                                                                                                                                                                                                                                                                                                        r.)3*3K0+3%%z,B%,3_,-3.3E*/3p$03l%G r#Q!) >$n!X$9#x!M ]!1 ;$?$=$p$p#7#:!u$0 X j%{ 6#u!,%T#K%]!X 7#u#6#u!H%:!K%u$W$r#[!- a!{ q#_!u$|!K%3%Z!6!>!,%M!K%K%u$3%Z!X$W#S!v#r#]!M % [ 6#J 1%_!# 0 M % [ N$M#w!Q#r#! G % 9$O#t#k T#r#! G + s#g u!G#M!]!]!^!) s#g g s#v#Q!0 9!+ h .%| & L r#u$0 }!4$=$a!J e y!V!r#z!:$=$p$5#e K%|!0 ) W 2$=!3!:!1 5!M X P#5#O!0$W$Z y 4!_!c!O :#0$# <$y 4!v#V#I 6!I x!-01323`-33V0W0T(435363                                                                                                                                                                                                738393'1:3;3|/<3A'b.=3(&z!9+.+b2|$| a!0$V#f!e )  #+ ) [!- 2)%(.%.$-%z! # #N#P!;!8$O!p&/%#!N%) }! #) ~ ,%Z!3)Y!<#N%x!}!) G%S!>!6![(/$!(L ;$}!z!) N%I%0%p&a!9#3$P!~ }!) o&X!<!| ?(?(I G%) ##% ## #+'Z!2)6#o$O%l%% x!% }!,%B&&)F#2+>3c.9+5*'#?3h.i.@3A3k.l.m.B3C3                          ",
"                                                                                                                                                                                                                                                                                                        D3E3F3G3?%@%R)Q+S >*M(H3I3J3K3=$U!]!W$0 i $&J p&=$q$Q!! Q!X ,%I%N$' `!M%y!]!_!M%`!/%L%V#O%W!! v#t!w!/%v!W G%V!u$# y % O :#. .$M!K%r#/ t!I :#. 1$L |!W$^!x!J O!=$7$:!r## 9!##6$| O %&_!]!0 ^!##f L%n!:$Q#! r#1 z!s#n$T!6$z r#W$1 ) 4$5$v!9$:!0 ]!9!i 7$5$v!f Q#5!0 9!i %&n!6!3!;$W$W$]!~ o$0$p&Z!% W!W!W$) $&0$p&- ##y!|!]!e o$;#X$5$i 5!1 M M!h(W#:#n!z y j N |!H%& O!5$i M Z N u$!(R,Y!B&Q%x#L3M3C#v/N3J/..Z%O3P3Q3                                                                                                                                                                                              R3S3T3=%U3V3..L/a.2+*/L*}!~)?!c2w#- 6!g s#b!!!;$ #}!~ N%5#?(u(' 3$!(l%)  #i G%c!R#Y![(X$0$O%~  # #i Q#,'O ?(6#?$k%-% #}!-%,'Y$6#J)u!H%e ) }!z!+ -%7$O 6!X$t#G#[!e }!}!M%3%P%.%$(Z(g [! ###%  #T#!(O ?(a!:$Q%N%z!x!}!z ,'5$A(w&W3X3-/./Z&N-Y3y./-O1Z30/1/2/3/[3]3                        ",
"                                                                                                                                                                                                                                                                                                        ^3_3`3a3$'c%X-Y-N0b3f(c3d3#!a!u!,%T#|!# z j%{ 6#u!,%T#|!r#u$V!k%{!6#u#7#R!r#W$r#[!p#a!<!j%4#r#u$W$!#- X$W#S!v#W$! ^!l%[ N$J `!M!K%W$$ M%7!N$M#`!L y!K%1 z!{ .%t#{ X r#! G + h {!g s#v#Q!0 9!+ h t#| & M!# W$5!) 3$5$X$9#z r#u$5!;$W n!X$9#L 0 # G e Y$2$=!7!v#1 ]!G X o$;#6!- f!y!! # !!j%{ 6#t#b!_!y!u$e j%{ a!.%J%4#u$# X v$s#N$g o&# G M V!2%, S#n$j)5!N N 5!+ 1$B&v!q&! N <$e3''s*@'6#o%k$f3g3h31+t!n!Y!3-i3j3k3l3m3  n3                                                                                                                                                                                      o3p3q3r3s3%/t3w&L/u3<2H&Y*9+Z'v3t-2$O!v!& [!X ;$}!}!;$O%R#O!t*S#I%X!O%i + ~ N%A&s#L%B(&)I N%i }!}!;$L !#R#O!6#I%S!o&) z!## #+'O#%(.%.$-%z!+ }! #l%X!>!| @(A(/$!(X }!##z!+ -)- 2)%(.%q###}!% }!N#!(R#O!6!D&u'G%+ % z!i 3%7!')6!w3T,c24*z/x3i0H1(1y3z3{3|3}3~3`- 4                        ",
"                                                                                                                                                                                                                                                                                                        !4#4$4%4l*r1$.%.W&e/&4'4p-(4/%L%V#O%V!r#Q#-%`!/%L%V#O%V!K%]!Z }!5#O!R#<#v#W$# y % O O!R#<#v#r#]!M ##J O!=$7$:!W$r#$ x!6$L%I 3$:!u$u$1 t!6$v!=$;!T#|!|!0 }!F%5$v!6$X r#r#$ ;$7$8$| f Q#5!0 9!i %&n!6!3!~ r#r#Q!e 1$M#p$=$}!K%u$0 i 1$0$p$=$;$! # 1 X r$f :#p# ## 0 1 _!b!7$v!0%H%4#]!! Q#-%c!L%| -*L u$K%:!N%c!L%L%-)M!r#! _!x!K 0%L%-)|!/ M # i h({!v!$&! 8!N y 0 b!2$6#4$y!8!<$[&)4_)n%6!=-_,*4+4,4-4f/.4M#/404I!142434445464                                                                                                                                                                                      027484X/94:4;462- b2v1h*R+Q-c.1%9$6!X$;#!#:!~ }!}!) N%>!' p&a!9#3$q$N#+ ;$% J%P#g B(3){!!#)  #}!) z b!>!' a!/$?$P!~ z! #T#!(B&&)' ?$k%t!) }!}!z![!N!t#$(q+u!H%i }!% + L ,'3!A(B(/%K -%+ ##z!i ,'I%0%6!/$?$J%;$####;$[!} O!p$.%{ +1<4z/Q+=4<,w&>4?4U't0@4A4B4C4                        ",
"                                                                                                                                                                                                                                                                                                        D4E4F4t.G4L.H4I4J4K4L4O.L43%Z!a!<!j%Q#K%|!u$3%Z!a!{ q#_!K%! / x!7!a![ w!v#r## ^!l%[ N$M#w!Q#r#! $ }!{ .%t#{ X r#! $ }!G#g u!u#T#u$u$Q!% u#0%:#0$!!K%y!#  #>$n!X$/$X # ! * i P%I :#7!v#1 ]!G z 1$0$6!p#f!y!! 0 X q#{ 6#u!J%R!W$# X 7#G#6#t#U!|!]!0 4#-%c!L%/%j%V!5!Q!]!! [!p#N$c!L Q!r#K%u$3%Z!6!P%e W$|!y!|!,'- 6#V#z # W$W$# J%p#:#?$v#j / ^!y x!J O#:$u$M4N N S%~ ;#T!E&y!T%H 4!N4-$6$S#T,7 O4P4Q4R4S4T4M/U4V4W4X4Y4Z4[4]4^4_4                                                                                                                                                                                    `4a4b4c4d4e4]1f4g4h4i4q-R++ t!2%>$N$u(2$!#4#e  # #;$M%~!8$6!p$0%#![!X ) + ;$i 7#5#A(B(B&u'% ~ + ;$!!U!~!8$O!/%D&3%e }!}!N#!(5$[(S##!S!O%i + }!+ ~ H%p#3)2).%.$N%#### #!!!#D&| #(a!G#U!;$z!z!;$[!E&5$O!L%D&,'i z!% + P!h T!@([(j4y/N#z!z/k4U*..~%T'x+}/~/ 0l4m4n4                      ",
"                                                                                                                                                                                                                                                                                                        o4p4q4r4s4H(u.t4*1[$u4o#A!:+I =!;#o$:!|!r#/ l%O =!M#$&M!u$r#$ x!U#v!I 3$M!r#! G x!6$| n!:$M!! r#1 + 7$8$v!6$X r#r#1 ) 4$5$v!6$X W$K%0 + W n!A(- z!|!|!! ;$K J p&p#+ r#! 1 !!<#. X$p# ## 0 1 _![!4$S#0%H%_!]!# v#-%`!/%L%+':!W$r#Q#M%w!/%L%,%_!]!# u$4#&(- T!P#Q#$ 0 * 4!) 9#O!F%z 1 r## M l%O :#~!~ ! y!u$9!t!5#O!, e Q!r#Q!<$+ 0$6!#!L H M Z v4v##!L%G#y!v4[&8!w44#D&| k y!x44!4!*4X#y4z4t$Z${4|4}4~4 5!5#5$5%5&5'5(5)5*5+5,5-5                                                                                                                                                                                    .5/5051525354555F#6575N-M*85z!x!95v!2)u!t$ #) ) + ;$l%c!R#Y!A(p$M#3%:!;$+ e Q#J%W#O!A(S#?$N%N#;$;$N#G%P#. O!p$J !(!!}!z!i ,'[ p&a!/$?$U!N#)  #;$Q#3%/$@(&)0%?$j)x!##}!e b!C&- =!p$. [!e  #}!) q$1%9$6!p&[ !(!!}!x!z!s$c!0%$(q+t#+'4*Z&z/:5?0@0a.;5B0;'C0=%<5=5>5                      ",
"                                                                                                                                                                                                                                                                                                        ?5@5A5B5C5$2W0I/D5E5L47 g!M%3!6#[ c!L |!u$$ t![ 6!n!3$L W$r#* }!G#g u!u#T#r#r#$  #s#.%| & :!! W$5!;$W n!X$/$X ! W$5!;$W n!X$9#T#r#|!! !!-)I%a!t#b!4#u$! !!j%{ 6#u!P!W!! Q!L v$s#Y!' q#V!5!Q!# W$3%Z!a!P#L Q!! W$W$3%Z!6!P%N#r#K%|!u$3%Z!a!P#T#0 ! ]!* N%7!Y!~!T#^!Q!* <$ #M#N$C&z G ! # ^!l%[ N$C&~ ]!|!u$$ t!J a!I%~ $ # 0 y i s#t#6$z 4!Y Z a1_!~!{!f R!F5S%T%G5V!k u!{ W!v4R%4!T%x$v3Q%H5m%I5J5K5L5M5N5O5P5Q5R5S5T5U5V5*5W5X5                                                                                                                                                                                    Y5Z5[5]5^5_5`5a5T!b5c5d5) e5+ .+f5.%B(v!G#A&M%e ) ) % -*s#/%B(&)2$!#_!~  #~ T#J%>!0%p$N$u#G%!!;$) e M%-*s#a!&)n!!(L + }!~ b!} O!p&/%#![!z ;$ #) L !#U#6![(O##!u't!}! #i P!4$I 6!#(5#,'e }!## #M%!(%&6#$(8$!(:! #l%x!% k%{!2)%(g5/+i0:+C'a2j03(h552k0i5a0`0<5p0j5                      ",
"                                                                                                                                                                                                                                                                                                          k5l5m5n580=!o5p5/(q5w$Z$:+U#| 2$:$T#K%K%5!t!6$Y!0%{ X W$W$5!+ F%=$S#6$X ! r#* ) 4$Z!:#3!;$W$r#5!e $&J p&p#+ W$W$Q!e o$0$X$- x!K%K%r#v#-%`!/%L%+'M!r#r#Q#-%`!/%L%+'Q## ]!4#x!$&t#S#c!:!* ]!* H  #/$O!;!!!1 r#]!M l%I :#E&~ ! |!W$^!x!9#6!k ~ 5!! 0 y + } L%>!!!M 5!1 j + f L%<!N#^!]!]!9!% 9$v!( ) * W$W$* ##( L%;#+ / Q!Q!M !!3$n![ z S%Z <$M4R!>$n!R#4#G5M4M4F5r#K D&1%! v4T%S%M4j 4#4#r5m%s5g!t5W&u5v5w5x5y5).z5e0{5|5}5~5 6                                                                                                                                                                                    !63.H-4.#6$65.%6&6=.($'6Z'(6r-_ O*5$A(N$[ W f!N#) + }!J%P#g B(2){!H%i )  #;$z P!C&- :#:#6$U!X ;$+ ~ ##b!P#O#2)g -* #}! #;$q$k T!t*p$M#,'L ~  #+ z b!<!' p&a!/$?$-%+  #~ G%$&f O#t*Z!2%z  ###z!##l%h(S#%(t#h(x!% x!l% #o&O ?(u(0%T,U,,15*)6/101)+90112131*6+67181,6                    ",
"                                                                                                                                                                                                                                                                                                          -6.6/60616c-2636z+&.465666w#Z!0%( !!K%K%0 }!F%{!p$5#;$u$u$Q!~ c!9#X$2$i ! r#Q!N#<#W#a!u!!(R!# ]!M![!7$S#B&k%4#! # M!J%3$| v!S!L r#K%u$0 q$5$6!3$N## K%K%# P!=$6!%&!!0 r#r#Q!O%0$v!h N#G 0 5!Y }!W#S#G#e * ! ! G l%;#Y!<!) 0 K%u$1 ###!/%M#z!G ]!]!^!~ E&- ;#~ j * 1 Y N#~!- ;#~ j 1 Q!^!i 7$- p#N%* ! ! * e P#9#p#M%/ 1 * Y M!1$J 5$ #R%H 4!a1W$r$>!C&K%G576x486y + -%y!H 8!j M Y Z H N j E%>'o-96N3:6A#;6<6=6>6j&A'..?6@6A6B6                                                                                                                                                                                      C6w)D6E6F6G6)'a.h$T,H6F&+ + r'b!R#X$:#5$;!q$X ~ + ~ z j)J p$t*/%, j%##) ) N#s$`!W#Y!#(2$,'z ~ + ) ~ !!k%{!@(L%w#-)O%;$) -%$&B&B($(p#7#!!;$+ ) !!f!W [ N$#(T!9$O%+ z! #x!q$1%g B(S#,%) }!z!## #e Q%{!@(Y!} $&q$ #% z!f!f O#8*N$e*V#J% #5*L*I6d-J6K6H(L6M6N6O6P6Q6                    ",
"                                                                                                                                                                                                                                                                                                          H0R6&+S6T6J/L0u3i/,+q5U6N-P0n!X$/$!!W$|!! N#+'#!a!u!P!V!W$# z j%{ 6#u!P!W!W$r#u$V!k%Z!N$c!L Q!r#W$r#[!p#a!N!z ]!W$u$r#[!p#p$, i 0 K%W$G t!7!6#k ~ 0 K%W$G M%3!N$C&i Q!W$! 9!) s#u!W#+ ^!]!]!^!) h {!6$ #G # ! * }!G#0%8$% 9!r#u$Q!) 3$5$p#x!M ]!# G e Y$2$5$+ N 9!$ Y X W 5$5$e 8!9!Q!G Q#q#>!g j%M!u$Q!* Q#&(s#{!j%v#]!^!j y!!(, n!j%_!/ R%8!Y y!z T#Z 86F5G5w486H Z S%86G G%j%2%;$H <$% O-p-& 0%V6W6+*X6Y6Z6[6n(3']6^6_6`6a6                                                                                                                                                                                      b6c6d6e6f6g6t3w&h5I1R-</8.(6h6s*h T!A(O!W#b!M!i  #~ :!U!>!0%p$N$[ Y$l%;$+ ) ) }!A&Z!u(v!S!M%}!+  #;$X J%J p&6#7!>$U!~ }!z!!#O [(&)0%?$!(x!~ ) i M%-)k /%&)u(2$-%~ z!z! #i v$/$A(6!{ q&o&+ z! #e 3%[ ')6!/$?$J%;$####o&~!8$O!')L%& !(;$R/]$<2c(i6j6>2n%(+k6l6m6n6                    ",
"                                                                                                                                                                                                                                                                                                          q0r0o6G/t0p6q6r6t,**f/s6{/t6M#p$i%}!K%|!W$Q#N%c!/%L%-)Q#! ! v#-%`!/%L%-)v#r#K%]!Z }!5#O!;!!!5!W$# y % O :#~!N#Q!u$! M ##J 6!D&+ Q!u$W$* x!6$L%>!) 5!u$u$1 l%6$v!& ) * r#r#* ) 4$5$9#}!M 0 ]!G ~ 7$5$7!}!M 0 # 1 ~ P%2$.%U!0 W$r#Q!e o$;#g f!1 # ]!G X <#;#Z!N%M 9!9!y R!&(u#- J%Q!1 * $ K%z!$&Z!c!t!y!G $ |!z!$&- w!% r#Y j # % t$, 2%Q#y T%T%S%R%4![&x4S%/ 5!Q!/ M476R%86W$$&D&G#-*G N ##_)u6U#v66#( g0w6x6,3:0y6u!z6{6;$|6}6~6                                                                                                                                                                                     7!7#7$7%7&7'7(7c%j&<2z+(&R/8.)7*70%?(@(I v$!!;$+ ;$T#q$C&- :#:#Z!w#t!;$ # #e R!b!O &)a!3$!(l%;$ #) !!J%6$=!=!Z!k b!e }!+ O%R#O![(O#( u'N%N#) ;$##P!`!{!B(2)u!j) # #z!+ X ,'R#6!O![ >$P!~ }!}!~ b!} O!p$.%u#!#i z!% O%P#R#T!t*p&[ k%]$R/|*R-~,@&(/(/e2f2+7,7-7.7/7                  ",
"                                                                                                                                                                                                                                                                                                          C(071727<1U*a.L-3747>*>&57j%{ 6#67774#|!|!|!K%3%Z!a!N!!!! u$K%u$3%Z!a!V#X # K%! / % [ N$w#e 5!W$! ^!l%[ N$w#i Q!u$r#$ }!{ .%W###5!W$W$* }!G#g U#}!* W$W$1 z!G#0%8$x!^!# r#1 ~ W n!p###Y Q!]!G i W n!=$ #<$5!! 5!T#H%>!g H%L |!# Q!L 7#u#{!H%M!u$5!G v#Q%s#Z!v$V!5!^!^!G Q!b!=$F%J%|!M $ 1 * f!p#<!8#_!/ * 1 * f!8$E&!#|!Z j $ W!i x!K%j 8!7686v4M4T%v487Y N%+'t$f!y x4* R%Q#h L%Y!>!W!97y(@$P!E*:7T'b%;7y#<7=7-'.$>7?7@7A7B7C7D7E7                                                                                                                                                                                    F7G7H7I7J7K7L7M7y.R-N7Z'z!R/O7P7Z!$(u({!u't! #;$) z q$F%n!6!p&| D&t!i + + i M!,'3!8*6!D&u'O%i ) ) N#P!& 6!')v!& !#z +  #s$I%' p&6#J Y$G%!!) + ) i 8#/$8*?(v!Y$N%~  #+ !!!#I%' a!9#3$P!~ }!}!) P!h T!@([(5#j)z  #% -%t$s#L%&)u(8$j)T#9+t,s,t-b%w&-,_#Q7R7S7y2=5T7                  ",
"                                                                                                                                                                                                                                                                                                          U7V7W7X7Z1[1]1u.{$x.k$=&v#-%`!/%L%+':!K%y!r#/ t!I =!E&~ # K%r#/ l%O =!C&i 0 u$r#$ x!6$L%>!;$1 r#r#$ x!6$v!#!;$* W$W$5!+ 7$8$9#l%$ r#r#1 ) 4$5$3!##^!! W$5!;$P%n!n$U!Q!r#! 5!N#o$0$g f!1 ]!]!* T#q&9$g J%]!# ]!0 V!x!K Z!P#-%4#Q!0 R!l%1%Z!c!M%W!* $ K%}!o$Z!V#t!r#y ^!Z Y7T#n!. S!4#<$9!/ 8!~ 8$W#X!Q#Y $ ^!R%T#>!c!o&! H  !Y G 5!$ R%8!/ 5!]!G 8!a1[&a1K%.$& W#c!# v4$ S%Q#{ O!$(2$x!T%F5G Z7[7M#a!' ?$u6h3]7^7_7`7a7b7c7d7e7f7g7h7  i7j7k7l7m7n7o7p7q7                                                                                                                                                              r7s7f+t7u7v7w7x7%%y7R+9+z7C'(&{72$u($(' 3$!(x!~ ) e N%S!#!v![(=!M#f!;$+  #;$X ,'R#6!O!0$N!G%e + + i O%?$v![(X$[ 8#;$}! #s$w#- =!X$g h U!X )  #i Q#J%U#6!8*N$u#q$e + + e P!:$5#a!t#G#[!N# #z! #s$c!0%$(J)t#,%~ }!##l%!#V#u!&)%(.%X!:+Z&;.<.=,=.>.?.|7}7~7 8f+E.!8                  ",
"                                                                                                                                                                                                                                                                                                          #8$8%8&8'8#2$2W0`7(8T$(#O.L43%Z!a!V#N#W$|!W$$ M%3!6#h ;$]!|!u$$ t![ 6!#!+ Q!W$r#* }!G#g W#z!* r#r#$ }!G#n$7!}!9!r#u$Q!) >$2$p#t!9!r#W$5!;$W 2$=$z!j 0 W$0 X ,%I%u!,%L y!! 0 T#7#u#{!H%L |!]!Q!R!M%c!{!`!l%W!5!]!]!0 P!- { 7#M!* ]!# ]!J%p#G#&(_!9!* * G o&Z!9$A&V!H y Z x4X O [ $&4#N M y R%~ 5#R#<#v#Z ^!^!<$y!8#l%W!/ [&R%4!Z Y  !a1y ;$,',%q$M T%u$]!##h .%N$A$Q#)8T%G5W$W g p&Z!-*R!Y7G55!!#<)v!T!#!-*47*8+8,8!-j$-8.8/8081828384858687888989898:8;8<8=8>8?8@8                                                                                                                                                    A8h-D.B8C8D8E8k+_#*'F8_7h*z!+ G%9#A(@(v!#!S!N%e ) ) ) }!t${!$(B(- v$}!+  #) z b!I%0%6!3!>$f!N#+ }! # #k%{!$(B(- <#O%x! #s$;!2$6!A(O!R#[!M!;$ #~ T#J%>!' p$a!I%U!e +  #;$s$h(<!a!A(/$!(X + % ##z!j)Z!3)%(n$o$O%x!z!z!}!,%I [(&)S#<!h(p-d.e.f.g.h.i.@3G8H8I8y2J8K8L8                ",
"                                                                                                                                                                                                                                                                                                            M8J&N8O8G2H2I2t-K2M(G'_,A!:+y.P8Q8) ! |!u$1 t!U#| #! #0 K%K%5!t!6$Y!0$##1 W$W$5!+ F%=$9#% G ! r#1 ;$?$5$=$o&0 W$W$Q!e $&M#u!P!]!u$W$Q!e o$;#u!b!! r#! # 4#t!w!{!P#N%_!]!]!4#l%1%Z!P#-%4#0 ]!W$R!&(- { 7#Q#$ 0 * H  #5$R#u'T#9!0 * H  #5$. u':!M $ / S%N#I 5$W v#R%Z <$a1T#0$/$V#_!R%j Y 4!M!7$%&k%|! !j Y j Q!z # / 9!5!W$# j [&R%T%r#q#;!A$P%v#Z |!K%-%s#0%[(n!G%Y Y7R81 r$R#Y!n$:$q$j S8M4Q#Q%C&<!1$!#N7T8U8V8W8X8Y8Z8[8]8^8_8`8a8`6b8c8d8d8e8f8g8g8g8g8g8h8i8j8                                                                                                                                                  k8l8(,m8n8a0o88*#3n%*&p8q-R/}!G%U#N$#(N$[ W f!N#+  #e R![!I $(3)0%u'l%;$ #) N#U!7$O a!u!s#J%!!+ z!z!~ -%2$$(3)/%:$Q%N%+ M%<#D&S#?(@(I v$!!;$ #;$z q$F%n!6!=!U#P!z ) }! #t!!#N!6#J)u!H%i  #####) s$5#?(u(/%:$Q%N%}!}!z 2%. :#[(6#u3P0u6Z&N-B+//y./-O1Z3q8r8s8t8e+u8                ",
"                                                                                                                                                                                                                                                                                                            v8w8x8y8z8{8a.~,2,L246{+g!V,[ X$R#% 0 K%u$5!##u#u!R#% Q!K%K%Q!% u#/%p#l%G W$u$Q!) >$n!p#x!M # W$Q!i K M#u!j%L W!r#]!X j%{ g -)X W!r#]!T#v$h .%w!t!R!0 ! r#! b!Z!{ q#T#Q!! r#! b!- u#8#:!1 ]!0 G -%2$. .$T#^!Q!* <$ #I M#K T#/ 5!* <$+ 2$2$Y$L Z 9!^!4!T#6$.%k M!M4 ! !M4v##!O 3$v#S%Z y Z 5!i + Q#9!4![&N <$M G H Y W!x!q#!#0 M4R% !N#?$8$v!M#,'W$<$M e 1%J 6!n$V#z!x4R8^!b!E&t#/%& .$T#76|8M4Y # r#9!^!*$}8~8 9 9!9#9$9%9&9'9a8(9)9*9+9,9,9,9c8e8f8g8g8g8g8-9.9/90919                                                                                                                                              2939495969798999i#:9;9*/L*<95*u6w#- =!=!- C&J%N#+ }!~ :!,'3!A(?(S#:$O%i  # #i O%X!>!6![(9#2%L ;$z!}!;$s$9#A(?(O#( .$f!) z!l%h({!$(u({!u't!+ + ) N#o&c!. T!A(5$!#L ;$}!z!}!) ,%O#%(.%.$N%% z!## #o&R#O!t*Y!D&u'G%+ }!e 3%#!/%')6!^*W6o&=9O757>9H1(1y3?9@9A9B9C9D9E9                ",
"                                                                                                                                                                                                                                                                                                              F9.6G9:,5.H92+;&{*@,@,Z$x!A$Y!O t!1 u$K%0 }!F%=$/$t!1 u$|!]!+ W n!.%U!]!u$u$0 i 1$M#u!q$Q!r#W$# :!3%F%t#c!-%v## # v#-%`!{!V#s$Q## # 4#x!1${!u#q#L 5!! Q!Z ##=$. <#!!1 ! 0 j ##=$0$o$z $ ]!5!Z ;$[ 2$%&z y * $ Z ) J O W T#j $ G <$i J B&h z N / / N Q#{ ' >!:!x4N H T%W$.$4$-*u$T%4!<$Z j j / 9!G Q!K%r#/ H N j |!s$u'<!3$!! !R% !i F%u!').%1%~ M4H Q#&(w#0%v!A$-** G54!L k%:$w#1%q#) S%I9J9K9L9L9K9M9N9O9P9Q9R9S9T9U9V9W9X9Y9Z9[9]9^9_9_9`9'9a9b9b9c9d9e9e8g8g8f9g9h9                                                                                                                                              i9j9k9l9m9Q7'/~%.-*'c2.+9+C'3,u1;#N$#(O#} !#z + }!;$X ,'R#6!8*T!s#f!i  #}!) x![!N!6#J)u!j%e + }!}!) o&R#6!A(6#J Y$P!)  #M!,'2$u($(' 3$!(z!+ ) i t!q#~!0%?(' 8#N#) }!z!) :!,'B&u(0%?$k%-% ###}!s$I%0%')6!/$?$J%;$}!~ b!E&5$:#p$.%{ n9@*w/.+>9<,w&>4?4o9: p9q9r9s9t9              ",
"                                                                                                                                                                                                                                                                                                              u9v9w9x9y99(G!z9r&{+G'x$>'P%O {!G%0 K%K%0 ;$c!3!Z!G%Q!u$|!r#T#,'F%g u' #_!r#! L [!7$g <# #R!! W$r#0 U!p#( -*z 0 W$r#Q!f!p#& A&z Q!r#! 1 -%5#7!P#N#$ # 0 M z!/$9#N!e G ]!0 / z!/${!~!i / Q!5!Y N#& B&<!e H ^!^! !X & ' <!z [&/ ^!<$v#, 6#M#~ R%Y y N K%1$6$W W!86S%[&R%Z W$W$5!Y Z ^!^!<$N H <$Q!~ !(P#S!X y Z _!q$1%f L%n!t$T#[&x4r#8#<!| v!#!7#/  !! + ,%I%0$s#$&+ 8!w4768!H  !R%j # O4{9|9S8}9~9 :!:#:$:%:P9~8&:':(:):*:+:,:-:.:/:0:1:2:2:3:3:4:5:6:I!7:8:e9f89:::;:<:=:                                                                                                                                          >:?:@:A:B:C:D:E:F:G:H:B$R+@*V,q#;!0%&)u(5$v$z ) }!) !!J%w#Z!=!:#f P!!!) }! #) N#8#/%$(n$c!P!x!+  #+ O%w#- =!:#p#C&[!~ }!N#!(;#:#[(Y!6$1%l%;$+ ) ;$e 7#5$&)T!c!U!% + z!+ z !#5##(T!W#`!f!;$z!}!N%%&3!a!8*T!9$,'!! #+ G%S!I%v!B(B(I:[!C'C'q-R-J:@'T'~%K:L:@2M:t&N:O:              ",
"                                                                                                                                                                                                                                                                                                              P:Q:Z)R:S:$'@'Y-N0,+T:_,r'H%U:V:+'z R!u$! !!j%{ g ,%X R!|!y!|!K%3%{!<!j%z # u$K%u$3%Z!u#7#X ]!W$# / x!2$J w!i 5!W$! ^!l%2$M#1%e 1 ! ]!/ ;$9$u!s#) / 0 Q!M ~ 9$g s#) / Q!0 9!i ( :#M#+  !* 5!y T#u#:#M#e T%y / H M!>!p$J X v4Z / Z ! H%=$W#}!<$j j  !y W$z 4# !8686v4x4T%8!a1 !K%z!8#[!]!T%H y!-%o$( .%I .$+ Y Q!i k%;!/%S#I%k%8!|8Z e u'8$T!n!C&t!R%8!R!!!V!! 5!^!4!Y7|8R8}9R8R8}9|8G5I9W:X:M997Y:w6G+O4O4O4Z:[:]:]:T8T8^:_:`:a:b:c:d:e:/:f:1:1:1:1:g:h:G$i:j:k:g8g8g8g8l:m:                                                                                                                                        n:o:p:q2q:r:$.s:t:c/'.3,9.Z&Z& #+'Z!2)2)t#<#-%}! #) i O%X!I%| @(.%2%L ) ##z!) z ,'5$t*S#I%X!O%~ +  #t!X!>!v!?([(5#k%!!}!;$!#w#- =!=!- C&-%;$ #}!;$L ,'7!#(a!>!X!O%~ }! #e P!A$6!p&/%D&3%e }!z!t!A&s#| &)u(n!2%M!+ ####z!A&Z!3)2)9&u::+C'('1,j03(h552v:w:x:y:z:{:|:}:            ",
"                                                                                                                                                                                                                                                                                                              ~: ;!;#;$;c)%%%.W&**L4w$*%N%c!{!V#s$:!W$r#Q#-%`!g Y$f!:!u$y!r#/ l%p#;#o$i ]!K%r#/ l%p#[ w!~ 0 W$! G x!7!I 3$;$1 r#r#$ x!9#=$F%;$G # # 9!i D&v!f + j 1 5!y !!#!v!f ;$Z 1 Q!9!T#~!p$=$s$^!1 * y Q#;!X$n!t!Z y y  !K%1%O#I s$^!y j <$G % 4$N!X <$H N H [&M4T%[&<$/ 5!5!/ <$M4Y7y }!r$G#7$l%1  !y!s$$&9$6#O#G#2%Z H 0 L ,%5$a!/$`!0 )8R%R![!%&u#7$K o&S%G5$ $ G5%;%;L9&;R8M9R8|8G5)8F5G5S8I9S8M9G5Y7x4T%S%';';';(;^$);*;+;,;-;.;/;0;1;2;3;W94;5;6;6;7;7;1:8;9;:;;;<;c9=;g8g8f9g9>;                                                                                                                                      ?;@;A;B;C;D;E;/-90l+=-F;p-5*5*_ 2%9#A(B(0%4$v$%  # #) l%3%Y$n$3)N$H%i  #z!}!) N#!#[ ')6!9#3$q$e + }!% !#N!.%3)J).%-);$z!) P!N!;#N$#(O#} O%;$}!}!;$X !#f Y!6!9#3$U!i  #}!~ f!w#T!t*p$J 2%z  ###% [!V#u!B(2)u!q&##z!% + L !(2$G;H;0%I;{75*R+v//1^,)+90F#J;K;L;M;N;O;P;            ",
"                                                                                                                                                                                                                                                                                                                !4Q;R;S;T;-(I4J4U;f/L4O.L43%Q)<!H%N#r#K%|!K%3%g U#S!i ! |!u$$ M%n![ c!;$0 K%W$G t!p#n$k z!5!W$r#$ }!U#u!G# #G ! ! $ }!0$:#;#z!y 0 ]!9!N#>!=!7!+ H G 1 M z <!=!J e 8!9!Q!G v#`!N$g 7#4#0 ^!Y W!1%N$g v$y!G Z Z y N#R#8$c!-%0 4! !j 0 }!) * 8!T%T%S%8!T%76N W$+ !(j)z!|!S%|8$ 8#<!g 8$>$G%Z Y 4#f!W B&6#. A&N 76S%M4;$J p$u!I%G%8!M4W!z V!! 5!u$Q#a1S8F586|8}9}9S8I9&;I9}987F5v4a1a1v48686v476x4a1a1a1a1V;V;V;V;W;W;X;Y;Z;[;;6];^;_;`;a;b;c;d;e;f;g;h;i;f:1:h:G$j;c9g8g8k;f9l;                                                                                                                                      m;n;o;p;I7q;r;s;52A'c(t;c.('5*N#3%( | #(6#0$V#M% #z!}!+ ;$,%- 2)N$.$N%## #}!+ e J%A$O!p&/%#![!z ) }!}!) ,%- 2)%(n$1$s$%  #G%q&u#| B(?(O o&;$z!}!;$!!P!E&=$O!/%#!!#N# #}!) O%P%| &)u(n!2%M!) ##}!) j%5#A(B(v!{ r$t!z! #z j)9#8*?(u;7$q$M*z/L1v;w;x;^2y;z;{;|;};~; <!<            ",
"                                                                                                                                                                                                                                                                                                                #<$<%<&<G(Y+t4*1x.>*K%! A!:+p#. o$~ # |!W$^!l%- p#7$}!]!|!u$1 l%9#2$?$+ Q!u$u$1 x!/$a!6$x!$ r#r#* ) ( S#6$##^!]!! * i >!A(=$G%$ 0 Q!9!T#E&X$n!N%/ $ $ M v#3$:#p#J%Q!1 $ 9!u$v$' 0%`!x!W$y Y ]!j).%n$1$+ 1 H Z 4!/ $&w#X!-%1 8!H  !H ^!$ ^!G ]!# $ Y [&[&5! #,%, w#A& #R%)80 7#D&Y!6#W#-*Z [&$ W!Q%2$6!n!Y$# 8686R%L N!( C&w!M%R%861 $ G5L9K9G5M F5J9W:I9|8)8F5)8M9S8}987F5v4x4T%S%S%T%T%M4a1a1a1x47676O4O4'<'<X;X;(<{4)<*<+<,<-<.</<0<1<2<3<4<d;5<e;f;6<7<8<9<G$<;:<=;g8g8;<                                                                                                                                      <<=<><?<@<A<B<(7(1a.C<;9D<4*5*Z'T+E<- =!X$g s#N%+ z!z!;$M!3%5#@(N$3$j)M%+  #+ e G%w#Y![(p$J 2%T#;$z!+ :!2%5#?(u(/%:$&(t!z!N%2%W B&3)Z(g b!+ }! #) N#o&`!W#6!p$J 2%X + z!+ l%r$u!B(2)u!q&% ##z!+ L !#R#O!A(N$[ >$N%}! #N#2%6$T!8*6!F<[!+ Z&z9G<H<W3(1I<J<K<L<M<N<O<P<Q<          ",
"                                                                                                                                                                                                                                                                                                                R<S<T<U<C5x+G4y+V<#&L47 &&M%n!J `!;$]!|!u$* x!/$B&G###5!u$u$1 z!W#t#{ ##5!W$W$5!+ A$X$3!x!/ # r#1 ~ I%=!3!##Y Q!! 5!L P%a!g q#v#r#* 9!_!w!T!{!8#R!Q!^!M W$7#' v!4$J%|!y ^!G i =$a!{ &(W!Z y M T#7!B&7$P!]!R% !H j ~ z!|!M 8!M4[&H N [&M V!##k%Q%% W!<$0 ;$8#;!p#p#E&!#H 4!W$x!1%t#a![ h( ! !y S%N#R#O!u!D&q$8![& #o&L W$0 $ H F5w48686|8R887G5w4&;K9W:X:w4v4a1M4x47676x4x4x4a1M4M4a1x4x4x4x4*4X;O4v4v4v4v4W<W<(<(<X<I5Y<*<Z<[<]<^<_<`<`<`<a<b<c<d<e<f<5<f;g<h<h:I!i<k:g8g8j<k<                                                                                                                                    l<m<n<o<p<Z1q<@&(/c%r<E<T+Z'}!Q-c2s<n!6!')v!A$s$) }!z!) T#3%R#O!a!#!u'o&;$ # #;$N%P%/%B(&)n!2%M!;$z! #z ,'R#O!t*Y!D&<#N%##% }!-*{!2)%(t#7#z!+  #) i -%-*s#6!u(n!2%:!) ##z! #[!5#A(B(v!{ q&o&) + !![!I%0%p&a!/$?$N%}!}!~ [!, =$:#')9#!(;$Z&C'.+t<c(/%a.l*u<: v<w<x<y<z<          ",
"                                                                                                                                                                                                                                                                                                                {<|<}<~< =$203!=B$L2q5w$Z$#=9#2$:$ #0 K%K%Q!##R#O#9$x!* W$W$5!+ & S#U#x!$ r#W$Q!e , X$=$q$5!! # 1 N#, p$5$G%* 0 ]!Q!V!8#0%/%`!t!y!G 9!u$Q%B&0%w!% r#M / * x!8$a!R#S!4# !/ Y |!3!6!W#q&R!H Y  !1 >$I%h(% G T%[&N H ^!9!Z Y Q!Q!Z [&4![&$ ;$q#, k t$ #j V!t!k%:$/%6#6$H%H N $ r#b!3!T!O P%|!Z <$N L Y$A$, 1%-%S%R% #+ S%$=%;L9J9}9}9I9X:|8)876Y7X:I9S8}9|8F5x4T%S%S%T%T%M4M4a1a1x4x476v4v4v4v4{4{48686868686Y:Y:8686%=%=&=*<Z<[<'=(=)=*=*=+8+8+8+=':,=-=.=d;6<0:g:/!b&/=e8f8g80=                                                                                                                                    1=2=3=4=5=6=7=8=6.(14+a79=l }!) f!w!6$Y![(X$0$O%~ }!z!+ !![!I%0%6!/$?$U!e +  #+ l%r$g B(2)g +') +  #+ N#!#I%0%')6!/$:$s$##}!z j)9#[(&)/%1$t!;$ # #;$% b!V#N$%(g +'+  #}!z!) O%R#O!A(N$[ >$P!~  #e J%~!8$O!=!{!k O% #}!;$q$c!W#T!t*g k%.+C'Z&Q-R-~,@&w&Q)s +,:=M:;=<===          ",
"                                                                                                                                                                                                                                                                                                                >=-6x8?=@=A= 3!3B%Y'f/f/B=w/W#t#{ ##1 u$K%0 + ( X$9#t!9!r#u$Q!) I%X$9#% M ! u$]!X V#6#u!H%:!K%0 1 :!c!N$g q#Q#W$0 ]!0 ) =$6#G#&(4#/ G $ e 5$N$s#j)y!Z M y v#J N$[ $&4#4!y Y |!R#O#. u'V![&Z Z / % M%|!Y S%x4M4S%R%R%y |!}!&(J%Q!a1[&^!R!s$`!n!Z!E&!#y _!;$L j)2$6#J h(R%Y7x4Y7M!<!0%5$( j)Z N i s$##X u$$ H G5)84![&87I9S8S8J9&;&;J9X:w486M4M4v4v4v4v476x4a1a1a1a1a1a1x476x4x476v4v4v4v486868686868686Y:Y:%=%=Y7Y7N4N4N4J5[<C=C=D=D=(=(=^<^<^<+8+8`<a<E=d<d;h;8;:;F=G=c8f8g8H=                                                                                                                                    I=J=K=L=M=N=O=P=u.k+@(y.Q=R= # #t!!(%&B&u(u(2$-%i }!}!) N#P!E&5$O!/%#!!#!!) }!}! #b!5#A(B(' 3$!(t!)  #e J%~!8$O!')L%( f!##z!i ,'& v!8*6#h f!i  #z!}!+ ~ H%v!u(' 3$j)M%+ z!+ O%I%0%p&a!9#3$P!~ }!~ f!P#. T!A(O!. s$+ z!+ o&t$s#L%&)L%j)T#9+'#>'c2t-b%(/6!S=T=U=V=W=X=Y=          ",
"                                                                                                                                                                                                                                                                                                                  Z=[=]=^=_=W0c,,0`=a=b=|(('& S#U#% G r#u$0 i , p$=$U!]!u$u$Q!e , p$- !#W$u$W$# _!j%/%L%c!-%4#Q!5!V!8#0%L%N!N%W!* Q!G R!/$O!U#h(v#j 9!y K%3!:#. X!R!N y Z ! D&/%/$P#4#8!j j ! Y$#!N![!]!8!H  !<$* * <$ !^!G / Z S%86Z !!7#w#7$-%0 H 0 :!##<#t#O!M#q&Y # |!j ~ 9$Y!=$%&1 w4)8T%_!.$k 7$`![!Z H i ) / )8&;L9J9S8S8W:J9}987)8G5R8S8S8}9|8F5x4T%S%T%T%T%M4M4a1a1x47676x4x476v4v4v48686868686Y7Y7c=c=868686Y:Y<%=d=e=f=g=h=N4J5J5C=i=D=D=j=!:k=k=(=l=l=*=+8+=E=4<m=n=o=p=q=G=r=g8s=t=                                                                                                                                u=v=w=x=y=z=b'{=T,..90|=g j%?!S+M*x/x!q&- u(2)u!!( #+  #) e f!V#. O!p$J 2%T#;$}!z!;$-%U#6![(S#D&u's$~ + i G%c!R#T!t*p&[ f!z!##;$!#k Z!X$X$R#b!N#+ z!z!;$M!3%g @(S#D&<#o&;$}! #N%~!5$:#X$t#G#[!e }!) -%j%E&0%B(?(n!b! #z!}!M%!#V#u!&)N$X!:+)6:.r*}==,e0c-~= >!>#>$>)*%>&>n4        ",
"                                                                                                                                                                                                                                                                                                                  u9v9'>(>)>*>^*+>,3>*7 x$Q-s#=!2$f!0 w$L4! :!S!S#B&u'+ 4#! ]!M!h(| | :$b!Q#]!r## ~ n!a!D&-):!G Q!5!!!5#O![ $&L y * G R!U#S#3!c!Q#N y j u$& v!p#?$v#S% ! !5!1$#!<!u'|!T%H <$y 4#M!W$* y Z j Z R%M4j 4#M%7#H%J%!![&x4/ N#q&2$/%6$A&/ Q!u$9!##. :#v!w#/ 86a1x4R!c!. [ C&~ S%N L ) R!5!Z 8!a14![&76G5R8}9M9M9X:X:I9J9X:G5v4a1M4x476767676x4x4x4x4x476767676v4v48686v4v4v486Y7Y7Y78686Y7F5F5Y7Y7Y7Y7Y7Y7Y7Y7Y7N4J5J5J5F5,>,>,>,>->!:->->.>.>j=(=(=!:!:k=(=*=+8/>.=0>g;0::;1>a9e82>3>4>                                                                                                                              5>6>7>8>9>:>;><>y4g5?(90n$I)b!z!;0(&=>!(M#p$t*O#7$O%e + + ~ l%&(4$6#$(p#7#N#)  # #;$-%G#t#X$O!2$F%U!!!+ ) M%v$7$B&B($(- ,'z!z!) J%W J 6#A(n!3%X ;$}!z!+ !!b!0$p$O!2$4$P!e  #}!t!S!I%| ?(B(8$8#N#}!z!+ i q#8$&)u(.%t$l%}!##z!;$v$[ p$O!n(t6U!K1:.L14*>>h5i.?>@>A>S1B>C>D>E>        ",
"                                                                                                                                                                                                                                                                                                                  C(0717B.F>a.L-=1l#83=&x$_ P#T!' `!-%_)7 u$u$% - a!{ q#T#Q!! r#z!p#X$0$o$!!* ]!Q!M!J N$M#K T#/ 1 $ 4#A$O#n$k !! !9!^!|!w#u!t#k :!S%Z j ]!`![ t#<!L a1N <$Y 4#X _!]!N a1T%8![&[&y y!L L X N#R!8!87 !~ S!7!- #!j%Y 0 K%^!% [ p&/%4$j a1N N e k L%8*9#4#M9M4T#t!+ X V!5! !# r#Y M487S8X:&;L9X:X:%;%;X:87F5v476v4v48686x4a1a1a1a1x4x4x4x476v4v4v476v486868686868686Y7Y7Y7Y7Y7Y7Y7Y7Y7Y7F5)8F5F5F5F5F5F5F5F5F5F5F5F5F5F5F5F5F5F5F5F5.>j=j=j=j=.>.>.>.>j=j=(=(=+8b<G>d;H>I>3:j:a8e8e8J>                                                                                                              K>L>M>N>E'>1O>P>Q>R>S>T>U>8>V>>6i$c/@(52Y!;#V#9.;$W>X>b!I%0%p$6#>!f!!!;$ #+ ;$i H%S#$(' 3$!(x!;$ #) -%;!2$a!#(O!R#[!:!) }! #;$q#5#A(B(S#W o&+  #N%j)%&B&u(0%,'Q#~ }!z!+ e P!& 6!')v!& [!X + z!}!z!A&Z!3)2).%.$N%####+ X !(3!#(@(v!?$o&) ##}!e 3%#!/%T'w3T,[!+ % 5*+/Y>)'528&Z>[>]>^>_>`>a>        ",
"                                                                                                                                                                                                                                                                                                                  b>c>0*d>e>H(u.^1_+N(T$k$N7D+B&Y!u#q#57# f># T#I :#R#<#!!1 ! 0 M!7!=!5$%&i 9!0 5!Q#f L%O W z Y $ G V!w#.%Y!A$N#[&M M r#W I ' I%L M4 !Z $ J%1%w#1$|!a1[&H H  !R%8676<$/ / Y 8!x4Y X q$j%A&j%t!4!T%^!v#,%Z!p&p#c!Y 1 # R%:!( 6!a!D&1 G586S%R!q&G#U#:$V!a1j N#i 9!86I9$=}91 * |8g>%;J9}9R8I9J9J9W:I987F5v4x4M4T%T%M4M4a1a1x476x476v4v4v48686868686Y7Y7Y7Y786868686F5F5F5Y7Y7Y7Y7Y7Y7Y7F5)8)8)8)8)8)8)8)8)8)8,>,>,>,>F5F5F5F5F5F5F5.>.>.>.>.>.>.>.>.>j=j=k=(=*=h>b<.=i>j>k>l>m>n>d8o>                                                                                                          p>l)q>r>s>t>u>v>w>x>y>z>{>|>}>~> ?96e0| t*[(a!=$E&l%i i X U!, =$O!:#U#q$T#~ + + e Q#!#t#@(S#D&u'O%e + + l%S!I%| @(t*I v$N#+ z!;$:![!W#O!A(6#{ P!;$z!x!l%q&- u(T!q&## # #}! #~ s$:$S#[(X$J v$~  #z!+ M!,'I &)u(' 3$k%l%## #N#,'9$Y!#(a!I%P!~ z!z!~ b!E&5$6!.%{ +1;$Z&C'B$Y>>-!?#3M##?$?%?&?'?(?)?      ",
"                                                                                                                                                                                                                                                                                                                  *?+?,?-?.?$2W0A*/?O0^)_,w$##p#X$0$1$i 0 W$! X 7!6#J 1%N#* # 0 M!} O#n$h ;$/ 5!5!_!k {!g k e Z 9!9!|!>$p#p&[ e M4Y M # $&. .%#!T#a1H Z Y ]!y!Q#|!Z T%8![&4!4!S%Y7[&y!N#e R!R%Y7Z X ,%U#n!I%j%Z # |!<$e W#:#/%F% !F5S%N i w#0%8*I N#v4|8)8Z L ) Q## Y 0 0 Z a1w4S8X:I9S8G587K90?K9X:|8)8Y78686Y7Y7v476x4x4x4x4x4x4x476v4v4v476v48686868686Y7Y7Y7Y7Y7Y7Y7Y7Y7Y7Y7Y7F5)8F5F5F5F5F5F5F5F5F5F5F5F5F5F5F5F5F5F5F5F5F5F5F5F5F5F5F5F5F5F5F5F5F5F5.>j=j=j=.>.>!:j=l=_<a<1?b;i>2?3?&9d9c84?5?                                                                                          6?7?8?9?:?;?<?=?>???@?A?B?C?D?E?F?G?H?I?J?p)<,K?J/(7L?J6M?N$=$, l%.+e T#o&%&9#T!')n!J%Q#e ) + ~ T#J%7!')6#[ W f!N#)  #+ z!t$- u(u({!u'M%}!}!) z b!I%0%p&6!#!J%;$z!z!;$7#5#A(6!{ r$N%~  #}! #}!k%{!$(B(Z!<#N%##}! #X !(3!8*@(v!I%S!M%z!}!i b!, =$O!p&3!,'i z!##) U!V#. :#[(j4y/N#z!'#N?O?n%~%T'=$P?Q?R?S?N(T?U?      ",
"                                                                                                                                                                                                                                                                                                                    M8V?W?X?80I2<,=,>/Y?{+E%1(H1=!=$?$) 5!W$! X 9$L%O %&i G ]!0 Q#k .%O#} ) j 1 5!R!:$5$v!} e 4!/ 9!W$r$9$a!O M%Y M Y 1 !#w!C&o$y!M44!<$ !8!a1v4M4j 9!9!M 4!8!8!4!K%2%h(H%t![&)8[&! k%=$p&p#w!j ]!]!w4# h Y!6#A$u$x4a1R%M!`!6$M#;!L 4!v4w4Y7N [&R8&;x41 / M90?L9J9}9|8M9I9W:W:&;S8M9G586M4M4M4a1a1x4x4x4x4v4v4v4v4v48686868686Y7Y7Y7Y78686Y7F5F5Y7Y7Y7Y7Y7Y7Y7Y7Y7F5)8)8)8)8)8)8)8)8F5F5F5F5F5F5F5F5F5F5F5F5F5F5F5F5F5F5F5F5F5F5F5F5F5F5F5.>.>.>.>.>.>!:j=l=^<+80<1?.=Z?[?h;a9]?^?_?                `?a?b?c?d?e?                                                          f?g?h?i?j?k?l?m?n?o?A4p?q?r?s?t?u?v?w?I/x?y?z?' 6#~%6.J/{?Y+|?}?G#$&}!l l U$N%`!R#S#A(n$k%T#e ;$) i X U!9$:#=!- C&U!z ) }!;$4#b!O &)u(' 3$!(% }!+ N#P!~!5$:#X$R#[!i z!z!N#!(. O!O![ W q$i  #z!z!~ -%2$$(3)0%?$j)M%+  #!!,'9$T!#(a!/$?$N%}!z!;$q$P#R#Y![({!j)!!}!## #O%H%, 6!q+t#~?) ##'# @!@e0a.p&S#V(#@A/$@%@&@'@      ",
"                                                                                                                                                                                                                                                                                                                    ?5(@)@*@89a.n%p5>,+@g*=&U$a7O#n$G#}!x#! ! :!s#{!g s#) ^!Q!0 _!>$8$=![ + H $ 1 y!P%n!X$[ !!a1Y 9!0 s$P#8$3!q#:!1 Z M ! V!Q#|!j S%8!4! !H R%x4 !V!e i _! !M4<$u$[!f 5$I%H%N G5Y786z f 6#' 4$ !8686J9* W .%')Z!3%4#G 86^!k%A& #]!N * 9!v4M9G5G5R8M9Y7F5M9K9$=W:X:|8)886Y7F5Y7Y7Y786v476x47676v4v476767676868686868686868686Y7Y7Y7Y7Y7Y7Y7Y7Y7)8F5F5F5F5F5F5F5F5F5F5F5F5F5F5F5F5F5F5F5F5F5F5F5F5F5F5F5F5F5F5F5F5F5F5F5F5F5F5F5F5F5F5F5F5F5F5F5F5F5.>j=.>.>j=,@*=e1_;1<-@.@/@0@1@2@3@4@5@  6@7@8@w29@:@;@<@=@>@?@@@                                              A@B@C@D@E@K!F@G@H@I@J@K@L@M@N@o)O@P@$;}/Q@R@S@Z3B06.u;T@&63'r2G#y4:$1%<0U@s$:+2,r'z L t!u'D&L%t*| h(x!) i ~ i X f!D&6!p&| D&J%L ;$}!) :!,'3!8*@(v!#!S!l%+ + e f!V#;#N$[(=$,'z }!##~ ,'#!0%6!9#3$q$e + }!z!;$s$9#A(?(S#D&u'o&;$ #e J%, =$O!p&/%D&o&}!z!+ s$t$G#L%B(L%j)T# #% ####% r$O#2).%1$s$:+C'('=4P0h552~=V@#2W@X@Y@Z@[@]@    ",
"                                                                                                                                                                                                                                                                                                                      ^@_@`@q a@y.S(b@r&=&P.L s#n$#,c@C'4%# ! Q#7$5$v!f + j 1 Q!V!<#;#X$8$O%^!* $ u$r$9$6#I o&G 9!^!* :!J%W %&3%T#* Z j 4!T%76T%Y G 9!M  !H H  !|!2%h(H%M%Z x4H # !(5$p&Z!V#H |8)8F5Q#w#0%Y!} y!M9K90?9!$&. M#h P!) K%F576T#X a1L9|8/ / Y7X:I9S8|8)8Y7}9J9J9I9}987)886a1a1a1M4M4a1x476v4v48686868686868686Y7Y7Y7Y7Y786868686F5Y7Y7Y7Y7Y7Y7Y7Y7)8)8)8)8)8)8)8)8)8)8F5F5F5F5F5F5F5F5F5F5F5F5F5F5F5F5F5F5F5F5F5F5F5F5F5F5F5F5F5F5F5F5F5F5F5F5F5F5F5F5.>j=.>.>!:,@l=*8e1^;d@a:e@f@g@*9h@i@j@k@l@m@n@o@p@q@r@s@t@u@v@w@                                      x@y@z@{@|@}@~@ A!A#A$A%An,&A'A(AA9)A*An-+A,A-A)'a.*>A0B0/%Q)C<x?x?n*:$D+P-.A/A0Au$V!v#U$_ :!v#z!t$<!/%t*T!W 3%z!!!i e z N%;!O#A(=!M#Q%e )  #+ X ,'R#6!8*N$[ W M%+ }!) -%H%, /%B(0%q#;$z!z!;$[!E&5$6!t#G#b!!!) }!z!) o&R#6!8*6#7!>$q$i  #~ f!c!W#T!t*p$J o& ###}!t!!#N!t#u(T!-* #z!##% + L j)/%$(0%:$&(O%R/5*a23-)+905+451AN62A3A4A5A6A    ",
"                                                                                                                                                                                                                                                                                                                      7A8A9A:A%%)'z,='(%m&P.Q 3$5$X$3!Z&e30 # _!Y$n!X$7!;$[&G Q!K%v$u#6#u!q#_!]!9!]!o&P#n!2$`!O%W$y 9!5!u$M!M!r#G Y Z Y Z N T%Z R!e e _!Z [&Y ! U!A$8$<!H%Y x4a1v4T#& a!T!s# !I976Q!O%4$n!6!g Q%S%0?g>/ S!P%t!# / T#4#v4X:x4M4M9I9R8G5w4X:J9W:X:w486a17686Y786v4v4v4767676v476767676v4868686868686Y7Y7Y7Y7Y7Y7Y7Y7Y7Y7Y7Y7Y7Y7F5F5F5F5F5F5F5F5F5F5F5F5F5F5F5F5F5F5F5F5F5F5F5F5F5F5F5F5F5F5F5F5F5F5F5F5F5F5F5F5F5F5F5F5F5F5F5F5F5F5F5F5F5F5F5F5F5F5.>j=.>.>->;AD=]<<A=A>A`:?A@Ai<AAX4BACADAEAFAj:AAGAHAIAJAKALAMANA                            OAPAQARASATAUAVAWAXAYAZA[A]A^A79_A`AaAbAcAdA;,eA@%6.L.fAgAF#@&V/&%hAk&iAjA)6kAL1?!r'e lAQ#_!Q#M!Q#_!V!u$~ A&<!0%[(6#I%h(l%L N#e N#z!h(.%B(?(p#S!M%}!) ) z b!I%0%p$:#p#C&N% ###z!}!}!A&Z!3)T!.$O%l%z!+ P!N!. :#A(/$!(L ;$}!z!+ O%>!' p$:#p#C&J%N# #) O%-*s#| &)u(n!s$) ####z!+ -)- $(a!?$Q%N%}!% }!!!j)t#?(S#D&<#mAM*@*C'//2'^2nAw7oApAqArAsAtAuA    ",
"                                                                                                                                                                                                                                                                                                                      vAwAxAyA?%@%;-v;6%M(g(zAo$0$X$5$G%* ]!0 R!.$0$X$- !## Q!* ! % K B&' 1%% u$/ * L J%Y$F%h(o&W$j ^!M Z 4!N / * 5!* y j Z  !K%2%X!+'o&y 8!Z Q![!n!p&g W y v4x4Y7_!, 0%=!0$V!R8F51 l%w!>!U#D&+'^!X:%;R%s$s$R%g>}9Q!Q!G5$=0?L9I9M9w4}9X:S8S8S8M9F576M4T%T%M4M4a1a1x476v4868686868686Y7Y7Y786868686Y7F5F5F5Y7Y7Y7Y7Y7Y7Y7Y7Y7Y7F5)8)8)8)8)8)8)8F5F5F5F5F5F5F5F5F5F5F5F5F5F5F5F5F5F5F5F5F5F5F5F5F5F5F5F5F5F5F5F5F5F5F5F5F5F5F5F5F5F5F5F5F5F5F5F5F5F5.>.>.>.>->D=D=[<+<;6I'{A|Ae@f@i<q=}A~A B!B#B$B%B&B'B(B)Bw:*B+B,B                      -B.B/B0B1B2B3B4B5B6B7B8BX@9B:B;B<B=B>B?B@B`&ABT!N$|/L.h5H4BBCBDB=.EB33FBt<'#>*)#,3W&T$7 w)GBy!R!4#R!v#z  #% x!,'N!U#| A(:#0$P#M%Q#z e e ~ 2%5$?(u(' %&2%% ~ ) N#U!7$O a!')O#} s$+ ####;$M!,'2$u(a!:$Q%N%}! #s$,%, 6!q+u!H%e ) }!z!+ -%?$/$a!')O#} !#z  # #l%[!V#u!B(2)g ,' #}!##+ T#2%7!8*O!( .$f!+ ##}!e 2%2$8*|/w3W6|+8.@*Y*HBd%(1IBD)JBKBLBMBNBOBPB]@  ",
"                                                                                                                                                                                                                                                                                                                      QBRBSBTB7!:#UBVBA#W&>&O.P!:$S#n$S!;$K%* W$f!>$/%Y!u#8#_!/ $ 9!}!u#;#K o&K%y 9!* 0 W$K%u$# 1 G ^!^!M Z # t!3%b!z!G <$Y $ N%9$/%2$P%G 8!R%76M!u#T!'). # ,>T%9!}!V#R#5$0$&(H I9S8Y s$b!R!# T#0 R%X:W:)8F5&;L9I9|8M9&;K9L9&;w4v4a1a1x4x4x47676x4x476x4x47676v4v4v4v4Y78686Y7Y7F5F5Y7Y7Y7Y7Y7Y7Y7Y7Y7F5)8)8)8)8)8)8)8)8)8)8)8F5F5F5F5F5F5F5F5F5F5F5F5F5F5F5F5F5F5F5F5F5F5F5F5F5F5F5F5F5F5F5F5F5F5F5F5F5F5F5F5F5F5F5F5F5F5F5F5F5F5F5F5F5F5F5F5F5F5F5F5.>j= :J5J5C=*<[;WBXB^:v5YBZB[B]BD!//01^B_BT(r )+L->-`BaBbBcBdB      eBfBgBhBiBjBkBlBmBnBoBpBqBe$rBsBtBuBvBf2wBxByBzBeAH46+{B@'b%|BI1}BEB~B.*=' CE)E)*)!C#C<&L(S$T$k$**R.Q#L T#z $Ci ~ x!8#Y$k A$0$5#g T!:#| R#V#t!v#X N#e z N%M#p$[(O#f 1$O%!!;$i t!7#~!0%&)u(5$U!+ z!z!) z 2%;#=!O!W#c!U!) ####) H%| 3)B&P#P!% ) }!}!x!7#;!' &)u(5$v$!! #z! #i Q%J X$@(L%P#-%;$z!}!e [!u#.%O!8$~!J%i z!z!;$P!>!a!8*L.%C>9e 5*5*&C@Bc/~%|/y.'C(C{2l()C*C+C,C",
"                                                                                                                                                                                                                                                                                                                        -C.CL+*'T!/CFB0Ck$Y?^)^)1C2C3C368#v#9!1 1 q$5$X$0$.$:!y $ 9!]!T#N#4#! G / G 9!M j $ _!e ~ :!* / / Y  #I%Z!R#1$0  ! !S%!!& :##(9$9!M4S%G5W$N!- ')t#4C4!)4)8Q!Q%X!J%t!##Q!a1&;&;x4a1X:J9G587X:%;g8g8%;X:87Y7Y7Y7868686v4x4a1M4a1a1a1a1x4x4x4x4v47676v4868686Y7Y7Y7Y7Y7Y7Y7F5)8F5F5F5F5F5F5F5F5F5F5F5F5F5F5F5F5F5F5F5F5F5F5F5F5F5F5F5F5F5F5F5F5F5F5F5F5F5F5F5F5F5F5F5F5F5F5F5F5F5F5F5F5F5F5F5F5F5F5F5F5F5F5F5F5F5F5F5F5F5F5F5F5F5F5F5F5F5F5F5F5F5F5F5,>N4N45CY<I56C7C8C9C!9:C$9;C<C=C>C')6!?C@CY+y.ACBCCCDC~&ECFCGCHCICJCKCZALCMCNC_0D;OCPCQC!.RC0-%%SCTC_#6.c-u;@&UCVCWCXCYCZC[C]CK2^C_C6)`CaCg%X's6-+bCh!x#*$k(i!?*s69+cC/#dCeCu#6$9#=$.%Y!6#a!T!/%t#{!3!F%q&!#;$M!T#z N#X x!A$Y!')N$[ W o&z ) + ) ~ H%- 3)2)t#7#% z!##}!i [!w#- 6!Z!k !#;$##z!N#!(=$@(O##!X!O%i + }!+ ~ H%p#3)2)t#<#M%z!z!+ !![!>!' p&6#{ q$i  #}!~ J%4$I :#:#;#,'z  #z!+ s$P%L%&)u(>->9O0;0w/,1fCgCw&M?|/hCiCjC:>kClCmCnC",
"                                                                                                                                                                                                                                                                                                                        oCpCG2qCrCS2sC_+C+X**$tC;0uCb/V0vCO0F+G H T#F%U#%&j)V!/ * 5!G <$ !/ * ]!]!$ 9!/ Z |!2%X!-*q$Q!M M Z x!/$t*Y!h #  !N Y7V!E&v!@(O _!8!a1)8# u'A$J 4,4CZ R8&;S%N#) G  !Q!y a1&;g8g8g>0?$=L9W:W:W:W:W:X:w486a1a1a1M4M4M4M4a1a1x47676x4x476v4v4v4868686Y7Y78686Y7F5Y7Y7Y7Y7Y7F5)8)8)8)8)8)8)8)8)8)8F5F5F5F5F5F5F5F5F5F5F5F5F5F5F5F5F5F5F5F5F5F5F5F5F5F5F5F5F5F5F5F5F5F5F5F5F5F5F5F5F5F5F5F5F5F5F5F5F5F5F5F5F5F5F5F5F5F5F5F5F5F5F5F5F5F5F5F5F5F5F5F5F5F5,>N4N4&=Y<I5Z:wCxC8CyCzC{C|CO>*+d2}C~C D!DhAq<s##D$D%D&D'D(D)D*DI#+D,D27-D.D6 /D0DQ8R#n!t#| i&1D;4I(2D3D89V(P?4D*A.*5D6D'?X%j!N0D$X%W*z0D%#&T$7D6(1(57_ j(4*5*5*u6vCA*x?M#2$B&N$p&')N$L%g 3!6$( { C&N!k%-%+ X M!:!T#X L z!D&v!p$O!{!k q$L ;$}!~ M!,'O ?(&)0%$&-% ###z!;$q$V#;#6!Y!9$!(i z!##~ 2%7!')6!/$?$U!N#)  #;$M!,'/$@(&)0%7$&(x!z! #e b!C&p#:#=!. b!N# #z!+ G%S!I%6!?(n!7#i  #z!}!t!q&u!&)%( 3>3x!=9x/a2}(8DH9k+529D:D;D<D=D>D?D@D",
"                                                                                                                                                                                                                                                                                                                        ADBDCDDDED:#B'YCi4N0k(,*9+J N$;#s'U$A!* 9!# !!;$L y!5!G * 1 $ M 1 _!N#~ L 1 9!y 4!!!{ Z!R#$&! M y 4!i A$:##(U#]!4!N v4y!Y$- p&t#2%y Y7G55!q#$&,'##V!FDGDHD87M4a1|8}9w4R8&;$=g8g8g>%;J9M9G5)8)8)8)8F5Y7v476v4v476767676v4v4v4v4v47676v486868686Y7Y7Y7Y7Y7Y7Y7Y7F5F5F5F5F5F5F5F5F5F5F5F5F5F5F5F5F5F5F5F5F5F5F5F5F5F5F5F5F5F5F5F5F5F5F5F5F5F5F5F5F5F5F5F5F5F5F5F5F5F5F5F5F5F5F5F5F5F5F5F5F5F5F5F5F5F5F5F5F5F5F5F5F5F5F5F5F5F5F5F5F5F5F5F5F5F5F5F5F5F5,>J5N4Y:Y:IDJDKD|4,4;6':E=LDMD`$w;#De%ND]&V'OD!=P+PDQDCDRDSDY2|>TD{.UDVDWDXDYD2'9&H9ZD?C?C[D)+03d/]D^D_D`DaD;>V*bD6)'?cD0(dDeD{*fD{*gDS0a hDiD+*4*D+b1A&1$C&A$U#[ %%F#6.S#O#6#Y!.%I D&;!1$b!x!l%l%x!}!N#T#L :!M!Q#M!:!_!;$I%| :#')')[ b!4#i  #;$X ,'R#O!A(T!h jD;$5*z!+ o&q&u#6!?(2$k%z }!##;$[!} O!p&/%D&!#z ;$ #) X 3%W#a!A(N$;#V#M%}! #i J%F%I 6#8*=$3%T#+ % ####% q&O#$(u!.$N%% z!##z!!#O [(&)S#kD3-lD+ z!mD33Y+9090{BnDoDpDqDrDsDtD",
"                                                                                                                                                                                                                                                                                                                        uDvDwDxDj-yD?%zD{D|Dr&e3j(['D&>$}DN7^!1 5!9!<$<$^!G 9!9!* 1 $ M W!,'q&+'q$0 / Y R%;$7![(O#s#W$Y Y R%L C&v!?(I v#H 4!T%y!<#& J ( Q%G 86)8Y z!t!# <$ !~DGD|8I9$=g8g>0?L9W:W:W:W:K9W:I9R8F576x4x4x4x4x476v48686868686868686868686868686Y7Y7Y7Y786Y7F5Y7Y7Y7Y7Y7Y7)8)8)8)8)8F5F5F5F5F5F5F5F5F5F5F5F5F5F5F5F5F5F5F5F5F5F5F5F5F5F5F5F5F5F5F5F5F5F5F5F5F5F5F5F5F5F5F5F5F5F5F5F5F5F5F5F5F5F5F5F5F5F5F5F5F5F5F5F5F5F5F5F5F5F5F5F5F5F5F5F5F5F5F5F5F5F5F5F5F5,>J5N4Y:Y:86v4KD|4_-xC7C E+8!E#E>,$E#E;6%EC*N.&EOD$E'E(E)E*E+E0DQ8,EM#&/a@?7yDW0-EI(r<}%.EI1y6J*<>*+/EB%0E1Eb B#C*X%2E++fD563EO.49e(l#8+4*9+>'a2h(u#f & ;#t#T!N$6#6#| Z![ U#W#& , N!+','x!K%G 5!0 ]!# W$K%y!W!_!L z z !!G%9$S#:#[(2){!v$T#i ) ;$!!!#I%' X$:#W#4E5E9+L1 #t!3%Y$6#q+u!,%;$z!##) U!k T![(p$J 2%T#~  #) !![!>!B&p$=!{!h O% #}!;$s$S!I%| @(0%7#i  ###% ) Q#,'/%$(0%?$k%-% ###+ O%R#O!A(w&W3P0?&>'4*V%P-y./-90<'6E7E8E9E:E;E<E",
"                                                                                                                                                                                                                                                                                                                        =E>E?E5)@EA,9(AEi/BEr&''=&CEDEX R!>&x#1 1 G M 5!M!Q#$ Y G * ^!H e <!- W#$&r#/ y [&N#( O!#(W#W$Z Y R%Q#3$u!@(.%s$e3EEH FEGEu'3%-%i HEIE76a1<$<$a186JEKELEMEJ9$=g>$=W:R8)8Y7F5)8G5G5)8F586v4v4868686868686868686868686868686868686Y7Y7Y7Y7Y7Y7Y7Y7Y7F5F5F5F5F5F5F5F5F5F5F5F5F5F5F5F5F5F5F5F5F5F5F5F5F5F5F5F5F5F5F5F5F5F5F5F5F5F5F5F5F5F5F5F5F5F5F5F5F5F5F5F5F5F5F5F5F5F5F5F5F5F5F5F5F5F5F5F5F5F5F5F5F5F5F5F5F5F5F5F5F5F5F5F5F5F5F5F5F5F5F5F5F5F5F5F5NEC=OE%=Y:PE{4wC}4QEN9RE[:)<SETEN0D$UEh/h3.0S VE]+B#WEXEYEZEI/B&H9(7c-6!u, 3h$n*E<T,[E]EaD^E_E`Ei4aEbE#CS$cED%W&l&,3r&S dEeE-+z 5El%v$1%k ( I%9$- S#N$6#a!6!O#u!n!. , .$f! #####+ i z L _!K%r#W$u$W$! ]!]!0 Q!|!~ x!% G%$&I N$X$[(3)n$<#t!;$;$~ !!P!;!8$O!')/$3%N# ###z! #+ +'Y!%(.%.$O%l%z! #G%W | &)u(n!2%Q#i  #+ N#P!;!n!6!p&v!A$o& #z!}!}!% r$Z!u(O#<#N%% z!##+ X !(t#?(S#I%S!o&) z! #s$I%-#L0P,uCT,J%Q-('_ >9H1(152fE+!KB:,gEhEiEjE",
"                                                                                                                                                                                                                                                                                                                          kElEmEnEoEpEqEW=m n&x#4%W%1+ !j ^!$ * * G y V!j)H%t!v#1 G M [&) 7![(O#s#u$y y [&L C&v!B(n!:!y j [&y!A&<!5#( rEG sEtEuE% % # / Q!vEwExEw4}9S8}9M9yEzE{E|E}9I9&;I9}9)876a1x4x476v4v4v4868686Y7F5F5Y78686868686868686868686868686Y7F5Y7Y7Y7Y7Y7Y7Y7F5)8)8)8)8)8F5F5F5F5F5F5F5F5F5F5F5F5F5F5F5F5F5F5F5F5F5F5F5F5F5F5F5F5F5F5F5F5F5F5F5F5F5F5F5F5F5F5F5F5F5F5F5F5F5F5F5F5F5F5F5F5F5F5F5F5F5F5F5F5F5F5F5F5F5F5F5F5F5F5F5F5F5F5F5F5F5F5F5F5F5F5F5F5F5F5NEi=}Ed=%=Y:{4wC}4QEC$~EwCI5*; Ff3_-!F#F]*D$g*+/6D C*.{0$F%F%C6#h5Q) >&F'Ft-^1M-.*(Fe%)F#E*F+&+FW*2El&Y?T$k$k$K4N(-$j(h6(&|*w.~?V)1%h J B&O#' /%6!v!t#8$3!. D&, >$.$k%##]!j / 9!G $ 1 Q!]!# ! ! u$V!M!N#)  ###q$+'.$<#V#f ' 6#6#O!')- 1%f!) ~ ~ N#o&`!W#Y![(Z!,'X + ##z!;$L 2%.%&)/%F%8#O%}!z!-%h(u!B(2)g +';$) + + e s$1$} S#[(X$M#s$+ ####;$v#3%I &)6#?$k%-% ### #N#2%2$8*a!/$?$P!~ }!}!s$w#- =!X$g s#[!?!('r'>9<,w&(16.n%,F-F.F/F0F1F",
"                                                                                                                                                                                                                                                                                                                          2F3F4F5F6F7Fb,8F*#[#k(''F+e3<$<$Y / $ * ^!H e <!=$( h(r#^!M 4!e & O!#(W#u$j y [&M!3$t#?(n$G%$  !N 5! #J%!#t!9F:F;F<FN M y 8!M4=F>F?F@FM9}9S8X:R8Y7AFa1x476v486Y7Y786v4v4v4v486Y78686Y7Y7Y7Y7Y7Y7Y7Y7Y7Y7Y7Y7Y7Y7Y7Y7Y7Y7Y7Y7Y7Y7Y7F5F5F5F5F5F5F5F5F5F5F5F5F5F5F5F5F5F5F5F5F5F5F5F5F5F5F5F5F5F5F5F5F5F5F5F5F5F5F5F5F5F5F5F5F5F5F5F5F5F5F5F5F5F5F5F5F5F5F5F5F5F5F5F5F5F5F5F5F5F5F5F5F5F5F5F5F5F5F5F5F5F5F5F5F5F5F5F5F5F5F5F5F5F5F5F5F5F5F5F5F5F5F5F5BFCFe=%=I5(<X;W;G+g/@!X<J5W;QEDFEFW;FF?*v1GF=,l!N3%2X%,&D!HFIFs<JFKFLFMF`Ez+6)bEaENFOF7%L2W&{*l&gDk(''4%F+k(J4*1/?1$?$PFQF,Ep#t#B&v!N$6!O#Z!8$O h o$P!R/w/M*;$e z M!V!# Q!]!]!Q!5!* 1 * $ 9!/ 0 X s$A&c!:$G#W#=$n$B&/%N$O!T!t#Z!t#. <#f!~ i ~ N#M%+'k /%B(0%3%v#~ z!z!) z [!3!#(6#0$P%J%+ ##% 3%I [(&)' 3$!(x!;$+ ;$x!,'W n$&)&)I N%~ z!z!) T#2%7!#(a!I%S!o&) z!}!i b!9$:#p&/%D&3%e }!}!O%4$I 6!A(O!. 2%RFSFi b2@+..#.I2S'TFUFVFWFXFYF",
"                                                                                                                                                                                                                                                                                                                          ZF[F]F^F_F):`FaFW'-0[*4%M ]!e z!e _!* $ / [&) 7!t*N${ |!M M 4!T#w#v!B(n!L y j 4!y!A&I%p#W#-%G bFH M ! K%]!F+[&cFcFdF{4)8w4G5)8c=eFAFf=G5w487M987x4S%8!S%T%T%M4a1x4v486Y78686Y7F5Y7Y7Y7Y7Y7Y7Y7Y7Y7Y7Y7Y7Y7Y7Y7Y7Y7Y7Y7Y7Y7Y7Y7Y7Y7F5)8)8)8)8)8)8F5F5F5F5F5F5F5F5F5F5F5F5F5F5F5F5F5F5F5F5F5F5F5F5F5F5F5F5F5F5F5F5F5F5F5F5F5F5F5F5F5F5F5F5F5F5F5F5F5F5F5F5F5F5F5F5F5F5F5F5F5F5F5F5F5F5F5F5F5F5F5F5F5F5F5F5F5F5F5F5F5F5F5F5F5F5F5F5F5F5F5F5F5F5F5F5F5)8,>f=Y7Y:W<'<fFgFEEhFY:J5W;G+';iFN(2,&CjFkFB'y.=$Q8k!lFmFnF{$oFpFu5qFrFp2j!sFtF[#2Eg%X'm&T:N(uFN*vF~ + z!s1cC(4wF;#5$.%' xF:#Y!L%' - M#D&, 7$P%8###]!yFzF/ ^!9!G * 1 Q!0 0 # K%4#T#X !!+ z!z!o&H%P#D&J n!B&N$X$X$T!v!n$9#f s#, w#Y$&(M%i i i !!% Q%7$B&&)T!t$}! # #}!) !!P!6$=!p$u!G#3%;$##}!s$R#O![(O#( u'O%e + +  ###r$p#&)2)u!k%}!}!z!+ !!2%W#a!O!/$?$P!~ }!z!;$q$k Y![(p&[ !(z  #z!-%S!I%v!B(?(n!j%;$}!;$v3y4{FW0L0u;y'|F`3}F~F G",
"                                                                                                                                                                                                                                                                                                                          !G#G$G%G&G'G[.(G?,)GA!s5R%z { - 6$o$r#/ M 4!z { T!A(7!v#y y N 4#$&M#| 3!M%g!<$ !$ :!l%3%s$*G+G<FN N H H [&8!S%[&R%a1v4Y7F5)8F5a18!8!S%T%M4M4a1x4a1a1a1x4x47676v4v486Y7F5Y7Y7Y7Y7F5)8)8)8)8)8)8)8)8)8)8)8)8)8)8)8)8)8)8)8)8)8)8)8)8F5F5F5F5F5F5F5F5F5F5F5F5F5F5F5F5F5F5F5F5F5F5F5F5F5F5F5F5F5F5F5F5F5F5F5F5F5F5F5F5F5F5F5F5F5F5F5F5F5F5F5F5F5F5F5F5F5F5F5F5F5F5F5F5F5F5F5F5F5F5F5F5F5F5F5F5F5F5F5F5F5F5F5F5F5F5F5F5F5F5F5F5F5F5F5F5F5F5F5F5F5F5F5F5)8F5Y7Y7Y786v4,GeFR%S%O486x476.>L4C&5$)'-G.G`./%O#j&V,'!` ,3W&gD/G*F]*0GY'T$(#K4C+[$1G-$j(c.cCc!F%k #!2G5#Q))'u!.%g n!9#M#W#<!1%t$t$j)) v#Q#Q#_!W!u$]!Q!5!0 ! r#r#y!4#Q#M!v#e f!H%P%%&E&U#/$5#n!Z!t#u!2$/$I 9#R#G#c!S!+'M%~ ;$;$) ~ !!X T#X z !!% Q%:$n$@(6!( .$O%N#;$;$N#f!s#N$A(a!W#2%N# #}!s$u#.%p$O!n!F%q$z +  #;$z j)J p$t*O#F%G%;$z!}!i b!C&=$:#N$6$,'!!+ z!+ -%K ' &)3)- j%~ }!##}!) H%=$u($(n$V#[!x!('3,2(t-l+3Gi.A=r:4G5G6G7G",
"                                                                                                                                                                                                                                                                                                                          8GIC9G:G-7;G/,<GFBl&W%<$T%X ( O!p&6$W$j y [&Q#%&g t*t#o&$ <$H 5!) 2%S!7#u$=GcF>Gj * 5!G Y [&4!4!=F?GM4x476x48!N N 4!R%8!S%T%T%S%S%S%T%T%M4M4a1a1767676v4v486868686Y7Y7Y7F5F5F5F5F5F5F5F5F5F5F5F5F5F5F5F5F5F5F5F5F5F5F5F5F5F5F5F5F5F5F5F5F5F5F5F5F5F5F5F5F5F5F5F5F5F5F5F5F5F5F5F5F5F5F5F5F5F5F5F5F5F5F5F5F5F5F5F5F5F5F5F5F5F5F5F5F5F5F5F5F5F5F5F5F5F5F5F5F5F5F5F5F5F5F5F5F5F5F5F5F5F5F5F5F5F5F5F5F5F5F5F5F5F5F5F5F5F5F5F5F5F5F5F5F5F5F5F5F5F5F5F5F5)8F5Y7Y786{4O476a18!R%8!';V;{497@$$!t#{!n!@Gc@D&( W >'4%,* -1+AGBG~EBG,*CGDGH:EGFG'.C&A$;#=$B&S#6#O!:#a!F#p#f s#F%.$f!) + 4*e M!4#_!W!# Q!]!]!5!* $ G z(Y&0+GGHGz!v$1%k ( I%9$n!B&O#6#a!6!O#t#5#f s#P#q$}!% x!z!;$!!X X _!R!4#4#R!V!W!W!W!|!v#}!q$Q%%&.%@(:#/$?$o&T#i ;$i % S!n$&)&)2$2%:!+ z!s$~!n!6!A(:#. !#:!;$ #;$X b!I%0%p&a!I%P!~ }!z!+ o&h(<!6!u(8$!(L + x!% z!,'Z!3)3)/%:$k%-% # #X j)9#8*?(S##!u'-%C'C'('-)- $(^2l+IGJG(8KGLG",
"                                                                                                                                                                                                                                                                                                                          MGNGOGq=PG89')u!b.{*QG1+M4Q#, | ?(2$M!Y Z [&W!X!9$n$[ o&$  ! !M ]!4#i M!Z vERGSGr5TGZ S%a18!4!UGdF8!';M4a1M4[& ! !H N 4![&R%8!T%M4a1a1a1x4x47676v4v4v48686Y7Y78686F5Y7Y7F5)8)8)8F5F5F5F5F5F5F5F5F5F5F5F5F5F5F5F5F5F5F5F5F5F5F5F5F5F5F5F5F5F5F5F5F5F5F5F5F5F5F5F5F5F5F5F5F5F5F5F5F5F5F5F5F5F5F5F5F5F5F5F5F5F5F5F5F5F5F5F5F5F5F5F5F5F5F5F5F5F5F5F5F5F5F5F5F5F5F5F5F5F5F5F5F5F5F5F5F5F5F5F5F5F5F5F5F5F5F5F5F5F5F5F5F5F5F5F5F5F5F5F5F5F5F5F5F5F5F5F5F5)8F5Y7Y786{4(<O4V;S%R%VGBGV;Y:.>]!o$:$['P#`!P#`!o$j%;$$ <$b)G W$4#a,WGQ-Q%XGYGZG[G. .%T!6#O!6#| u!n!7!R#D&?$q&8#,'% # Y / 4%4%G $ * 1 Q!0 Q!# y!:!!!h6(&|*-%q#X!o$h J B&O#' /%O!:#' 8$3!. ( C&P%h(8#s$# Y 9!* 1 Q!# r#u$W!V!W!R!M!z ) z!l%N%!#r$`!W D&| t*=!n!F%o&:!e ;$~ ) j)=$B(2)t#h(x!% z!-%<#D&S#B(?(2$8#N#+ }!) N#P!;!8$O!X$;#[!e }!##}!t!!#N!N$%(u!-* #z!% x! #G%3!8*?(O#( .$G%) }!e 2%6$T!8*6!5#]GU@##9+_ >9H1#(52A'^G_GR(`GaG",
"                                                                                                                                                                                                                                                                                                                            bG'-cG61U*v6dGA*,3~EeGw6R!fGgGhGu!O%9!H [&# U!o$;!`!X y H  !<$j y ^!y 4!iGiGjGkGR%8!a1a18!4!H  ! !H N 4!4!4!N 4![&R%8!8!S%T%eFAFx476767676v4v4v486868686Y7F5Y7Y7)8F5F5F5F5F5F5F5F5F5F5F5F5F5F5F5F5F5F5F5F5F5F5F5F5F5F5F5F5F5F5F5F5F5F5F5F5F5F5F5F5F5F5F5F5F5F5F5F5F5F5F5F5F5F5F5F5F5F5F5F5F5F5F5F5F5F5F5F5F5F5F5F5F5F5F5F5F5F5F5F5F5F5F5F5F5F5F5F5F5F5F5F5F5F5F5F5F5F5F5F5F5F5F5F5F5)8)8)8)8)8)8)8)8)8)8)8)8)8)8)8)8)8)8)8)8F5F5F5F5F5F5F5F5F5F5F5F5F5F5Y786v4v4x4T%BGtCEE*486x4 !K%N7X#lG.+Q=j%b!q$o&>&1+b)V!3%1%, mGnGoGpGd,Y!T!N$a!O#- 3!9$, o$P!##% ##) z L M!R!! Q!0 Q!1 $ G 9!9!^!M j 1 ) 7#$&?$w#u#9$n!t#n$O#a!6!O#Z!8$p#7!>$U!}!z!}!) e T#M!4#! 0 ! ! # ]!]!]!# ]!0 1 u$e f!-)K 3$<!;#- 0%L%L.(1 +O!8$~!o&M!!!~ ;$i G%3!8*?(v!u#r$o&+ z!l%h({!$(u(g <#-%z!}! #i G%P#. T!@(.%!(X  #x!% z!+ +'O#$(0%?$Q%N%}!% }!o&( | #(a!7!>$P!;$}!~ [!7)@&:#')L%qGf!Z7rG.+P-F<i6j6a.sGtGuGvGwG",
"                                                                                                                                                                                                                                                                                                                            xGyGzG{G|G/%~%-AL(!F~EV;O..$;#}G~Gs$9!4!4!G L M%[!O%]!sE HN 4!R%S%a1M48![&!HjG#H8!S%T%T%R%N 1+,*,*1+H H N [&R%R%8!S%T%M4a1x4x47676v4v4v4v4868686Y7Y78686Y7F5Y7Y7)8)8)8F5F5F5F5F5F5F5F5F5F5F5F5F5F5F5F5F5F5F5F5F5F5F5F5F5F5F5F5F5F5F5F5F5F5F5F5F5F5F5F5F5F5F5F5F5F5F5F5F5F5F5F5F5F5F5F5F5F5F5F5F5F5F5F5F5F5F5F5F5F5F5F5F5F5F5F5F5F5F5F5F5F5F5F5F5F5F5F5F5F5F5F5F5F5F5F5F5F5F5F5F5F5F5F5F5)8F5F5F5F5F5F5F5F5F5F5F5F5F5)8)8F5F5F5F5F5F5F5F5F5F5F5F5F5F5)8)8F5Y786v4x4T%R%N R%v486M4T%x4w6w6V;y(!!x!)  #z!|,tC$H%H&#}%n$S#0%6!O!L%.%g n!;#D&4$c!X!Q%% ! y ^!$ * 1 1 5!Q!]!]!Q!]!y!:!z !!i )  #z!G%X!G#;#5$.%' S#:#=!| t#8$0$( C&7$:$w!q$0 <$y / ^!9!G * 1 0 ]!# W$W!Q#!!i ~ % M%-%b!+'V#{ R#5#n$T!p&p&N$L%l+Y+;#s#1$t!M!z e i !!M%0$p$[(N$J W P!)  #M!,'2$u($(0%?$j)% }! #;$M%j%E&0%$(T!H%~ }!% x! #X !(t#?(O#( .$f!+ ##z!o&w#- =!X$u!G#[!i }!) p8&H-AT!t*p&[ f!z!##Q-T+<)p#(/'Hx?/E(H)H*H",
"                                                                                                                                                                                                                                                                                                                            +H,H)9-H^&.Hp$]'C'?/w6O4# H%/H0HW 1Hj 4!N <$M $ 5!$ sE4!UGdFR%8!T%x4a18!4!H  ! !H H N 4!4!N N 4!4![&[&R%R%8!S%T%T%M4a1x47676O4v4v4868686868686Y7Y7Y7Y7Y7F5)8F5F5F5F5F5F5F5F5F5F5F5F5F5F5F5F5F5F5F5F5F5F5F5F5F5F5F5F5F5F5F5F5F5F5F5F5F5F5F5F5F5F5F5F5F5F5F5F5F5F5F5F5F5F5F5F5F5F5F5F5F5F5F5F5F5F5F5F5F5F5F5F5F5F5F5F5F5F5F5F5F5F5F5F5F5F5F5F5F5F5F5F5F5F5F5F5F5F5F5F5F5)8)8)8)8)8)8F5Y7Y7F5Y7Y7Y7Y78686Y7Y786Y7Y7Y7Y7F5F5Y7Y7)8)8)8)8)8F5F5F5F5F5F5F5)8F5Y7Y786v4x4M48!4!8!86Y7a18!R%H H  HbF2H0 M!:!1 ,*[&S%:!;!u!N$T!p#=$[ C&`!q&k%-%) ~ e z L 4#W$# ! ! ]!Q!1 * $ G / Y 1 ) 7#u'1%>$k } 7!8$t#S#T!N$O#0%.%g 3!7$X!Q%-%) ~ i ~ N#_!# Q!0 Q!5!1 5!1 G 9!^!/ 0 L O%H%S!<#w#U#9#=$g 0%Y!N$O#L%' n$O { 7$:$1%b!N%x!e X z N#e z M%0$X$A(6#9#3$P!~  #z j)9#A(?(S#D&u'l%+ }! # #}!A&Z!3)N$o$O%x!##% }!e 3%9##(a!7!>$P!;$z!z!s$;!2$6!A(:#;#2%!!}! #o&EGG#L%B(u(8$3H9+Z&) [!Q.4H|/a5$.nF C5H6H",
"                                                                                                                                                                                                                                                                                                                            7H8H9H:H;H;#L.@&<H.)(<O4''9.Q%7#q$0 N [&4!R%T%x47676M4R%[&[&[&R%S%T%T%R%N $H=H=H$HH N N 4![&[&R%8!S%S%T%T%T%M4M4a1a1x476v4v4(<{486Y7Y7Y7Y78686F5Y7Y7Y7Y7F5)8)8)8F5F5F5F5F5F5F5F5F5F5F5F5F5F5F5F5F5F5F5F5F5F5F5F5F5F5F5F5F5F5F5F5F5F5F5F5F5F5F5F5F5F5F5F5F5F5F5F5F5F5F5F5F5F5F5F5F5F5F5F5F5F5F5F5F5F5F5F5F5F5F5F5F5F5F5F5F5F5F5F5F5F5F5F5F5F5F5F5F5F5F5F5F5F5F5F5F5F5F5F5)8)8F5F5F5F5Y7Y7Y7868686v47676v4v476v4868686Y7Y7Y7Y7F5)8)8F5F5F5F5F5F5F5F5F5)8F5Y7Y7Y786x4M4S%[&8!v486x4S%4!N <$j*>H0 v#O%U!e ! y 8!V!P#U#6$#!4$3$K j)M%i V!* y 9!$ 1 5!0 ! r#! W$V!Q#:!L !!) }! #O%h(G#U#0$I n$N$p&')N$/%Z!J } >!h ;!w!b!;$_!1 y ^!9!^!9!$ 0 ]!0 # K%y!|!W!T#+ }!) -%q#P#{ f U#t#a!p&')6!Y!| u!M#& { w#P%H%,'2%s$R!y!4#:!T#L L T#M!% ;#=!#(O!u!G#b!N# #e j). O!A(6#7!>$-%+ }!}!~ Q#,'I &)a!?$Q%N%}!% z!~ [!6$=!X$u!G#[!i z!##N%<#D&S#B(?(n!j%;$z!}!M%3%P%.%u(2)t#U,9.## #H)?HnG>.~2-#@HwGAHN=",
"                                                                                                                                                                                                                                                                                                                            BHCHDHEHFHGH#-oGb2W'[;HH[&/ 1 5!IHN 8!S%T%T%M4a1x476768!N  !<$ !H N 4! HN N 4!4![&[&R%R%R%8!8!S%T%M4M4a1a1x4a1a1x476v4v48686{4Y:Y7Y7Y7Y7Y7Y7Y7)8F5F5F5F5F5F5F5F5F5F5F5F5F5F5F5F5F5F5F5F5F5F5F5F5F5F5F5F5F5F5F5F5F5F5F5F5F5F5F5F5F5F5F5F5F5F5F5F5F5F5F5F5F5F5F5F5F5F5F5F5F5F5F5F5F5F5F5F5F5F5F5F5F5F5F5F5F5F5F5F5F5F5F5F5F5F5F5F5F5F5F5F5F5F5F5F5)8)8)8)8)8)8)8)8)8)8F5Y7F5F5Y7Y7Y7Y78686v47676x4x4x4x4a1a1x4x4x47676v4868686Y7F5F5Y7Y7F5)8F5F5F5F5F5)8F5Y7Y7Y78676a1T%R%R%T%a1x4M48!764!f>rG<0o$~!& >!b!W!j 5!G%2% #L L T#:!4#y!u$r#]!Q!5!Q!Q!5!1 * G ^!]!;$U!j)H%$&w#A$6$J {!S#Y!O#Y!6#O#n$I I%4$.$f!) + ) ;$N#_!y!W$]!0 ]!0 5!* G 9!^!y 0+GGHG5El%r$k ( I%6$8$' O#6#a!6!Y!B&2$6$u#~!$&G%l%l%x!}!i N#e z _!v#Q#v#_!4#R!V!|!~ R#=!p$')#(/$!(T#+ i ,'#!0%p&=!Z!k N%) }!}!;$T#!(3!8*6!#!u'G%+ ##z!;$b!( a!8*:#;#2%!!}!x!% l%h({!$($(u!.$O%% ##z! #+'- $(u(A'P0c.9+##x!#=JH{!$(T@=,KH @j$",
"                                                                                                                                                                                                                                                                                                                            LHMHNHOHPHQHRHSHR+&!*<*4*4Y:BFTHBF76T%S%S%S%S%S%T%a1a1R%N  !<$ !H N N 4![&[&R%8!S%S%S%S%S%T%T%M4M4a1x4x4x4767676v4v48686Y7Y786Y7F5Y7Y7Y7Y7Y7Y7)8)8)8)8)8F5F5F5F5F5F5F5F5F5F5F5F5F5F5F5F5F5F5F5F5F5F5F5F5F5F5F5F5F5F5F5F5F5F5F5F5F5F5F5F5F5F5F5F5F5F5F5F5F5F5F5F5F5F5F5F5F5F5F5F5F5F5F5F5F5F5F5F5F5F5F5F5F5F5F5F5F5F5F5F5F5F5F5F5F5F5F5F5F5F5F5F5F5F5)8)8)8F5F5F5F5F5F5Y7Y786v4v486v476x4a1M4M4T%T%T%T%S%S%S%T%T%M4M4a1x4767686Y7Y7Y7Y7F5F5F5F5F5F5F5)8F5Y7Y7Y786v4x4M48!R%R%S%a1x44!W$) !(K s#0$=$v!| K  #$ y R!V!<$M44! !j M ^!G * 5!# o2lGR!L e }!## #N%r$%&C&>!0$.%T!N$6#6#| {![ U#6$D&, V#,%3%##]!Z M ^!^!9!$ 1 Q!0 ]!0 # K%R!T#i ;$~ -%q#X!r$1%A$B&O#' /%6#a!v!.%I ;#& w#Y$X!q#2%l%! 5!0 ]!# W$K%|!y!V!V!4#M!!!+ % -%-%j)O p&')t*Z(t#,%~  #~ J%7$5#6!8*T!f s$) }!}!) z ,'9$T!O!/$?$J%;$z!##) f!~!S#@(@(n!j%;$z!% }!M!,'2$u($(/%:$Q%t!## #z !(3!#(@(6#<!v3('mD9+O0UH2$u(w&VHZCWHj$",
"                                                                                                                                                                                                                                                                                                                            XHYHZH[H]H^H_H`H]:l=j=Y:O4V;V;{4Y:v4S%[&N H N N 4!4![&[&[&[&[&R%8!S%S%@!S%S%T%M4a1a1M4M4x4x4x4x4x476v47676v486868686Y7F5Y7Y7Y7F5)8)8)8)8)8)8)8F5F5F5F5F5F5F5F5F5F5F5F5F5F5F5F5F5F5F5F5F5F5F5F5F5F5F5F5F5F5F5F5F5F5F5F5F5F5F5F5F5F5F5F5F5F5F5F5F5F5F5F5F5F5F5F5F5F5F5F5F5F5F5F5F5F5F5F5F5F5F5F5F5F5F5F5F5F5F5F5F5F5F5F5F5F5F5F5F5F5F5F5F5)8)8)8F5Y7Y7F5F5Y78686Y786v4v4v4v476x4x4a1M4T%S%8![&4!N N H H  ! ! !H N 4!R%8!S%T%M4x4v486Y7Y7Y7Y7F5)8F5F5F5)8F5Y7Y786868676a1S%R%N [&a186/ $&0$- B&n$.%t#.%5$W P!# N y / j Z y $ 0 W$y!R!4#4#N#J%3%7#w!w#R#3!0$3!u!.%g {!p#n!7!9$>!;!$&Q%;$_!M!M!v#4#y!|!r#Q!* 1 Q!# W$y!R!_!Q#M!M!~ f!H%%&#!U#. 9#g n${!- Z!8$3!9$>!s#7$K 8#) X X L M!_!4#R!y!r#! W$|!V!Q#:!M!L N#i % [!-*N!k } ;#5#S#O!N$N$O!I u's$}!) N%,%C&/%&)u(5$U!) }!}!+ e q$3$9#6!T!6$2%N# #z!}!x!+'g B(u(n$V#[!M%z!z!!!j)J p$t*T!W#`!-%z!}!i 3%{ .%p$:#:4!#HG% ##e aHM#X$T'W#bH*+>,",
"                                                                                                                                                                                                                                                                                                                        cHdHeHfHgHhHiHjHkHlHmHnHoHI5G+BGVGEEBG8!R%[&[&[&[&[&R%R%8!S%S%S%S%T%M4a1a1M4a1x4a1a1x476x4x4v4v4v486868686v4v4Y7Y7Y7Y7Y7F5)8F5F5F5F5F5F5F5F5F5F5F5F5F5F5F5F5F5F5F5F5F5F5F5F5F5F5F5F5F5F5F5F5F5F5F5F5F5F5F5F5F5F5F5F5F5F5F5F5F5F5F5F5F5F5F5F5F5F5F5F5F5F5F5F5F5F5F5F5F5F5F5F5F5F5F5F5F5F5F5F5F5F5F5F5F5F5F5F5F5F5F5F5F5F5F5F5F5F5F5F5F5F5)8F5Y7Y7F5F5Y7Y78686v476767676x4x4a1M4T%S%8!R%[&4!H <$j y M M / / ^!^!^!M y Y Z  !N 4!R%S%a1x476v486Y7F5F5)8F5F5F5F5F5F5Y786v476x4T%R%N [&x4Y7Z 2%F%[ I & F%1%.$<#!(+ 1 N j j H R%H R!x!&(.$3$C&G#f @&t#B&v!N$6!Y!{!5$O k c!h(Q%N%+ ~ e z Q#y!]!5!Q!5!1 * * G ^!/ y Z * M!M%+'1%>$k } 7!8${!B&O#N$O#0%.%g 3!h P#H%N%+ ) ~ i !!L 4#r#! ! E%>&x$Q!5!* G ^!]!T#O%H%S!r$K I%9#=$g 0%Y!6#a!T!0%g 9#u#>$w!-)o& # #+ x!q$pHV:&)3)t#8#}!) + + ~ N%A&s#6!u(n!2%M!) % ## #P!/$8*?(S#D&<#G%+ z!i 3%I%' p&=!- k o&}!z!;$[!F%I a!8*p#j)e ##% ;$2%#!' =!/%D&O?CE",
"                                                                                                                                                                                                                                                                                                                    qHrHsHtHc8uHvH/=wHxHV8yHzH{H|HX;}Hg/~HVGVG[&R%R%8!S%8!8!S%S%T%M4a1M4M4a1x4x4x4x476767676v4v47676868686Y7Y7Y7Y78686F5Y7Y7Y7Y7F5)8)8)8)8F5F5F5F5F5F5F5F5F5F5F5F5F5F5F5F5F5F5F5F5F5F5F5F5F5F5F5F5F5F5F5F5F5F5F5F5F5F5F5F5F5F5F5F5F5F5F5F5F5F5F5F5F5F5F5F5F5F5F5F5F5F5F5F5F5F5F5F5F5F5F5F5F5F5F5F5F5F5F5F5F5F5F5F5F5F5F5F5F5F5F5F5F5F5F5F5F5F5F5F5F5Y7Y7Y7Y78686v476x4a1a1M4M4T%T%S%8!R%[&N H <$Z Y M 9!$ * 1 5!5!Q!Q!5!1 $ 9!/ y j <$H 4!S%M4x476v486Y7Y7)8F5F5F5F5)8)8F5Y7v476x4T%8!4!8!v4F5[&L b!o$`!-)b!x!##f!-%e r#^!Y G V!X }!v$1%h . 8$.%/%Y!(/Y!L%0%Z![ & w#4$Y$v$O%) _!1 M / 9!G $ * Q!0 Q!]!u$W!_!M!X ;$ #+ N%7#`!#!0$I n$N$p&')6!O#t#J } >!h ;!w!Q%N%T#1 M 9!$ * 1 5!0 ! ! 7 lG4#Q#:!T#N# #+ N%7#c!u#f D&R#L%p&')6!4+| u!9#U##!k W +'[!O%z!i N#;$) }! IP gGB(&)' 1$x!i ) ) ;$% b!V#N$2)u!q&% ####%  #o&R#6!A(6#7!>$P!;$z!;$J%7$5#6!#(Y!f o& ### #q$<##!v!?(/%,%+ % % + !#4$5#=!L0u3Q=O0",
"                                                                                                                                                                                                                                                                                                                !I#I$I%I&I'Ie8e8n>e9uH(I)I*87C*IxCG+}HN9N9@!S%S%S%S%T%M4T%T%M4a1M4a1x4a1a1x4767676v4v4v486868686v4v4Y7Y7Y7Y7Y7Y7Y7Y7Y7)8F5F5F5F5F5F5F5F5F5F5F5F5F5F5F5F5F5F5F5F5F5F5F5F5F5F5F5F5F5F5F5F5F5F5F5F5F5F5F5F5F5F5F5F5F5F5F5F5F5F5F5F5F5F5F5F5F5F5F5F5F5F5F5F5F5F5F5F5F5F5F5F5F5F5F5F5F5F5F5F5F5F5F5F5F5F5F5F5F5F5)8)8)8)8)8)8)8)8)8)8)8)8)8)8)8)8)8)8Y7Y7Y7Y78686v476x4M4T%S%S%8!8!R%[&4!H  !<$j Y M / 9!1 0 # ! r#W$u$K%K%u$r## 0 5!$ 9!M Y  ![&8!M4x476v48686F5)8)8F5F5)8F5Y7Y78676a1M4S%[&S%86F5S%y Q!y!R!|!! 5!|!l%O%x!e y!Y |!-*s#7!- n$v!T!T!N$6#S#n!k %&3$.$U! #+ ) ~ L _!V!K%# Q!5!1 1 $ 9!^!M Y 1 M!##[!j%1$C&A$6$J =$B&S#O#Y!6#O#n$I } k `!G%) + ) ;$N#M!R!K%# 0 ]!]!0 Q!1 * G / 0 GG+IU!k%,%K u##!6$8$' O#Y!L%L%Y!n$b%B'A*s<$&b!x!t!t!x! #~ i e N#e ~ e ) rE,I{!B(t*S#w#O%z ~ ) ;$;$~ H%v!u(v!{ q&o&+ z!}!s$I%' p&=!- k !#~ z!+ o&X!>!v!B(?(I o&+ % % x!t!X!{!$(T!1$o&t!##}!q$S!>!O!5-?%F;_)",
"                                                                                                                                                                                                                                                                                                              -I.I/Ig8g8f8n>0I1I2I3I4I5I6I<77I8I8I^$G+FFFFw6a1M4M4M4a1x4a1a1x476x476767676v4v47676868686Y7Y7Y7Y78686F5F5F5Y7Y7Y7Y7Y7Y7)8)8)8)8)8F5F5F5F5F5F5F5F5F5F5F5F5F5F5F5F5F5F5F5F5F5F5F5F5F5F5F5F5F5F5F5F5F5F5F5F5F5F5F5F5F5F5F5F5F5F5F5F5F5F5F5F5F5F5F5F5F5F5F5F5F5F5F5F5F5F5F5F5F5F5F5F5F5F5F5F5F5F5F5F5F5F5F5F5F5F5F5F5)8)8)8)8)8)8)8)8)8)8)8)8)8)8)8)8Y7Y78686v476x4a1T%8!R%[&4!N H  !<$Z Y y M ^!G * 5!0 r#K%y!V!R!4#_!v#v#_!V!y!K%W$# Q!* 9!Y  !4!8!T%a1x47686F5F5F5F5F5)8F5Y7Y78676a1M4S%[&8!v486M4T%T%M4M48!R%8!/ i s$M%N#u$<$4#V#2$:#a!v!/%Z!M#9$9$D&>$&(U!P!% r#/ G * * 1 5!0 ]!0 # K%y!y!M!!!;$+ ~ M%7#1$7$<!;#.%T!N$6#6!6#n$[ U#6$D&, V#r$&(N%]!j M ^!^!9!G * 5!0 ]!0 # |!_!L N#;$) -%q#1$>$, <!0$' ' /%6#a!v!g 3!R#} C&P%h(/?2%l%|!$ ]!r#K%W!R!v#M!:!T#z ~ x!J%P#t#?([(a!U#q$:!e ;$) e Q#!#g t*6#7!>$U!~ }!}!N%:$5#6!#(Y!f 2%e z!}!t!!#N!.%$(Z(t#!(z!% x! #L !(2$u(6!:$&(O%C'Z&3,,'Y$6#Z(.-A& #",
"                                                                                                                                                                                                                                                                                                          9I:I;I/I<Ig8g8e8=I>I?I@IAIBI<A<7CIDI|4|4EIAFx4x4x4x4a1x4767676x4x476v4v4v4v486868686v4v4Y7Y7Y7Y7Y7Y7Y7Y7Y7)8)8)8F5F5F5F5F5F5)8)8)8)8)8)8)8)8)8)8)8)8)8)8F5F5F5F5F5F5F5F5F5F5F5F5F5F5F5F5F5F5F5F5F5F5F5F5F5F5F5F5F5F5F5F5F5F5F5F5F5F5F5F5F5F5F5F5F5F5F5F5F5F5F5F5F5F5F5F5F5F5F5F5F5F5F5F5F5F5F5F5F5F5)8)8)8)8)8)8)8Y7Y7F5F5F5F5F5F5F5F5F5F5F5F5F5F5F5F5Y786v4v476x4a1T%R%4!N H <$Z Y y M / 9!$ * 5!]!! W$K%V!v#M!T#X z !!N#N#z L M!_!R!y!u$# 5!9!Y <$N R%T%a1x4v4Y7Y7Y7F5)8)8F5Y7Y7Y7v4x4a1T%R%R%T%M4M4R%[&R%8!8!S%M4<$v#O%z!0 N [&V!r$I%I 9$k 7$S!s$~ +  #i :!v#Q#4#u$uEFI! ]!1 * * G / Q!GGHGz!v$1%k D&>!f 2$.%L%Y!N$a!O#u!n!3!f P%G%;$ # #;$e T#M!R!# Q!0 0 5!* $ G 9!^!/ Y 1 :!-%8#1$;!{ 9$n!.%/%v!Y!N$T!{!I 3!9$C&o$q$+ }!+ i z T#L v#|!W$|!|!|!K%|!W!V!W!y!4#z!!#q&h 0%t*A(X$9#P!Q#!!~ ;$e :!P![ p&6!5#:$P!i  #}!t!h(>!v!B(?(2$k%X }!##z!+ +'Z!3)3)/%1$N%z!x!}!!!k%/$A(O!D&t;GIR/mDx!z!-*Y!3)0%%&j%",
"                                                                                                                                                                                                                                                                                                        HIIIg8g8g8g8=;d9JIKILIMI`:NIOI]:*I*I[:wCKD,G,G76767676*4O4v4v4v4v4v48686868686Y7Y7Y7Y78686F5F5F5Y7Y7Y7Y7Y7Y7)8)8)8)8)8)8)8)8)8)8)8)8)8)8)8)8)8)8)8)8)8F5F5F5F5F5F5F5F5F5F5F5F5F5F5F5F5F5F5F5F5F5F5F5F5F5F5F5F5F5F5F5F5F5F5F5F5F5F5F5F5F5F5F5F5F5F5F5F5F5F5F5F5F5F5F5F5F5F5F5F5F5F5F5F5F5F5F5F5F5F5F5F5F5F5)8)8F5F5F5Y7Y7Y7Y7Y7Y7Y7Y7Y7Y7Y7Y7Y7Y7Y7Y7Y7Y786v476x4a1M4S%R%N <$j Y M / 9!$ 1 5!0 # ! W$|!W!4#Q#T#N#i ) +  #}!z!z! #;$i !!X :!_!y!W$5!9!y <$N R%T%a17686Y7Y7F5F5)8F5Y7Y7Y7v476x4M48!R%[&8!M48! !/ 5!W$y!W!X P!S!j%!!1 Z # o&q&V#t$k%J%+ 1 H Y / 9!* 5!Q!0 ! FIuEPIR!T#!!e ~ ;$N%j%X!o$h J B&O#' /%O!:#/%g n!;#D&, >$w!q&G%0 <$Y / ^!9!G $ * Q!0 Q!]!u$V!:!z e ) }!z!G%j%c!s#. - B&S#:#:#S#' u!n!6$C&3$c!h(k%% # Y / G $ * 1 Q!]!! W$K%_!T#~ +  ###N%f!,'X!>${ 9#T!'):#N$5#P!_!z i ~ e T#f!} O!=!{!h J%N# #z!% !#P%.%$(q+u!H%~ z!x! #X !(3!8*?(O#4$q$ #% z!i !(U#N$:#5#7$T4QIRI##N#k%.%B(S#2+SI",
"                                                                                                                                                                                                                                                                                                        TIUIg8g8g8g8VIWIXIYIZI[I]Iz.^I_I{4{4{4{4v4xExEv4v4v4v4(<{486868686868686Y7Y7Y7Y7Y7Y7Y7Y7Y7)8)8)8F5F5F5F5F5F5)8)8)8)8)8)8)8F5F5F5F5F5F5F5F5F5F5F5F5F5F5Y7Y7F5)8)8)8)8)8)8F5F5F5F5F5F5F5F5F5F5F5F5F5F5F5F5F5F5F5F5F5F5F5F5F5F5F5F5F5F5F5F5F5F5F5F5F5F5F5F5F5F5F5F5F5F5F5F5F5F5F5F5F5F5F5F5F5F5F5F5)8)8F5Y7Y7F5F5Y7Y7Y7868686868686v4v4v4v4v486868686868686v476x4a1T%8![&N Z M ^!G * 5!0 # r#W$K%y!V!4#Q#L z e ) z!% t!-%N%N%O%O%-%l%% }!) e X Q#R!r#5!G y <$N R%T%x4v486Y7Y7Y7F5F5Y7Y7867676x4a1S%R%N [&a1a1Y 4#l%j)r$1$?$U#- [ Y$J%! Y ! 4#M!4#V!W!u$Q!* 5!Q!5!1 * 1 1 * G / x$+ q#.$`!3$h B'>-)+n$v!N$6!O#Z!8$- 3!:$q&j)M%;$i N#!!T#R!]!5!Q!5!1 * * * G ^!M j * M!M%7#u'N!h } 7!8$g ' O#N$Y!0%.%g 7!k P#X!Q%x!;$i N#X M!V!! 0 0 5!1 1 1 1 1 * $ Q!z o&-)<#X!`!G#. 5$B&v!N$O!p$6!n${!;#f!4#T#e i N#L o&<!N$#(6!R#!#T#) z!}!) -)- 2)%(.%o$O%x!x!z!e 3%( | #(a!<!J%) ####;$!#C&p#:#L%& P7(&`I% ;$!(/$8*6#. n-",
"                                                                                                                                                                                                                                                                                                      aIbIg8f8e8r=cIdIeIfIgIhI];iIjIkIY<Y:Y:86Y:Y:868686868686Y:Y7Y7Y7Y7Y7Y78686F5F5F5Y7Y7Y7Y7Y7Y7)8)8)8)8)8)8)8F5F5)8F5F5F5F5F5F5Y7Y7Y7Y7Y7Y7Y7Y7Y7Y7Y7Y7Y7Y7Y7Y7F5F5F5F5)8F5F5F5F5F5F5F5F5F5F5F5F5F5F5F5F5F5F5F5F5F5F5F5F5F5F5F5F5F5F5F5F5F5F5F5F5F5F5F5F5F5F5F5F5F5F5F5F5F5F5F5F5F5F5F5F5F5F5F5F5F5F5)8F5F5Y7Y7Y786v4v4867676x4x4x4x4a1a1a1a1a1x4x4x4x4767676x4a1M4S%R%4! !j / $ 5!]!! W$K%y!V!_!Q#M!T#z e ;$ ###t!O%o&f!U!P!J%b!b!P!f!s$-%x!}!;$N#L W!! Q!G y <$4!8!M47686Y7Y7Y7F5F5Y7Y7867676x4a1S%[&H 4!x4769!##t$C&W#7!p#N$[(Y!U#X!R!4! ! !N  !Z Y / $ 1 5!]!y!T#!!z N#+ ##)6lI}(u#W#M#2$B&L.~%c%S#' - M#D&, 7$7$`!b!i V!$ Y M ^!9!9!$ Q!0 Q!]!u$W!4#Q#T#;$ #+ N%7#`!G#U#9#B&6#')p&T!L%/%{!R#>!h ;!w!Q%N%;$4#9!^!9!G $ * 1 0 ]!]!K%V!_!M!T#N# #z!t!H%V#{ f ( . .%6!')a!O#S#.%/$9$G#~,b.l%_!T#N#e !!L O%s#Y![(t*2$8#N#) }!+ L !(O ?(u(/%;!7#M%x!##;$!#w#- =!X$;#!#~ ##% + U!P#R#O!p&u3:6mI@*x!+ ,'W#X$:#?%}%",
"                                                                                                                                                                                                                                                                                                    nIbIoIg8=;/=WIpIg;W9e@1?qI*8,<rI*<*<sIY<Y:Y:Y:tItIOEF5F5F5f=Y7Y7Y7Y7Y7Y7Y7Y7)8)8)8)8)8)8)8)8)8F5)8)8)8)8)8F5Y7Y7F5Y7Y7Y7Y78686v4v47676767676x4x4767676v4v4v4v4v4v486Y7F5Y7Y7F5)8)8)8F5F5F5F5F5F5F5F5F5F5F5F5F5F5F5F5F5F5F5F5F5F5F5F5F5F5F5F5F5F5F5F5F5F5F5F5F5F5F5F5F5F5F5F5F5F5F5F5F5F5F5F5)8)8)8)8F586868686v476x4x4a1T%T%S%S%8!8!R%R%R%R%R%8!8!S%S%T%T%T%S%8!R%4! !j M 9!5!! K%V!_!Q#:!X !!i ;$+ z!% t!N%o&f!P!!#,'2%j)k%Q%&(&(k%,'!#J%q$O%t!% + T#R!u$]!* / Z N R%a1v486Y7F5)8F5Y7Y7F586v4x4M4T%8!4!R%v4Y7$ f!W /$0%u!- p#p#3!>!r$W!4!j / $ 5!]!r#K%R!_!4#N#2%P#:$%&E&6$O Z!t#u!n$g I 9#O 3!U#h .$r$k%;$4#_!_!_!R!u$! ]!5!Q!# ! # r#W!_!v#_!N#G%&(t$1$:$U#/$5#n!{!.%n${!O O 9#R#s#1%r$q&Q%!!Q#Q#v#R!|!W$r## 5!1 Q!# W$|!V!_!v#T#G%&(t$1$N!, W#3![ Z!B&' u!I 9#2$O A$V#<#.$,%N%~ ;$;$~ L Q#:!L T#:!_!t!w#S#[(?(t#`!q$z!~ ;$z 3%A$S##(6!O 4$s$##% + P!P%0$T!t*t#v$~ z!% }!O%7#F%a!$(Z!+'M*% % }!b!h T!8*N$| ",
"                                                                                                                                                                                                                                                                                                  uIvIg8g8g8cIwIg<H>i>b;1?0<*=l=[<[<J5J5N4N4N4N4N4J5J5.>)8)8)8,>F5F5F5F5F5F5F5F5F5F5F5F5F5F5F5)8)8)8Y7Y7F5F5Y7Y78686867676x4x4a1M4T%T%T%S%S%S%S%8!8!S%S%S%T%T%M4M4a1x47676868686Y7Y7F5F5)8)8)8F5F5F5F5F5F5F5F5F5F5F5F5F5F5F5F5F5F5F5F5F5F5F5F5F5F5F5F5F5F5F5F5F5F5F5F5F5F5F5F5F5F5F5F5F5F5F5)8F5Y7Y7F5Y786v476x4a1M4T%S%8![&N H  !<$Z Z j j j j j Z <$ ! !H N 4!N H  !j M 9!1 ]!|!_!:!z e i ;$ #z!l%O%G%U!J%[!3%2%j)v$j%H%j%j%j%j%H%H%q#7#8#v$k%3%P!o&M% #z Q#y!! 1 ^!j H 8!a17686Y7Y7Y7Y7Y7Y78676x4a1M4S%[&8!86v4<$V!o&$&W X!v$J%2%j%u'j)r#[&<$5!i o&!#7#o$, #!<!f - S#N$6#a!6!Y!B&2$D&;!o$q$ #z!z!+ N#Q#_!W!]!5!Q!Q!1 $ 9!^!/ Y >HE+W>xIx!-*?$k { 9$n!.%0%v!6#O!Y!u!n!3!9$C&.$M%}!}!) N#M!_!v#V!]!0 0 5!* G 9!9!^!M Z $ Q#M%v$o$?$w#( n!.%' | Y!6#6!O#=$3!6$w#1$P!##l%t!##e !!N#X _!V!R!FEy!|!|!y!y!|!u$]!;$C&S#A(@(v!#!S!-%N#;$N#P!;!n!6!')v!A$o&z!x!z!-%!(>$B&u(Y!o$s$l%##% ## #+'O#$(S#<!h(q$z!% l%8#g &)8*p$",
"                                                                                                                                                                                                                                                                                                  yIzIg8{I|I}I~I J!J#J1?0<$J,@(='='=J5J5N4N4J5J5J5J5J5.>)8)8)8)8)8)8)8)8)8)8)8)8F5F5F5F5F5F5F5F5F5)8Y7Y7Y7Y78686v476x4M4M4T%T%S%8!R%[&4!N N N N H H N N 4![&[&R%8!S%T%M4M4x476v48686Y7Y7F5F5)8F5F5F5F5F5F5F5F5F5F5F5F5F5F5F5F5F5F5F5F5F5F5F5F5F5F5F5F5F5F5F5F5F5F5F5F5F5F5F5F5F5F5F5F5F5F5F5)8F5Y7Y7Y7867676x4M4S%8!R%[&N <$j Y y M / ^!9!9!9!^!^!/ M y y Y j Z Z j Y / G 1 # K%_!T#N#;$ #}!% t!N%G%b!,'j)Q%&(8#7#j%+'t$<#V#3$7$4$4$4$?$W w!r$q#v$!(J%G%l%;$z v#|!]!* / Z [&M4x4v486Y7Y7Y7Y7Y786v476x4a1S%[&8!7676R%M y!x!N%e v#V!V!e 3%J%4#/ Z # [!V#, <!;#.%S#B&0%6!S#t#8$3!;#& w#Y$-*2%x!! Y / ^!9!G $ * 1 5!Q!5!]!u$V!L z N#e M%GE%J&JK D&8$t#.%L%O!=!O#.%O . ( , >$`!h(k%z!$ Y / ^!9!$ * * 1 0 0 ]!u$V!M!X z e ) }!s$j%c!s#. 8$t#' :#=!v!n$u!8$0$( F%c!X!Q%% r#M $ 5!]!r#W$u$K%|!y!|!W!:!~ + ) z!-%s$o&H%U#6#A([(O#. P#s$z ~ e G%`!U#Y![(X$[ b!##x!% x!l%q&- &)a!:$&(O%z!x!}!z j)t#@(6#7!%&b! #x!}!G%n!?(8*')",
"                                                                                                                                                                                                                                                                                                'J(J)Jg8*J+J,J-JW9.Ja;b<`<*=D=D=C=C=j=.>F5F5F5F5F5F5F5F5F5F5F5F5F5F5F5F5F5F5F5F5F5F5F5F5F5)8F5Y7Y7F5Y7Y786v476x4a1M4T%8!R%[&4!N H  !<$Z j j Y Y Y Y j j Z <$<$ !N 4![&R%8!T%a1x476v48686Y7Y7F5)8)8F5F5F5F5F5F5F5F5F5F5F5F5F5F5F5F5F5F5F5F5F5F5F5F5)8)8)8)8)8)8)8F5F5F5F5F5F5F5F5F5F5F5F5)8)8F5F5Y7Y786v4x4M4T%8![&4!H <$j M ^!G $ 1 5!Q!0 0 0 Q!Q!5!1 * G 9!^!/ / ^!9!* Q!# K%R!:!N#;$z!l%-%o&U!b!,'Q%8#j%-)+'-*r$h(X!X!>$0$.%S#N$N$N$S#g W#P#-),%7#j)[!O%##~ T#4#u$Q!G y N S%a17686Y7F5Y7Y7F58686v476x4T%R%R%M4x4T%4!Y * 5!G ]!Q#$ ]!% f!##Q#/ W$.$=$N$T!N$a!S#- n!5#s#1$J%% x!## #~ z :!4#r#0 ]!0 Q!1 $ G 9!/ y Z * M!M%+'1%>$w#9$n!:7u!n$S#N$v!Z!8$- 9#G#1$O%z! #~ N#z L v#y!0 Q!Q!5!1 * * $ G / Y * M!M%8#u'1%>$>!7!8$g ' v!T!N$v!- Z!9#k `7>3F;-%) ~ !!X :!R!r#]!! r#r#! ! # 0 Q!1 * r###-)<#X!`!s#R#5#g 6#8*t*[(S#. P#O%X i e M%,%C&0%?(B({!j%x!##% z!;$7#5#A(O!( .$q$}!x!##i ,'9##(6!5#:$b!) ##z!q$9#')')')",
"                                                                                                                                                                                                                                                                                                /J0J1Jf8c93:2J4;3Ja;1<`<_<^<D=D=i=i=4J)8,>,>,>,>,>,>,>F5F5F5F5F5F5F5F5F5F5F5F5F5F5F5F5F5F5)8F5Y7Y7Y786v476x4a1T%S%8!R%N  !<$Z j Y y / ^!G G $ $ $ $ G G 9!/ M y j Z  !H 4!R%S%M4a1x476v48686Y7F5)8F5F5F5F5F5F5F5F5F5F5F5F5F5F5F5F5F5F5F5F5F5F5F5F5)8)8)8)8)8)8)8F5F5F5F5F5F5F5F5F5F5F5F5)8F5Y7Y786v476x4M4S%R%4!H Z Y M ^!* Q!]!# r#W$u$K%|!|!K%u$W$r#! ]!0 5!* * 1 5!]!r#K%R!M!N#) ##M%s$q$b!2%Q%7#-)A&q&X!S!<#o$1%Y$E&W#O#u(5J6J6J6J7JB(| } %&<#+'q#j)q$M%z!e M!W!! 1 ^! !8!M4x4v4Y7F5Y7Y7F5Y786v476x4M48!R%8!eFeF8J8!S%S%8!y K%^!0 % b!J% #$ ]!t$8$O#.%n!;##!E&:$N!8#% ! y ^!$ * 1 5!5!Q!]!# ]!# K%R!L L X ;$ #+ N%7#`!#!0$I n$T!=!=!O#/%u![ ( C&7$7$c!7###$ y / ^!^!^!9!G * Q!Q!]!u$V!_!Q#:!z + + N%7#`!G#U#0$I | p&p&T!L%0%Z![ & E&4$`!&(p-Q-X#x#y ^!9!G * 5!]!# ]!r#4#L X !!~ ##x!z!s$S!{ f & ;#t#6!8*')v!B&{!5#} 7$-*x!T#e e % h09J:J&)3)L%1$-%}!% z!N#!(. O!:#3!3$b! #x!% ;$!#6$=!X$g s#!#~ ##z!f!R#6#p$#(",
"                                                                                                                                                                                                                                                                                                ;J1J9:d88:3:/:5<#J1?0<+8^<l=(=j=.>.>j=.>F5F5F5F5F5F5F5F5F5F5F5F5F5F5F5F5F5F5F5F5F5)8)8)8)8F5F5Y7Y78676x4a1T%S%R%[&N  !j y M / 9!$ * 5!Q!]!]!# # # # ]!]!0 5!* $ 9!/ y Y Z H [&8!S%M4a1x476v486Y7F5)8)8)8)8F5F5F5F5F5F5F5)8)8)8)8)8)8)8)8)8)8)8)8)8F5F5F5F5F5F5F5)8)8)8)8)8)8)8)8)8)8)8)8F5Y78686v476x4M48!4!H Z Y / 9!* Q!! u$|!y!V!R!_!v#Q#M!Q#v#4#V!W!|!K%W$! # # ! u$y!4#:!z ;$l%O%f!P![!2%v$H%A&u'o$1$K `!c!`!>$& B&p$$(5J<J6J6J6J<J=Ju(X$8$?$t$+'q#3%G%t!+ z v#|!]!$ j [&S%a17686Y7F5F5F5Y786v4x4a1T%S%R%UGeFAF8!R%8!S%T%8!<$]!z !#q#k%l%Q!M ;$1%3$S!j)l%i e i e L R!W$# ! ! # ]!]!5!$ G ^!M Q!:!-%H%-*o$C&A$6$[ p#B&S#v!S#N$O#.%7!w#>$1%G%~ i i i !!M!W!]!0 0 ]!0 5!* G 9!/ Y 1 :!% U!j)j%1$u#6$J =$B&S#Y!O#Y!Y!B&/$h %&3$<#G%~ i ~ !!Q#V!|!7 0 Q!0 5!* $ G G 9!/ 0 ;$P!Q%-)1%h & #!6${!Y!T!| v!a!6#/%O w#7$w!j)O%M%##e z e N###>J^ AB?(B(S#4$G%) ##z!i ,'#!0%:#Z!h 3%) % % ) [!& a!8*:#;#2%!!}!z!o&>!n$O!8*",
"                                                                                                                                                                                                                                                                                                ?Jg8g8e9j:,J@JAJ-=1<BJ+8^<l=j=!:->->.>.>F5F5F5F5F5F5F5F5F5F5F5F5F5F5F5F5F5F5F5F5F5F5F5F5F5Y7Y786v476a1T%S%R%4!H <$j y ^!G * 5!0 # ! W$u$|!|!y!y!W!W!y!y!K%u$r## 0 5!* 9!/ Y <$H [&8!S%M4x4767686Y7F5F5)8)8F5F5F5F5F5F5F5F5F5)8)8)8)8)8F5F5F5F5F5F5Y7Y7Y7Y7Y7Y7Y7F5F5F5F5F5)8)8)8)8)8)8)8Y786v476x4a1T%8!4!Z Y / G 1 0 ! u$W!4#v#:!T#X !!N#e i e N#z T#L M!v#4#W!|!|!y!V!_!:!!!~ z!O%b!Q%-*K W :$7$>$P#c!V#P%>$?$4$u#p#u(6J6J6J6J6J6J6J6J6J6J6J');#?$.$-)Q%J%s$x!;$T#R!W$5!y N R%T%x486Y7F5F5F5Y786v4x4a1T%S%R%4!a1,GT%H 9!0 ! u$L J%A&P%?$V#Q%u$H ]!M%G%~ y!^!<$y / 9!1 0 ! r#! u$V!4#4#L e + }!) -%7#`!>!( ;#.%T!N$N$N$Y!.%J 6$6$D&, 1%k%f!t!0 Z M ^!/ ^!9!* 0 ]!]!0 # K%R!M!z i ~ M%7#1$>$, <!;#/%N$6#O!a!v!{![ U#A$C&w!Q%q$P!##]!Z / / ^!9!$ * 5!Q!Q!]!K%R!:!!!~ ) ) N%r$%&C&I%J B&O#' 0%6#S#u!9#. . f s#P%8#2%s$Q#W$W!v#:!X z L + +1>$t#t*t*Y!s#q$~ z!##) b!4$O :#T!6$j)~ ##x!}!q$:$v!?(?(8$q#;$z!}!N%?$9#T!A(",
"                                                                                                                                                                                                                                                                                                CJg8g80I%97<DJ.J1?a<+8*=l=j=.>.>j=.>F5F5F5F5F5F5F5F5F5F5F5F5F5F5F5F5F5F5F5F5F5F5)8Y7Y7Y7Y78686v476M4S%R%4!H Z Y M ^!* Q!]!! W$K%y!V!4#v#M!M!:!:!L L :!:!Q#v#4#V!y!u$! 0 5!G M Y <$N [&8!T%M4x4v486Y7Y7F5F5)8)8)8)8)8)8F5Y7Y7F5F5F5F5F5Y7Y7Y7Y7Y7Y786868686868686Y7Y7Y7Y7Y7F5F5F5F5F5F5F586v476x4a1T%R%4!<$M G 1 0 ! K%W!4#:!z N#~ ) + }!z!##% ##z!}!+ ;$i N#z M!v#_!_!Q#L !!;$z!M%q$Q%<#w#8$O#T!/%[ F%Y$?$7$4$w#& O p&5J6J6J6J6J6J6J6J6J6J6J6JZ(')5$3$-*q#3%q$-%z!e M!W!! 9!<$[&S%a1v486Y7F5F58686v476x4M4T%8![&x48676M !!f!k%X!h 9#- t#u!n!:$M!R%/ W$K%! 0 1 * 5!Q!1 * $ $ G 9!# z  #% 8#w!k ( I%9$n!B&O#6#a!6!O#t#5#9$G#V#G%;$ #+ ~ z v#4#V!]!5!Q!Q!1 $ G 9!9!^!/ Y 1 :!-%8#1$;!{ 9$n!.%0%| O#N$T!u!n!3!9$C&.$G%;$+ ;$!!Q#4#_!W!]!5!Q!1 $ G 9!G 9!/ y 9!:!-%7#$&?$k { 6$- /%S#6#6!O!O#{!I ;#w#1$P!##l%t!x!}!e e z v#R!v#Q#M!M!v#V!N#!#%&.%@(t*T!{ U!i }!## #f!u'I%O!B(n!Q%!!z!l%x!x!v${!$($(u!.$N%%  #l%q&{ L%@(",
"                                                                                                                                                                                                                                                                                                EJg8g8cIwD-J5<.J1?a<_<*=l=!:.>.>j=.>F5F5F5F5F5F5F5F5F5F5F5F5F5F5F5F5F5F5F5F5F5F5F5Y7Y78686v476x4M48![&H Z Y / G 1 Q!! K%y!V!4#Q#:!T#z N#i i ~ ;$) ) ;$~ e !!X L M!_!V!|!W$]!* 9!M j  !4!R%S%a176v48686Y7Y7F5F5F5F5F5F5F5Y7Y7Y7Y7Y7Y7Y786868686v4v476x4x4x4x47676v4v486v4v486Y7Y7Y7Y7Y7Y7v476x4a1S%R%N <$M $ Q!# u$W!_!M!X ~  ###l%M%-%O%s$s$s$O%O%N%M%t!x!z!+ e z X T#z e ) ##t!o&b!A&w#5$t*6J6JZ(v!( , k s#G#f 8$T!q+6J6J6J6J6J6J6J6J6J6J6J6J6J6J=!D&w!-*k%[!G%l%) X _!u$* j N 8!M47686Y7F5F5868686v4x4M4T%8!R%O4N4Y:y ;$j%F%0$L%p&#(=!N$/%h :!S%Y y y M 9!* 1 * Q!y!:!!!;$+ + O%H%S!o$h J B&O#' /%O!:#' 8$3!. ( C&P%h(8#O%]!Z y M / ^!G $ * Q!0 Q!]!u$V!M!X !!;$ #z!G%j%c!G#;#- .%L%:#=!v!n${!2$9$, >$`!h(k%z!0 <$y / ^!$ * $ * Q!0 0 u$V!M!T#L X ~  #-%j%c!G#;#5$t#.%| O!O#n$5$9#;#& w#?$1$Q%x!W$/ $ 5!]!! u$|!y!W!V!V!_!L i ##x!J%X!u#/%t*t*:#. b!N# #z!}!M%,'Y$6#q+.%q&% x!x!l% #o&2$&)$(0%?$j)t!;$}!P!c!u!B(",
"                                                                                                                                                                                                                                                                                              FJGJg8g8b9HJe;3Ja;1<`<^<l=l=k=.>.>j=.>F5F5F5F5F5F5F5F5F5F5F5F5F5F5F5F5F5F5F5F5)8F5Y7Y786v476x4M4S%R%H j M 9!1 0 ! u$W!_!L z N#i )  #z!% t!-%N%O%s$s$s$O%O%-%l%% }!+ ~ N#T#M!R!u$# 5!G / Y <$N 8!M4a1x476v486Y7Y7Y7Y786v4v4v4v4v4v4v47676x4x4a1M4T%T%S%8!8!S%S%S%S%T%T%a1x4x476v486868686v4x4a1T%8!4! !j / 1 r#|!R!M!z i ) z!M%o&f!P!b!!#3%3%3%3%3%3%!#[!J%U!G%O%l%z! #+ + }!% -%G%b!,'c!u!3)5J6J6JIJ&)n$O 9#/$n!B&8*q+IJ6J6J6J6J<J<J6J6J6J6J6J6J6J6J&)0%U#o$q#k%b!s$##i :!W!Q!M <$[&S%a1v486Y7F5F5Y786v476x4a1S%8!{4.>Y7R%1 G%A$n$2$[ . 9$A$A$c!T#j ^!5!]!! K%R!_!v#e 2%`!E&#!U#0$5#u!B&g t#g 5$3!f #!& h r$+ v#M!M!_!R!W!y!u$0 1 1 Q!# r#u$|!W!v#Q#v#N#G%j%`!4$s#W#/$- u!Z!{!t#g 5#} D&A$h 1%H%b2-%L _!4#R!W!K%r#Q!1 5!# r#K%|!y!V!v#Q#X G%j%c!3$Y$F%9$O Z!Z!{!t#g 8$7!9$( <!P#v$ #Q#:!:!M!v#4#W!K%! ]!# r#|!V!v#M!T#N#i e ##!#t$:$G#} 9#u!N$:#N$T!8$,'X ;$z!##}!~ j%| u(| k -*o& ### #G%0$=![(T!W#`!o&N#i L !(/$A(",
"                                                                                                                                                                                                                                                                                              FJGJf8e8JJDCKJ4<w5a<+8l=j=j=.>.>.>j=.>F5F5F5F5F5F5F5F5F5F5F5F5F5F5F5F5F5F5)8F5Y7Y7Y7v476x4M48![&H Z / * Q!! K%W!_!:!z ~ z!x!M%O%G%q$P!b!3%2%2%!(!(2%2%2%2%3%[!J%q$G%O%t!##+ e :!4#y!W$0 * 9!y  ![&8!T%M4a1x4767676x4x4x4x4a1a1M4M4T%S%S%8!R%[&4!N H  !<$<$ ! ! ! !H N [&8!S%T%M4a1x47676x4M4S%[&H Z M $ Q!W$4#L N#;$z!l%-%s$P!,'j)&(8#j%H%H%H%,%-)-),%j%8#k%2%[!q$s$N%M%M%-%s$f!J%!(Q%>$Y!6J6J6J6J6JIJ3)?(@(@(B(2)7J6J6J6J6J6JIJq+q+IJ6J6J6J6J6J6J6J7J2)0%V#-*j%!(U!N%z!N#v#r#G Y H R%T%x4v486F5F5Y78686v476a1T%S%a176v4v4a1r#&(q&% M!T#% 3%X!u'v$% ! ) b!8#.$E&} 7!8$t#S#T!T!N$6#O#.%7!~!%&<#G%;$~ i ~ N#4#]!5!Q!5!1 * 1 * 9!^!/ Y 1 M!##q$j)q&C&A$6$J =$B&S#Y!O#6#Y!B&/$h %&3$.$M%~ i ~ !!Q#V!o2(#>&]!0 1 $ G 9!^!/ G M!##q$j)j%1$C&A$;#=$B&S#Y!L%| N$T!=$h %&3$<#G%~ i i N#:!V!# Q!0 0 ]!0 5!* $ $ G / 0 X l%,'+'1%h 9$. 9#{!/%T!T!N$6!T!B&/$G#4$N!O%!!;$}!z!S,57Q%0%?(N$7!%&J%;$z!}!o&>!n$X$p$0%#![!X !!_!G%>!g ",
"                                                                                                                                                                                                                                                                                              FJGJf8e8JJDC4;4<w5LJ+8l=j=!:.>.>.>.>.>F5F5F5F5F5F5F5F5F5F5F5F5F5F5F5F5F5F5F5F5Y7Y78676a1T%8!4! !j / * # u$W!_!L !!~  #x!N%G%U!b!3%2%j)Q%8#q#j%j%j%q#7#q#q#8#&(k%2%!#J%f!O%M%z!i X Q#R!K%# 5!G Y  !4!R%8!S%T%M4M4M4T%T%T%T%S%S%8!R%[&N N H  !<$Z j Y y M M y y M y Y j <$H 4!R%8!S%T%M4M4T%8![&H Z M $ 0 r#R!X i  #% -%o&q$b!2%&(7#q#,%-*q&<#o$o$S!q&r$-*,%q#v$k%3%J%U!G%G%f!q$U![!Q%7#?$T!6J6J6J6J6J6J6J6J6J6J6J6J6J6J6J6J5J$(B(&)$(3)%(q+IJ6J6J6J6J6J6JO!4$h(-)Q%[!G%l%;$L K%* M <$[&S%a1v486F5F5F5Y786v476a1T%S%S%M47686Y7 !Q#L j x48!G Q#s$j)&(O%r#}!,%~!M#t#6#')')N$L%{!J 6$6$( C&`!2%P!z!]!j / 9!^!9!$ Q!0 Q!]!u$49GBW!L i ;$~ M%7#1$>$C&9$.%T!N$6#O!a!v!{!0$6$( C&`!Q%q$P!##* M ^!/ ^!9!$ Z$^)0 0 ]!u$V!Q#X i ;$##7#1$>$, <!;#.%T!6#O!6#| {!7!R#W#& %&Q%q$P!##]!Z M ^!^!G 1 0 # ]!0 Q!]!y!:!!!~ ) ) N%q#$&F%I%M#n$N$6#6#a!N$' /$0$M#U#{ >$-*k%3%}!e ;$SF85W>U$aH' t*6!Z!h [!i  #}!N%?$9#N$A(p$M#!#M!z v#O%~![ ",
"                                                                                                                                                                                                                                                                                              FJGJf8e8MJDCW9b;b<h>+8l=j=!:.>j=.>F5F5F5F5F5F5F5F5F5F5F5F5F5F5F5F5F5F5)8F5Y7Y7Y786v4a1T%R%N <$Y ^!* # y!_!L !!;$}!x!-%f!P![!,'j)&(8#j%,%A&r$q&q&q&r$t$r$r$A&,%j%7#&(j)3%P!G%O%% + e L _!y!r#Q!9!Y <$N 4![&R%8!8!8!R%R%[&[&4!N H  !<$j j Y y M ^!9!$ * 1 1 * * $ $ G ^!M Y Z  !N [&R%8!8!R%4! !j M $ 0 W$V!:!;$z!x!N%f!b!2%k%8#j%,%-)-*r$o$>$;!7$1%S!X!r$-*-),%j%&(2%!#J%J%b!b![!,'v$H%4$T!<J6J6J6J6J6J6J6J6J6J6J6J6J6J6J6J$(O#| #(t*X$O!#(J)6J6J6J6J6J6J')I%1$-*8#2%P!N%}!!!W!Q!^!Z 4!8!M47686F5F5Y7868686v4x4M4S%[&8!7686768!Y M  !4!N  !9!|!M!z _!* V!j)7!=!6!O#n$I #!F%.$f!+ z!z!+ e Q#_!W!# Q!0 Q!1 $ G G ^!y NJOJPJe l%-*?$k { 9$n!.%0%v!6#O!Y!u!n!3!9$C&.$M%}!}!) N#M!_!v#V!]!Q!5!1 $ G 9!^!^!/ Y * M!M%v$o$?$w#( n!.%0%v!Y!6#6!Y!- 3!9$, <#G%) }!}!i M!_!v#V!# 5!Q!Q!* G G $ G ^!M j * ) 8#1$?$k { 6$n!.%| 6#6!O!T!n$I U#<!W 3%M%s$o&N%l%}!+ + ~ i ~ ;$HGg0_!3%B&A(:#| & !#z )  #l%q&{ L%?(&)I [!V!T#_!-%?$W#",
"                                                                                                                                                                                                                                                                                              QJGJf8e8MJRJSJb;b<h>+8l=j=!:.>j=.>F5F5F5F5F5F5F5F5F5F5F5F5F5F5F5F5F5F5F5F5Y7Y786v4x4T%R%N <$y 9!1 ]!|!Q#X i  #x!-%o&U!3%j)&(7#j%,%+'t$q&S!<#.$.$1$1%1%1$<#S!r$A&+',%q#v$!(!#P!O%l%}!~ X v#W!W$5!^!y Z  !H N N N H  ! !<$<$Z j Y y M ^!9!G * 1 Q!0 # ! r#r#! ! # # ]!Q!* 9!/ y j <$H N 4!N  !j M $ 0 W$V!M!e ##M%s$U!!#!(&(H%S!V#%&7$;!, { U#[ 0$I%k w#, ;!3$c!<#,%&(j),'!#3%3%!#&(S!S!F%0%2)7J6J6J6J6J6J6J6J6J6J6J6J6J7Ju(X$' n$6#6#t#g 6#2)IJ<J6J6J6J6J@([ V#t$j%Q%!#o&% i 4#]!G Y H R%T%x486F5F5Y7868686v4x4M4S%4!R%v4Y7x4M4a1M48!N Z 9!! M!~ }!!!$ 1 l%k 5#R##!E&V#TJ3%### j M ^!9!G * * 1 0 0 5!0 W$V!L z N#e M%UJVJr$1%D&8$t#.%L%:#=!S#t#O . ( , >$`!h(k%z!$ y / ^!9!$ * * 1 0 5!0 W$V!M!X z xIS,z!G%j%c!s#. 8$t#' :#=!v!n$u!8$0$D&4$`!h(k%z!0 <$y / 9!* 1 * 1 5!Q!5!]!|!M!T#L X ;$}!z!G%S!s#;#5$t#.%| :#=!/%5$9#;#A$k >$u'j%U!W!1 # W$u$y!4#v#v#L X X N#+ }! #-)/%8*p&=![ 8#~ + + z!b!P#u!&)2){!H%N#z _!% o$~!",
"                                                                                                                                                                                                                                                                                              WJGJf8e8XJ6<AJ-=LJ_<*=l=j=!:.>j=.>F5F5F5F5F5F5F5F5F5F5F5F5F5F5F5F5)8F5Y7Y7Y786v476M4R%N <$y G 5!! |!v#!!;$##M%o&U!b!,'v$H%+'t$r$q&h(S!<#.$1$$&K N!~!;!V#$&o$S!h(r$t$t$-*H%8#2%U!s$M%##) !!M!V!! 1 G / y Y j j j Y y M / / ^!9!G $ * 5!0 ]!! r#u$K%y!W!R!4#R!V!V!W!y!K%! Q!1 G ^!M Y Z <$Z Y / $ 0 W$W!Q#z  #M%o&P!,'Q%8#q#q&4$J {!| 6#a!O!p&#('):#6!a!a!6#u!A$3$q&H%7#Q%j)!(2%!#-*w#W ;!I O!2)6J6J6J6J6J6J6J6J6J6J6J6JZ(| .%Y!T!' n!9$W#S#&)J)IJ6J6J6J6J2).%?$r$-)8#2%q$t!) Q#r#1 M <$[&S%a1v4Y7F5F5Y786v476x4a1T%[&8!Y7)876a1M4x4v4T%9!z U!+'$&V#j%# ^!W$N#}!+ ;$e z YJZJV!! Q!0 Q!5!* G G G 9!M j * M!M%+'1%>$w#9$n!67t#B&O#N$v!Z!8$Z!/$G#o$O%z! #;$e z L v#y!]!0 Q!5!1 * * $ G / Y * M!M%8#u'1%>$>!7!8$g ' v!T!N$v!- Z!9#k c!h(k%M%;$?!N#X M!V!# Q!0 Q!5!5!1 $ 9!^!M Y 1 ;$7#r$-*o$, f 7!8$.%xFN$6#v!Z!5$Z!/$3$J%##% ## #;$N#z :!W!K%y!W!W!V!4#4#V!W!W!y!:!% !#+'E&Y!#(8*?(u!1$O%z!) ) i q#5$&)u(B&>$3%e v#~ [!7#",
"                                                                                                                                                                                                                                                                                              [J]Jf8e8^J_J`J1?a<+8*=l=j=!:.>j=.>F5F5F5F5F5F5F5F5F5F5F5F5F5F5F5F5)8F5Y7Y786v476a1S%N <$y G Q!r#y!_!z + x!N%q$[!2%k%8#,%t$u'1%P%:$~!w#h s#u#{ <!A$[ J & { u#h w#C&:$w!S!t$-)8#2%b!f!O%l% #N#:!y!# Q!* G 9!^!^!^!9!$ 1 5!5!Q!0 ]!# ! u$|!y!W!R!_!Q#:!L X z X T#T#L M!v#V!K%r#]!5!$ 9!/ M M ^!$ 0 W$W!v#X ;$l%G%J%,'Q%q#r$w!;!J N$?(=J6J6J6J6J6J6J6J6J6J6J6JB(.%U#%&h(,%7#&(Q%j)2%X!A$D&#!R#g ?(6J6J6J6J6J6J6J6J6J6J6J7JA(8$5#B&' O 9$w#I%0%p$?(=J6J6J6J6J5J6#~!h(A&H%Q%b!N%}!L u$Q!^!j N S%a1v4Y7F5F5F5Y78676x4x4M4R%T%)8w486a1S%y R!!!N%t$?$I%;#9#4$|!M M <$H  !Z j Y&9!4(1 Q!0 Q!]!u$V!L L z )  #+ N%7#`!#!0$I n$T!X$X$Y!L%u![ ( C&7$7$`!8#z!$ y ^!9!9!^!9!G 1 0 0 # K%V!_!Q#:!z +  #O%q#`!G#U#0$I | p&p&T!L%0%Z![ & E&4$`!&(-%~ R!$ Y F+G $ * 1 0 ]!0 # O.|!W!M!!!)  #;$M%h(u#} #!W#u!6#')p&O#/%{![ & w#4$F%P#P!# Y / 9!* 5!Q!0 # u$K%K%W!Q#L L z }!s$q$U!j)X!>$<!/$6!p&')[(g `7?&##~ i _![!7!A(@(v!#!h(;$v#T#) ##",
"                                                                                                                                                                                                                                                                                                aJf8f8bJcJdJeJBJfJl=l=(=!:.>j=.>F5F5F5F5F5F5F5F5F5F5F5F5F5F5F5F5)8F5Y786v476x4T%[&<$y G Q!r#y!v#X + M%o&U!!#k%7#,%-*r$h(1%F%( O n$O#a!6!O!O!O!=!#(#(=!O!O!6!a!6#p#E&o$X!r$-*q#k%!#U!s$t! #e Q#y!W$# Q!5!1 1 5!0 # r#W$u$K%|!y!W!V!v#M!:!L X !!e ~ )  # #+ + ) ;$i N#T#_!V!|!W$# Q!* $ $ 1 0 W$W!v#X ;$##N%b!2%&(q#,%c!U#t#p$3)=JIJ6J6J6J6J6J6J6J6J6J6J6J=J?(N$;#`!-*,%q#v$Q%Q%h(D&g =$( . p&6J6J6J6J6J6J6J6J6J6J6J2)| 9#;#0$R#( u#, D&.%0%T!3)6J6J6J6J<J')C&S!q&+'8#3%G%x!z y!# $ Y H 8!M476Y7F5F5F5Y786v47676a18!M487M9)8x4[&L F%} ;#5$.%/%Y!X$R#4#M G 9!9!G G 9!G $ G 9!^!M y 5!M!M%H%-*o$C&A$6$J =$B&S#O#Y!6#Y!B&9#k >$1%G%~ i i i !!M!W!]!0 0 ]!0 5!* $ G ^!y 5!:!##q$j)H%$&{ 6$J =$B&S#Y!S#O#Y!B&/$h %&3$<#G%~ i ~ !!Q#V!|!r#Q!5!0 5!* $ G 9!^!y 0+RF5El%v$1%k D&>!f Z!O#Y!L%| N$T!' /$gJ3$.$f!;$~ ~ ;$e _!! 0 ]!# ! ! ]!0 5!5!1 * W$$ChJ}!s$u'{ R#J I u!| T!O!X$X$6!v!n%/+?&}!e e Q#P!} Y!')T!M#P#;$v#Q#v#v#",
"                                                                                                                                                                                                                                                                                                iJe8f8jJAJkJhIBJ-<l=l=j=!:.>j=.>F5F5F5F5F5F5F5F5F5F5F5F5F5F5F5F5)8F5Y7v476x4M48!H y G Q!r#y!v#z ;$t!f!b!2%&(j%-*r$.$>$E&>!M#{!O!B(J)<J6J6J6J6J6J6J6J6J6J6J6J6J<J#(7!u#w#:$.$A&H%Q%,'J%o&M%z!!!v#W!K%W$r#! r#W$K%y!V!R!_!v#M!:!L T#!!e i ;$+ }!% l%M%-%-%M%M%t!x!% z!;$!!L v#R!y!u$! ]!]!# W$W!v#T#i z!M%q$!(7#A&1$>$A$L%?(7J6J6J6J6J6J6J6J6J6J6J6J6J6J6J6J6J%(/%k 1%q&,%q#8#8#t$h N$O#>!D&=!6J6J6J6J6J6J6J6J6J6J6J?(8$0$6$<!w#~!;!~!& u!2$g ?(6J6J6J6J6J[(h <#u'r$q#!(U!M%e R!r#1 M <$[&T%x486F5F5F5F5Y786v476a1S%a1G5|8G586T%~ O O!:#=!O!T!Y!a!} W!/ * 1 * 9!lJmJnJK%Q#z ;$+ ;$M%8#`!<!( ;#.%T!N$6#6!6#n$[ U#6$( C&`!Q%q$t!0 Z M ^!/ ^!G 1 ]!]!]!0 # K%R!:!!!~ ~ -%q#1$>$, >!M#/%N$6#O!a!v!{![ U#} w#`!Q%q$P!##]!Z / / ^!9!$ * 5!Q!Q!]!K%R!:!!!i ;$~ -%-)r$1%h J B&O#' 0%6#v!g 3!R#W#& w#`!UH<HC'>&Z / 9!^!9!* ]!! # ]!0 ! |!4#z + }!}!o&oJpJS!c!f B&6#a!a!6!6#Y!n$7!0$U#I%%&2(qJ4*N#N#M!U!>!' =!6!Z!E&;$4#_!    ",
"                                                                                                                                                                                                                                                                                                rJb8e8sJa;tJuJ.<vJl=;A.>->.>j=.>F5F5F5F5F5F5F5F5F5F5F5F5F5F5F5)8F5Y786v4x4T%R%N Y * ]!|!_!L i z!M%U!2%v$H%A&u'1%Y$h 5$=!@(&)2)J)7J<J6J6J6J6J6J6J6J6J6J6J6J6J6J6J5Ju(t*[(L%k K X!A&j%k%!#U!O%}!e T#M!v#_!4#_!v#:!X !!N#i ;$+  #}!##l%M%-%O%o&f!U!J%[!!#!#[!b!J%P!U!f!N%%  #;$N#L v#R!W!y!W!4#M!z ) % -%f!2%H%o$~!0$S#@(Z(7J<J6J6J6J6J6J6J<J<J6J6J6J6J6J6J6J6JIJ&).%} w!,%H%H%j%H%N!O#6##!D&:#<J6J6J6J6J6J6J6J6J<J5J=!9$f & ~!Y$V#P%:$( {!} . p&6J6J6J6J6J@(#!c!$&X!,%k%[!s$;$v#K%0 9!j N S%a186Y7F5Y7Y7F5Y786v476M4M47686)8w487r#F%[ J U##!w#F%4$q&R!$ $ * 0 K%wJxJyJk%1%C&W#7!;#7!{!' .%p#8$n!3!9$>!k ?$-*;$_!M!M!Q#4#|!u$W$0 5!1 5!]!r#y!R!_!Q#M!M!~ f!H%`!E&A$R#3!g ' .%u!g - 5#6$I%s#7$K &() v#M!v#R!y!K%K%W$0 1 Q!# W$|!W!y!V!_!Q#!!f!H%`!E&#!U#. 9#u!g Z!{!- 8$3!9$>!E&K &(+ v#:!:!v#R!|!L4r#Q!* 1 Q!# W$y!V!4#Q#M!:!;$q$H%%&D&U#. 9#u!' u!Z!p#5$5#. #!~!W `!+'t!z!z!}!) ?!!!z X T#R!o&<!' 6!p&=!. z!V!V!    ",
"                                                                                                                                                                                                                                                                                                zJ{Jb8|J}J~J/;;6kIJ5h=D=;A!:F5F5F5F5F5F5F5F5F5F5F5F5F5F5F5)8)8F586v476x4T%R%H j G ! W!M!!!+ x!s$P!!(,%A&q&K 4$9$n$p$u(7J6J6J6J6J6J6J6J6J6J6J6J6J6J6J6J6J6J6J6J6J6J6J6J6Jq+| C&K <#q&-)8#2%b!s$% + ~ e N#e i i ;$ #z!x!t!M%O%G%q$J%[!!#3%,'2%j)Q%v$7#j%H%j%q#7#8#Q%!([!G%N%M%x! #~ !!T#:!L X e + l%O%q$[!q#`!>!B&@(J)6J6J6J6J6J6J6J6J6J<J5J5J<J6J6J6J6J6J6J6J6JIJ2)B&%&,%+'+'H%q#$&u!v!9$R#X$IJ<J6J6J6J6J6J6J6JJ)[(' <!C&;!P%w!K 1%c!<!B&h u#O!6J6J6J6J6Ju(3!C&V#u'A&7#!(U!z!T#V!! * y  !R%T%76Y7F5Y7Y7F5Y78686v4a1T%S%M4F5w4)88!r#v#M!Q#_!4#z N%k%v$W!y *  #W M#5$V:.%S#N$6!O#Z!8$- 9#%&p89+5* #Q-.+RFGGR!# Q!0 Q!5!1 * * G 9!/ Y * M!M%7#u'V#k } 7!8${!B&S#N$O#Z!5$Z!9#h V#S!&(l%;$i e z :!R!! Q!Q!5!1 5!1 G 9!^!M 9!M!M%7#r$-*o$, f 5#{!B&S#N$6#Y!/%n$n!s#N!X!Q%N%+ ) ~ !!M!W!# Q!0 Q!5!1 1 G ^!/ y Y 1 M!M%H%A&o$, f 7!8$g ' Y!6#S#{!=${!5#{ 1%q$M%M%x!## #) ;$N#v#_!_!4#_!v#v#_!R!K%5!##u#0%a!#(@(p#!#v#      ",
"                                                                                                                                                                                                                                                                                               K!K#K=I$K%K):&K'K[;*<J5C=C=->F5F5F5F5F5F5F5F5F5F5F5F5F5F5F5)8F5Y7v476x4T%R%N Z / Q!|!v#z + l%s$P!,'7#t$o$P%w#R#.%B(6J6J6J6J6J6J6J6J6J6J6J6J6J6J6J6J6J6J6J6J6J6J6J6J6J6J6J6Ju(9#w#N!.$h(-)v$2%P!N%l%##}! # #}!z!% t!-%s$G%U!b!3%2%k%&(v$8#7#q#j%H%-)+'A&t$A&-*+',%j%7#k%!#P!f!s$t!##+ ~ e e ~  #x!N%q$[!j)t$w#I A(6J6J6J6J6J<J=J%($($(%(q+Z(q+5J7JIJ<J6J6J6J6J6J6J6JT!7$,%-*+'H%j%o$3!{!. 7!6!2)7J6J6J6J6J6J6J6J$(Y!I s#?$Y$w!1$.$<#u'w#/%C&w#a!6J6J6J6J6J%(' R#?$<#r$H%Q%b!x!!!_!W$5!/ Z 4!S%76Y7F5Y7Y7F5F5Y786v4a1T%R%T%)8w486v4F58676a1T%S%y W!x!2%W!Y ^!t!f 6!p$=!v!0%Z!M##!, 7$:$`!U!x$,*y F+4%4%j*(KZ-0 ]!0 # K%V!_!Q#T#) }! #N%7#`!G#U#9#n$N$p&')6!O#/%Z!W#w#4$F%P#8#s$+ v#$ 9!G $ * 1 5!0 ]!]!K%y!|!W!Q#z ;$) z!8#c!u#} #!W#u!6#p$6!O#L%{![ f I%s#>$v$O%) _!1 M 9!G $ * 5!]!]!0 # K%y!y!Q#z ;$+ ~ M%7#c!>!#!W#u!6#')p&T!L%.%7!A$k F%;!V#j%l%0 * Q!]!! W$K%|!y!R!R!_!L )K1H!!) % O%t!,%. Y!:##(@(u!-):!      ",
"                                                                                                                                                                                                                                                                                      *K+K,K-K.K/Kz)<;0K1K2K3K4KY<tI5KN4N4,>F5F5F5F5F5F5F5F5F5F5F5F5F5F5F5)8F586v476a1S%4!<$M $ r#4#T#;$x!s$P!3%&(+'X!Y$A$p#a!B(=J6J6J6J6J6J6J6J6J6J6J6J6J6J6J6J6J6J6J6J6J6J6J6J6J6J6J6J6J5J8*g k 1%.$q&,%8#,'U!o&N%M%t!l%t!M%s$G%U!b!,'j)Q%8#q#H%-)-*A&t$r$r$t$t$r$X!S!X!q&t$-*-),%H%v$j)!#P!o&N%t!% }! #z!x!-%G%J%!(v$<#J T!3)6J6J6J6J6J7J?(X$S#S#X$[(&)2)Z(%(q+IJ6J6J6J6J6J6J6JT!:$H%+'+'H%j%u'>!M#J 2$/%p&Z(6J6J6J6J6J6J6J[(n!( ~!Y$`!1$S!q&A&-)7$/%k h 6!6J6J6J6J6J7J&)B&C&.$h(+'8#3%M%i M!|!]!G Y H 8!x486Y7F5F5F5Y78686v4x4T%R%M4G587Y7x4M4R%[&4!4![&4!Z ^!Q!G y <$i h u!u!9#;!>$u's$e e e e z 4#]!1 Q!0 ]!0 5!* G 9!^!y 5!:!##q$j)X!w#A$6$J =$B&S#Y!O#N$O#n$I f h 4$<#M%;$~ ;$e L _!V!K%! ! # ]!Q!* $ G 9!Z-GGHG5Ex!&(K k D&& n!' O#Y!L%| N$Y!- f s#F%o$q$+  # #~ L _!V!K%! # ! # 5!* $ $ 9!M 0+GGHGrG&(K k D&>!f n!' S#L%| N$T!' /$h %&w!f!;$;$;$) i L 4#W$r#u$K%|!K%W$r#! # Q!|!~ 6K7Ks$H%V#D&. 2$Y!')8*[(t*B&1$X       ",
"                                                                                                                                                                                                                                                                                8K9K:K;K<KOG'-m/1>+J[B=K>K&K9CSEY:tI5KN4N4,>F5F5F5F5F5F5F5F5F5F5F5F5F5F5F5)8F58676x4T%R% !y G Q!y!L i ##O%P!,'&(H%S!Y$>!{!p$Z(6J6J6J6J6J6J6J6J6J6J6J<J=J%(2)3)3)$($($(3)%(IJ6J6J6J6J6J6J6J6J6J8*9#w#P#u'r$,%Q%!#J%q$G%o&o&G%q$[!v$H%+'+'-)-)A&r$h(S!u'<#o$w!N!3$F%, k h k C&E&~!;!>$S!-)q#Q%2%b!U!G%O%t!l%M%O%f!P!,'v$-)P%.%?(=J6J6J6J6J5JB(p&a!| v!O!p&p$=!=!8*u(5J6J6J6J6J6JIJ2)B&%&,%-),%j%j%q&?$#!3!=$p#| u(6J6J6J6J6J6J6J');#, 7$P#$&u'q&+'j%8#W B&u#u#T!=JIJ6J6J6J6J6JO!u#o$u't$q#2%O%) T#V!! * y  !R%a186Y7F5F5F5Y786868676M48!T%)887Y7x48!R%H ^!5!# u$W!_!v#1 j H R!t$F%4$1%[!f! #5! !y / M / G Q!0 ]!]!0 # K%R!T#i ;$~ -%q#1$>$, 9$n$T!N$6#O!a!v!{!0$U#( E&V#r$v$!#z!1 ^!G 9!G 1 Q!0 # # # r#y!_!L !!~ ) % q#X!r$1%h J B&O#0%a!6!v!g 3!R#W#( :$q&v$3%### Y / G $ 1 5!0 # ! ! # ! W!L !!N#e i -%q#%J?Kh J B&O#' 0%a!6!B&3!R#W#& w#`!Q%q$-%# j ^!G 9!G * Q!! r#! r#K%R!M!N#) ##% q$+'<#@Kc!u#7!| a!N$O#L%' Z!/$>!H%:!      ",
"                                                                                                                                                                                                                                                                    AKBKCKDKEKFKGKHKIKJKKKLKMKNK>IOKPKQKRK'KSKX;{4Y:Y7F5.>,>F5F5F5F5F5F5F5F5F5F5F5F5F5)8)8F5Y78676M48!N j ^!1 ! 4#e z!-%q$3%&(,%t$w!} {!p&Z(7J6J6J6J6J6J6J6J6J6J6J6J5J?(=!6#N$T!Y!O#Y!T!=!Z(6J6J6J6J6J6J6J6J6Jq+8*Z!;!<#S!r$j%Q%!(3%b!P!J%!#,'v$K W 3$P%.$X!o$K 1%`!w!1%N!~!& O n$T!6!6!a!a!6#6#N$8$N!t$+'H%7#k%3%J%q$o&s$G%U!b!,'Q%q#h(k a!=JIJ6J6J6J6J$(O#6!#(@(&)B(p&0%8$9#L%#(q+6J6J6J6J6Jq+6#7!N!-)H%j%q#q#+'1$~!/$- [ 5$t*6J6J6J6J6J6J6Jp&R#~!3$w!.$h(A&H%7#&(V#{!D&#!0%?(=J6J6J6J6J6JO!u#$&.$h(H%j)G% #z 4#W$5!/ <$[&M4v486Y7F5Y7Y7Y786v476a1S%T%86F5Y776T%v44!K%;$s$v$1$F%4$:!N Z * 4#X T#M!y!y!u$Q!* 1 1 * $ 9!9!9!^!/ Y 1 :!-%t$?$w#u#9$n!.%/%S#N$6!Y!u!n!3!9$C&.$-%}! #;$N#T#M!v#W!# ]!]!0 5!1 1 5!1 G M 5!L N%7#1$3$w#I1n!)+t#' O#6#6!O#=$9#U#w#.$G%) }!~)TKT#M!Q#V!! 0 ]!]!0 1 1 5!1 * 9!M 5!+ q#<#w!%&h 6$n!u!n$O#6#6!O#{!I 9#U#Y$G%) }! #;$!!Q#_!R!# Q!0 0 5!1 * * 1 $ 9!M 0 X s$j%1%E&>!W#5$.%n$/%N$:#a!B&2$6${ E&1%!###z W!      ",
"                                                                                                                                                                                                                                                                UKVKWKXKYKZK[K]K^K_K`KaKbKcKdK05eKx5-@fKgKhK_-HHv486Y7N4N4F5F5F5F5F5F5F5F5F5F5F5F5F5F5)8)8F5Y7v4a1S%[&<$M $ ]!|!:! #M%f![!k%q#A&.$, g p&Z(6J6J6J6J6J6J6JIJq+3)u(u(2)$(A(6!N$T!T!Y!O#Y!T!:#$(%(B(u(5J6J6J6J6J6J6J6Jp$9$>$1%S!-*q#v$Q%j)2%2%k%q#$&#!0$M#9$C&%&N!V#P%W :$w#( [ g O!&)7J6J6J6J6J6J6J<J')& 3$`!X!+'q#&(2%!#J%P!b!3%!(Q%7#-)K R#[(6J6J6J6J7J2)p&B&6!A(t*A(=!/%5#6$6$L%[(J)6J6J6J6J6J2)g D&w!,%q#8#8#8#q#A&>$9#p#} J #(6J6J6J6J6J6J6Jp$U#4$>$K u'r$-)7#&(k%w!n!9$} p#6!2)6J6J6J6J6JO!<!1%1$S!-)Q%U!##e Q#K%0 9!j N T%7686Y7F5Y7Y7F5Y7v476a1S%T%768686v4R%Q!!!2%<#W u#J .%{!!#! G Y <$H N  !j y / G * * Q!r#W!:!z e ;$ #z!G%j%`!& 5$.%' S#:#=!O#' p#0$( C&%&c!X!Q%% * M / ^!9!G $ * 5!]!]!! |!_!T#!!z N#}!x!f!H%c!s#. 8$t#L%c%~%Y!0%t#8$0$D&F%c!h(k%z!Q! !Y / ^!G $ * 5!]!# ]!! V!T#!!z N# #% x!f!S!u#W#M#I .%O#=!=!v!t#8$0$D&C&3$c!h(G%Q! !Y M / 9!* 1 1 Q!0 Q!]!u$R!L X z + ##% q$,%P#G#;#- .%| :#X$N$0%p#/$U#h %&.$-)Q%-%y!$ ]!r#      ",
"                                                                                                                                                                                                                                                            iKjKkKlKmKnK6:F=oKpKqKrKsKtK#?M&_.uKvKwKxKyKzK]:RE|4O4{4Y:Y:Y:J5F5,>F5F5F5F5F5F5F5F5F5F5F5)8F5Y78676M48!H Y 9!5!W$R!N#x!s$J%!(q#-*q&P%7!p&Z(7J6J6J6J6J6J6J6Jq+#(6#v!S#6!p&@(&)u($(3)$($($(3)$(?(=!n$L%u(6J6J6J6J6J6J6JB(.%9$%&.$q&+',%H%q#8#v$8#S!& S#')#(6#- U#F%P%>$?${ =$N$p&?(%(5J<J6J6J6J6J6J6J6Jq+a!2$#!P#r$-*,%8#k%2%,'!(Q%8#j%-)A&Y${!3)6J6J6J6J3)6#' v!#(p$' n![ 6$D&D&3!p&J)IJ6J6J6J6J6Ju(3!~!.$H%v$Q%Q%Q%v$j%P#J I u#f X$6J6J6J6J6J6J6Jp$9$:$Y$$&X!-*j%v$k%j)o$[ ;#U#J t#?(6J6J6J6J6J:#I%c!1%.$A&8#b!l%;$L W!! * y  !S%x486Y7F5Y7Y7F5Y7v4x4a1T%T%x47676v4Y q#s#9#u!n$/%Y!:#v!:$J%u$Z y y Y j j Z Z j Z  !G v#t!+'1%>$k } 7!8${!B&O#N$O#/%n$u!9#s#V#,%O% #;$i e z :!R!]!0 Q!5!1 5!1 * $ 9!M Q!:!N%j%h(A&1$<!3!5${!B&S#N$6#Y!' u!9#s#V#S!&(-%;$e z L v#y!0 * 5!|(1 5!1 $ G 9!^!M Q!+ j%h(A&1$C&9$7!8$t#S#T!Y!v!/%B&t#9#4$S!&(-%;$i N#z L V!0 * 5!5!1 1 5!1 9!^!M Y 1 M!-%q#q&u'C&9$7!8$g ' S#N$Y!{!=${!5#{ K [!x!x!z!+ ~ N#X Q#|!r#r#P.      ",
"                                                                                                                                                                                                                                                            {K|K}K-2~K L!L#L$LS/-*{$=B@+J3B&Y!Q)R,c5b %L&L8CL3,4KDv486Y:Y:N4F5,>F5F5F5F5F5F5F5F5F5F5F5F5F5Y786x4S%[&<$M * # y!M!) N%U!,'v$-)X!1%k L%Z(6J6J6J6J6J6J<J=Ju([(X$N$v!S#6!')$(=J7J<J6J6J6J6J6J5JB(:#n$.%a!@(J)6J6J6J6J6JZ(p&p#E&$&<#r$A&A&-*+'-),%P#Z!3)6J6JZ(')B&0$( } 9$I X$q+IJ6J6J6J6J6J6J6J6J6J6J6J6JJ)=!p#u#N!.$t$,%q#v$&(v$7#H%+'t$r$7$Y!=J6J6J6J6J@(Z!O /%Y!n$7!A$<!{ D&R#.%$(6J6J6J6J6J6JIJ#(9$>$u',%&(!(j)j)k%8#w!0$/$, I%:#6J6J6J6J6J6J6JX$f %&V#o$q&-)7#Q%j)!(u'R#I [ ( [ #(6J6J6J6J6J#(7!C&P%.$r$j%3%-%+ X R!W$5!/ Z 8!x486Y7F5Y7Y7F5Y7v4x4a1M4T%M4a176Y7M N!8$N$X$N$L%n$u!I %&!#u$ !y G Q!! K%R!M!N#;$~ M%v$w!#!0$I n$N$p&')6!O#.%J } I%s#~!c!v$s$z 5!/ 9!G $ * 1 5!0 0 # K%y!|!V!:!N#+ ) -%7#c!u#f & ;#/%')')6!O#L%{!7!9${ ~!c!v$O%) _!$ j M / ^!9!$ 5!Q!5!]!'L_6W!M!!!+ }!) -%h(u#f & ;#t#6#')')N$L%g 3!9$#!s#~!c![!) 4#$ j M / / ^!G 5!Q!5!]!u$|!K%y!L ;$+ ~ M%7#c!u#} 9$t#a!')p&Y!L%/%{!R#w#4$F%P#q#x!! y G 1 Q!0 ]!0 ]!r#r## K%      ",
"                                                                                                                                                                                                                                                            (L)L*L+L/4b5,L$!7!{!B&t#u!)'c/-L?%A%.L&C`'/LO9 F0L1L2L76v486Y7Y7F5)8F5F5F5F5F5F5F5F5F5)8F5Y7Y786v4a1R% !y G ]!|!v#N#x!f!!#v$+'S!Y$>!8$?(IJ6J6J6J6J<J5J%(#(| O#t*%(%(Z(q+=JIJ<J<J<J<JIJIJ7J5Jq+3)u(&)O!n!5$p&q+<J6J6J6JIJ=Ja!& Y$w!.$u'u'u'S!h(r$F%X$IJ6J6JIJ=J%(&)@(?(?($(=J<J6J6J6J6J6J6J6J6J6J6J6J6J6J<J=Jt*L%J 4$1$S!t$-)+'+'+'A&h(<#1$s##(<J6J6JIJJ)=!7!6$I 6$>!u#{ #!. - T!u(IJ6J6J6J6J<J5J@(- w#P#u',%!([!!#!#3%Q%K ;#7!7$G#6!6J6J6J6J6J6J6JX$A$W c!<#t$j%&(!(,','-*>!/%g k <!O!<J6J6J6J6Jq+#(Z!E&.$h(+'!(o&##e Q#|!]!G j [&a1v486Y7F5F5F5F5Y7v476M4S%R%S%86G5j +'w#I%<!F%N!.$X!-*-%:!]!/ Y # z!2%r$c!;!6$9#/$n!{!.%u!I 9#O 3!W#<!?$w!-)+ v#Q#M!Q#_!W!|!u$! ]!0 # W$|!V!4#_!_!e f!2%!#7#w!w#;#0$7!Z!B&B&t#p#8$5#R#>!7$c!.$v$ #Q#M!M!_!y!u$W$# Q!1 1 ]!r#K%W!V!R!4#N#P!!#7#w!w#R#3!0$7!u!B&t#p#8$n!9#R#>!>$.$&(+ v#M!M!v#R!K%r## Q!1 * 5!]!r#|!V!R!R!!!n9>J4E8#%&R#7!;#[ Z!B&B&g 5#I /$R#s#w!q&h(&(N#v#v#v#4#y!W$# 0 Q!]!# W$|!V!_!v#v#X f!      ",
"                                                                                                                                                                                                                                                            3L4L5L6LAE<'c-6#Y!L%.%7L8Lb.*79LC'0C@,S0g/[:I5N9VGS%a1x476v486F5)8)8F5F5F5F5F5F5F5F5F5)8)8F5Y78676S%H Y 9!0 K%_!z  #s$3%&(,%.$3$f v!&)7J6J6J6J6J6JJ)[(a!L%p&$(=JIJ7J7J<J6J6J<JIJ7J=JZ(%(%(%(2)u(?(t*=!B&{!t#T!q+6J6J6J6J6JB(.%6$>$1%K K K $&1$.$h [(6J6J6J6J6J6J6J6J6J6J6J6J6J6J6J6J6J6J6J6J6J6J6J6J6J6J6J6J7JZ(6!0$E&c!<#S!S!S!X!S!.$P#~!J &)6J6J6J2)6!B&Z!O 6$<!s#w#I%7!B&8*q+IJ6J6J6J6J6JZ(')- ?$w!.$,%j)[!P!P!P!b!Q%K U#;#3$h 6!6J6J6J6J6J6J6J=!( P%w!S!A&q#k%2%!#J%j)%&N$6##!D&O!IJ<J6J6J6J<J7JN$s#.$S!A&j)q$t!;$L W!! * y N T%x486Y7F5F5F5F5Y7v476a1S%[&S%Y7G5N :L;Lz y!|!y!R!L x!3%!#t!T#Q!N#>$/$' O#N$6!Y!u!n!3!9$P%G%) }! #;$N#X :!_!! 0 ]!]!0 Q!5!1 1 * 9!M 5!L N%q#<#N!h 6$n!u!t#' O#6#N$g 2$9#U#k $&b!% %  #~ !!T#:!4#r#0 ]!0 5!1 * $ G ^!M ^!Q#t!8#u'1%>$w#9$@&t#B&v!N$6!Y!g 2$0$k $&b!% x!% }!;$z :!4#r#0 ]!]!5!1 * $ 9!^!y Z $ Q#t!-)K >$k l$J3:7u!B&Y!O!Y!{!I 9#U#w#.$M%}!}!) N#M!_!v#V!0 Q!Q!* $ G G $ G y j * M!M%7#<#w!%&#!J3      ",
"                                                                                                                                                                                                                                                            <L=L>L?L@LX02C8=+!E<a)ALBLp8w.>/CL_I*;EFDF^$KDDL4!8!M4x476v4v4Y7F5F5F5F5F5F5F5F5F5F5F5)8)8F5Y7v4a18!<$M 1 r#V!:!~ % q$j)q#-*c!I%- @(6J6J6J6J6J<J5J&)N$B&| &)7J5JJ)%($(B([(p&=!6!N$O#| L%| | | | v!O#T!6#/%/$5$3)6J6J6J6J6JZ(p$p#4$c!c!`!`!`!w!K u#t*6J6J6J6J6J6J6J6J6J6J6J6J6J6J6J6JIJJ)%(%(Z(q+J)5J<J6J6J6J6J6J&)' W#?$$&1$o$o$o$1$$&%&A$g 2)6J6J6Ju(L%- g n!( <!D&6$/$' p$Z(6J6J6J6J6J=J&)O!{!9$P#$&S!&([!P!q$q$q$P!j)o$A$U#3$s#N$5J<J6J6J6J6J6J=!D&N!1%S!-*7#j)3%b!U![!1%N$#(J R#| @(J)6J6J6J6J6Jp$9$Y$o$A&k%P!-%+ X R!W$5!/ H T%x486Y7F5F5F5F5Y7v476x4T%R%S%86)8BGELFLbFv4T%4!Z G v#b!,'x!M!1 i ~!p#B&g 2$. #!E&>$`!h(G%0 <$y / ^!9!$ * 1 0 ]!]!! |!_!X !!!!+ ##% f!H%c!u#W#9#.%O#=!=!T!/%t#8$6$w#?$V#u'v$l%r#y 9!* 1 5!5!5!Q!# # # |!V!_!Q#:!z ;$ #l%7#`!G#U#0$I n$T!c%Y!L%' - J ( w#?$$&v$l%r#y ^!$ * 1 5!5!Q!0 ]!0 # K%V!v#M!X ;$ #+ N%7#`!I%0$O t#O#=!X$Y!0%- M#& w#3$c!h(k%z!$ Y / ^!G * 1 * 1 5!5!0 W$y!R!_!Q#T#~ ) N%7#`!G#U#M#O n$:#      ",
"                                                                                                                                                                                                                                                              GLHLILJL@Lf0WH/0=*R=1(V%K4f/s6S.KLLLQGVG@!V;BGVG8!T%a1KDJDML86Y7Y7F5)8F5F5F5F5F5F5F5)8F5Y78676M4[&j 9!0 K%v#!!}!-%J%8#-)t$%&5#O!2)6J6J6J6J6J5J3)=!Z!Z!8*2)Z(%(u(A(a!n$n!. & >!s#C&~!;!, C&w#>!6$/$.%=!v!A$U#B(6J6J6J6J6J7JZ(O#~!V#N!V#P#V#V#P#>!t*6J6J6J6J6J6J6J6J6J6J6J6J6J6J6J6J=JA(O!O!X$')A(&)=J6J6J6J6J6J=J&)' k 1%w!1%K 1%1%w!E&2$O!J)6J6J6J&)/%8$I [ ( <!. 0%')B(Z(7J6J6J6J6J6J&)' M#u#C&h P%h(!(U!q$f!G%G%P!j)u'<!A$7$u#| 3)IJ6J6J6J6J6J=!D&V#K X!+'8#!(!#J%q$U!h(S#B(.%5#O n$B(6J6J6J6J6J@(Z!#!P#A&v$J%O%z!!!_!u$Q!^! !S%a1v486Y7F5Y7Y7Y7v4*4V;G+8!T%86Y7M4s5e3NLOLm%H N 4!y :!T#Q!Z H 4#h(~!>$q&2%% N#!!z X L R!]!1 Q!Q!5!5!Q!5!$ 9!^!/ 0 L N%q#h(<#C&9$3!5${!' O#T!S#/%B&t#/$G#N!S!&(x!) ~ e z L 4#r#]!# r#! ]!Q!1 * $ G * L % q$j)H%$&C&& ;#p#B&S#Y!O#Y!6#4+?%k >$%&<#G%;$~ i !!:!R!r#]!# ! ! # 0 1 * $ 9!M Q!:!##[!j%1$C&A$U#[ p#B&O#O#| 0%n$u!9#s#V#-)-%;$i N#z L v#y!Q!5!Q!0 0 Q!5!$ 9!/ j $ Q#z!f!!(j%o$G#6$[ p#B&S#T!Y!/%-         ",
"                                                                                                                                                                                                                                                            PLQLRLSL)2ODY3C*<7g3TLBEUL.).).)B*.)KLtCNL@!w6';8!R%8!M4KDJDML86Y7Y7F5)8F5F5F5F5F5F5F5F5F5Y786x4T%N y * ! W!L ~ x!s$3%H%q&1$h 0%u(5J6J6J6J6J6J2)6!B&Z!0%&)B(')a!L%Z!3!( , N!.$h(A&-)j%j%-)+'t$1%?$s#R#g p#D&9$p&7J6J6J6J6J6J6J:#C&P%Y$P%P%Y$Y$N!#!@(6J6J6J6J6J6J6J6J6J6J6J6J<J7Jq+&)A(p$O!O!X$p&')A(@($(IJ6J6J6J6J6Jp&W#7$P%c!c!P#P#c!s#' B(7J6J6J6J3)6#u!I [ 0$[ g [(7J<J6J6J6J6J6Jq+8*L%7!& <!#!} N!-)[!o&o&o&s$s$U!2%r$F%u#E&D&t##(=J6J6J6J6J6J=!D&V#K h(-)v$2%[!P!f!f!A&' B(6!{!6$[ #(6J6J6J6J6J%(:#5#>$-*v$J%O%z!e Q#K%0 9! !S%a1v486Y7F5Y7Y7Y7v4*4V;G+8!S%a176x4w6EEM $ $ 5!W$y!L G%s$Q#1  !Q!-%j)G%e |!y N j y M / $ Q!0 Q!# K%y!|!V!X + }!) -%q#c!u#f W#t#6#')#(O!Y!L%{!;##!G#E&P#8#s$+ _!G ^!G $ * 1 Q!# ! # ]!! |!4#L N#;$+ x!q#1$>$, I%M#n$T!N$6#T!| {!7!W#U#( %&Q%q$U!z!]!j / G $ * 5!# r#! # ]!! W!L N#~ ) ;$-%q#1$7$<!0$.%N$6#6#6#T!n$7!f I%h ~!c!v$O%T#G j M / / ^!9!$ 5!0 Q!5!0 u$R!M!z i i t!8#o$W E&G#R#0%N$6#N$O#/%{!7!& E&        ",
"                                                                                                                                                                                                                                                      VLWLXLYLZL[L]L Cc.d5L2.0B*hD_$S..) -I&tCBGw6V;^LT%a1*4V;8!R%T%x476v4Y7Y7Y7F5)8F5F5F5F5F5)8F5Y7Y786v4a1S% !^!Q!u$4#z  #-%U!j)+'1$:$R#:#5J<J6J6J6J6J6JA(5#7!T!@(@(O!.%. s#?$c!<#-*Q%!#J%U!q$f!q$U!J%2%A&<#1$V#;!>!R#I O#%(6J6J6J6J6J6J=!k W W Y$Y$%&>$N!I%@(6J6J6J6J6J6J6J6J6J6J6J6J7J2)')' B&8*3)2)3)u(&)')| Y!q+6J6J6J6J6J?(t#6$:$P%P%Y$P%V#<!Y!q+<J6J6J6J5Ju(:#g n!t#:#?(J)<J6J6J6J6J6J6J8*3!#!& J B&/%R#<#!(U!s$s$s$O%s$U!,'H%1%4${ W#n!S#Z(6J6J6J6J6J:##!P#$&r$H%Q%,'b!U!G%f!-*p#A(t*| I%& =!6J6J6J6J6J7J2)' :$-)v$J%N%##i M!|!]!G <$8!M47686Y7F5F5Y786v476x4M4S%8!R%S%x4V;_L`LaLbL) !(<#E&0$f P#P!# Z ]!K%r#]!5!9!9!* 1 * $ 9!G 9!M 0+GGHG5El%r$k ( I%6$8$' O#6#a!O!T!B&2$6$u#~!1$N% #+ ) e :!4#W!u$]!]!0 Q!1 * $ * $ 9!y 5!L N%7#1$?$k & n!.%/%S#6#6!O!Y!p#6$u#;!.$f!) }!}!i M!4#_!W!# Q!0 0 5!$ $ * * G ^!y 5!+ 7#1$?$k { 6$n!.%L%N$6!O!Y!t#O 6$u#V#f!;$) ;$~ !!Q#R!u$Q!1 5!5!* G 9!^!^!/ y Z $ Q#M%8#1$F%u#9$n!.%/%L%/%| Y!.%O f s#F%<#o&i e         ",
"                                                                                                                                                                                                                                                cLdLeLfLgLhLiLjLkLlL)*2-J4,3mLB*''0 L4^+M!O057r'?!O0nLY&(;86O4S%R%T%x476v486Y7Y7F5)8F5F5F5F5F5)8F5Y786v4x4T%R%Z G ]!|!Q#e ##s$[!v$t$P##!- @(6J6J6J6J6J=J?(S#M#3!p&3)T!2$A$%&S!q#2%!#P!O%l%x!% ##% x!l%t!G%Q%j%q#,%q&>$. n!=$@(6J6J6J6J6J6Jp$>!3$%&>$>$%&?$:$} 8*IJ6J6J6J6J6J6J6J6J6JIJq+&)')N$.%0%@(J)q+2)u(B(=!{!.%$(<J6J6J6J6JZ(p$p#~!>$%&%&%&>$& O!IJ6J6J6J6J<J7J&)N$| =!q+6J6J6J6J6J6JIJ3)p$.%} >!M#g 6!O#>!,%J%f!s$O%N%N%O%q$!#&(t$P%& J 0$- 3)6J6J6J6J6JX$f W $&t$j%Q%,'J%q$o&G%,%. Y!&)O!& ( T!Z(IJ6J6J6J6J6Ja!w#r$v$P!N%##i M!y!]!G <$8!M47686Y7F5)8F58686v4,GeFS%R%N [&x486G oLO/H%.$w#;#B&p$v!6$h(V![&H  ! !Y M ^!9!G 1 r#W!L !!e i -%q#%Jr$1%A$B&O#' L%:#=!S#.%2$0$A$w#Y$X!q#!(l%5!/ 9!G $ * 1 5!Q!0 Q!]!u$R!:!z N#~  ###f!H%P#G#;#5$t#0%:#=!Y!B&5$9#;#& 4$S!q#2%% # j M / 9!* 1 * 1 Q!0 Q!]!y!:!X T#z ) z!##f!S!G#;#5$t#.%| :#=!/%5$9#;#( C&P%h(7#s$]!Z y / / ^!$ * 1 5!5!1 0 W$W!Q#T#!!;$ #}!o&q#`!G#;#- .%/%6#a!S#u!7!W#} C&N!q&v$!#}!5! !y         ",
"                                                                                                                                                                                                                                  pLqLrLsLtLuLvLtLwLxLyLzL{L|L}LYEB#)*K4w0q5T:K4O0N%7#P%E&{ ~L Mu!0$h() N N4v48![&S%a1x476v4Y7F5)8)8F5F5F5F5F5)8)8F5Y7v4a1S%4!Y 5!W$_!z + M%P!j)H%q&7$=$')Z(6J6J6J6J6J[(8$7!.%Y!6!/%& 1%+'v$!#s$l%x!% z!+ ) ;$~ ;$) + }!l%G%J%,'&(,%w!D&9$#!X$6J6J6J6J6J6Jt*7!~!>$>$>$>$;!#!7!S#%(6J6J6J6J6J6J6J6JIJ3)=!S#L%Y!8*u(u([(p$6!6#a!Y!.%B&p&J)6J6J6J6JIJ=Ja!{ :$:$7$;!w#M#')<J6J6J6J6J6J<J7Jq+Z(J)<J6J6J6J6J7J%([(0%R#W#=$L%6#v!2$I%h(3%P!U!f!s$N%-%N%G%[!!(8#`!. 9#u#9$?(6J6J6J6J6J[(n!{ 1%-*j%&(,'P!G%s$s$2%N!. p&t*p#7!=$S#Z(6J6J6J6J6J')0$%&7#q$-%z!i M!|!]!G <$8!M47686Y7F5)8)8F586v476x4M48!N [&v4G5]!A&[G5$' .%t#t#.%I <!A&y![&Z ^!5!]!W$W!R!4#N#G%j%Y$, >!R#O u!B&g {!t#=$3!f D&A$G#P#7#+ z z X L Q#4#V!|!]!Q!]!r#u$K%y!W!R!Q#Q#e G%j%c!F%C&I%[ - g {!g .%g 8$7!} } u#V#7#z!:!L L Q#R!W!|!W$0 5!5!0 ! r#u$y!R!v#Q#_!N#2%P#?$W ;!6$O - g {!.%g 8$[ f D&A$s#q& #Q#:!:!v#4#W!|!W$Q!1 5!Q!# ! ! W$W!v#v#4#!!o&q#w!7$s#W#/$p#g {!{!g - /$f >!s#7$K Q%i V!_!4#V!|!u$W$# 1 $ 1         ",
"                                                                                                                                                                                                                  !M  #M$M%M&M&M'M(M)M*M+M,M-M.M]L/M0M1M2Mz;3M]D92*$f(4M5Mj#f 6M7M&/t#v!N$6#N$6!p$.%, 3%j Y7x4[&4!8!T%M4x486Y7F5)8)8F5F5F5F5F5)8F5Y78676M48!H / # W!L ~ x!o&!#&(A&S!w#Y!5J<J6J6J6J6J6Jp$U#f T!:#5#G#o$[!N%t!%  #;$e !!X L :!M!Q#M!:!T#!!) l%s$U!,'q#o$~!w#C&O!6J6J6J6J6J6J%(/%s#W >$%&>$;!& W#7!A(6J6J6J6J6J6J6JIJ3)')L%L%')u($(&)8*Y!' t#g u!' 6#L%O A(6J6J6J6J6J6JA(;#C&F%F%C&>!5#8*<J6J6J6J6J6J6J6J6J6J6J6J6J6J6J6JB(n$9#[ B&:#B(p$n!I%W h(Q%!#b!J%U!G%o&s$o&U!!#2%k%K J 9#3$C&A(6J6J6J6J6J2)a!9#`!+'q#Q%3%U!o&O%N%o&!(%&Y!q+#(u!I%9$?(6J6J6J6J6J$(S#U#j%G%-%z!e Q#|!]!$ Z 8!M47686Y7F5)8)8F586v476x4a1S%4!R%v486j X ,%6$2$#!3$S!-*+'-)f!]![&H r#b!j%<#~!A$J n!{!B&S#S#O#6#Y!n$3!k %&w!q$+ ) ;$) i X _!u$W$W$u$W$! ]!5!1 G / Q!L % q$!(j%1$u#6$J =$B&S#Y!O#Y!T!' /$h 3$?$o$q$) ;$) i L R!W$]!# # # ]!Q!* $ G 9!M 0+RF5Ex!&(K k D&>!f Z!O#Y!L%| N$T!' /$, ?$.$f!;$~ ~ ~ N#_!# Q!0 0 ]!0 5!* G 9!/ Y 5!L ;$e x!t$k D&>!f n!B&S#Y!O#6#Y!B&/$G#N!S!&(% i N#X :!_!|!Q!$ * 5!1 $ G 9!^!/ M           ",
"                                                                                                                                                                                                              8M9M:M;M<M=M>M?M@MAMBMCMDMND7(EMFM[C;/h 6$O$@'N$9#>9**U6t;;#L%X$=!=!X$:#O#B&5$R#A$} w#S!-%Z v4a14!N 8!T%M4x486Y7Y7F5F5F5F5F5F5F5)8F5Y786x4T%[&<$9!r#R!X + M%U!,'8#h(w!#!:#6J6J6J6J6J7J&)O#. R#| B&{ 1%&(-%}!+ ;$e X :!v#R!V!W!y!y!W!V!4#Q#N#z!M%G%!#8#h(P%3$w#:#6J6J6J6J6J6J5JO!<!Y$>$%&>$~!} 6$f p&6J6J6J6J6J6J6J=Jp$S#' O#@(B(:#v!u!/$0$R#U#W#O Y!' 9$X$6J6J6J6J6J6J&)=$u#;!~!h & n!p&=J<J6J6J6J6J6J6J6J6J6J6J6J6JJ)t*O#I 0$8$#(u(p&u!>!P#r$7#j)2%3%b!P!q$f!G%G%U!!#2%!($&7!5#Y$F%8*6J6J6J6J6JJ)[(Z!c!-)7#!([!q$s$-%t!t!G%1$g &)u(| k G#8*<J6J6J6J6J2)a!;#7#s$t! #N#v#K%]!$ Z 8!M47686Y7F5)8)8F586v476x4a1S%[&R%76x4[&/ !!h(P#H%U!+ ;$x!P!N%R!9! !|!o$<!0$u!N$p&')6!Y!.%[ U#U#( C&`!&(U!-%r#M 9!$ $ * Q!# u$u$u$W$u$W!v#T#e ) ) -%q#1$>$, <!;#/%N$6#O!a!v!{![ U#} w#`!&(U!J%% # Y 9!G $ 1 0 ! r#! # ! y!_!L !!~ ) ;$-%-)r$1%h J B&O#' 0%6#v!g 3!R#W#& w#c!!(J%% # j / 9!^!9!* 0 # ]!]!0 # K%R!T#i ;$~ M%GMX!r$K A$B&O#' 0%Y!T!| {!0$6$( C&`!v$O%) 4#^!y M y M / 9!* 5!* $ 5!! y!Q#X e ~           ",
"                                                                                                                                                                                                    HMIMJMKMLMMMNMOMPMQMRMoKSMTM/MUMVMWM($|GXMy?I Z!| T!w&i&YMn!o-a,{+/#y?S#p&O!S#g O 9$F%h(M%z N#T#V!Q!N AFM4N H R%T%a176868686Y7Y7F5)8F5F5F5)8F5Y7v4a1S%4!Z $ u$_!!!}!O%b!j)j%.$F%M#')6J6J6J6J6J%(' 2$I I 2$9$V#j%q$##) i z M!_!V!|!W$r#! # # ! r#u$W!:!;$% s$b!j)H%S!w!G#p$6J6J6J6J6J6JIJ#(#!Y$>$%&>$, . ;#( X$6J6J6J6J6J6J6J2).%=$| O!X$S#/$A$C&?$Y$P#P#P%G#Z!Z!& =!6J6J6J6J6J6Jq+O#D&F%~!u#W#p#6!&)7J6J6J6J6J6J6J6J6J6J6J6J6Jt*=$J n!B&p&u(6!0$, N!<#+'7#&(Q%!(!#J%q$G%o&G%U!3%2%2%$&9#I Y$F%8*6J6J6J6J6J7J2)' `!H%v$,'P!G%N%t!% % G%X!;#N$&)a!I%<!p$7J6J6J6J6J&)' #!k%M%##) z 4#u$0 G <$R%M47686Y7F5)8F5Y786v476a1M4S%[&8!x4a18!H G y!_!y!r#! v#) q$b!-%T#M W!7$0%:#O!Y!B&2$6$G#V#f!+ z!z!+ e :!_!4#W$]!# # ]!0 Q!Q!Q!5!* 9!]!T#O%q#$&;!{ 9$n!.%/%S#T!6#N$t#8$9#6$C&.$G%)  #) N#M!v#Q#R!! 0 # 0 Q!5!5!Q!5!* 9!* L N%7#1$3$w#u#9$=$t#' O#a!6!O#{!I ;#w#.$G%) }!}!) N#Q#v#V!# Q!0 Q!1 $ G $ G 9!/ Y 1 :!-%A&?$w#u#9$n!t#u!' 6#O!Y!u!/$9$u#~!o$M% # #;$!!Q#V!|!r#5!1 * $ 9!/ / ^!/ Y  !9!v#t!v$o$3$            ",
"                                                                                                                                                                                              ZM[M]M^M_M`MaM^KbMxAb4cMdMeMfMgMhMiMb7jMkMJ2lMi#p&8*:#L%t#- b%n%gJmMnM>*oMpMO p#R#u#4$N!X!3%) $ R%[&4![&4!4!qMqM4!H [&S%a176868686Y7Y7F5)8F5F5F5)8F5Y7v4a18!H Y 1 |!Q#e ##G%3%&(-)1%& g ?(6J6J6J6J6J&)[ 9$p#5$& %&A&3%t!) N#T#Q#V!K%r#]!5!1 * $ * 1 Q!]!W$4#N#}!N%U!,'v$-*.$h :#IJ<J6J6J6J6J6Jt*#!P%>$%&>$~!} 6$A$=!7J<J6J6J6J6J6Ju(5#R#p#.%Z!3!{ >$u'A&+'H%,%q&W U#M#} 6!=JIJ6J6J6J6J7Jp&} F%~!{ ;#=$/%X$=J6J6J6J6J6J6J6J6J<J=J2)B(a!2$/$0%=![(6#2$~!1$u'q&+'H%j%8#8#7#,%q&<#1$<#,%!(3%,'o$7!I :$~!6#5J6J6J6J6JIJ=J| w!q#Q%[!f!s$M%x!z!}!N%q#;!2$[(p&R##!t#3)6J6J6J6J#(J W !#x! #i T#V!r#5!^! !8!M47686Y7F5)8F5Y7Y78676a1M4S%R%R%M4T%S%[&[&S%S%[&N Z 5!_!% G%o&~ G W$.$. /$. D&, N!q&8#s$# j M 4%''g!1 5!5!]!# ]!r#y!v#z N#e z!l%t!U!,%P#G#0$Z!' S#:#=!O#' u!8$9$, %&c!X!Q%##0 <$y ^!G 1 5!1 5!0 ]!# |!_!X !!z N# #% O%H%c!s#. 8$t#B&S#:#Y!0%t#8$0$D&C&3$o$k%z!0 <$Y / ^!9!* * 1 Q!0 Q!]!u$V!:!L X ;$}!z!G%j%`!( 8$t#.%L%:#X$T!' I . ( w#Y$X!7#,'##G j M / ^!$ * * 1 5!* 5!! y!v#M!Q#L ~  #O%q#`!s#;#5$            ",
"                                                                                                                                                                                  rMsMtMuMvMwMxMyMzM<?{M,M|M}M~M N!N#N$Ns %N&Ny'x+@%6.4+6.w&Y!.%Y+5#C&w!;Hw1'N1(83(N)NZ'!(N!w!s$z !!z L 4#K%5!9!^!y <$H N ?GT%4!N [&8!M4x4v486Y7Y7Y7F5)8F5F5)8F5Y78676M4R% !y Q!W!L ;$l%U!!(7#-*V#2$:#%(6J6J6J6J6J@(#!h - n!3$-)Q%J%% N#L _!y!r#]!5!$ ^!/ M M / ^!$ 5!]!y!T#) t!f!!#v$-*u'7$O#q+IJ6J6J6J6J6J@(#!N!W >$W %&4$k . O!2)7J6J6J6J6J6JB(;#h { { h ;!W 1$j%&(Q%Q%q#h(1%%&C&R#T!B(=J6J6J6J6J<Jt*9$F%E&{ ;#O n!0%%(6J6J6J6J6J6J6J6J7J?(O!n$.%6#8*&)@(| f ;!N!$&u'q&t$A&+'q#-).$4$;#Z!' p#C&q#[!!#u'R#5#s#k - u(6J6J6J6J6J<JY!1%v$!(P!s$-%x!z!+ + z!q$-*G#6!t*p#& <!=!6J6J6J6JY!3$j)o&z!~ !!M!W!! * M H S%a1v486Y7F5)8F5Y7Y786v4x4a1T%8![&4!S%S%[&4![&R%[&4!4!4!/ 4#N#e v#G $ z + + ) ~ N#z L Q#R!# Q!0 >&x$^)Q!5!$ G ^!/ 0 L O%H%X!<#w#6$9#=$g B&S#N$T!/%n$u!3!h P#X!Q%% ~ e z L Q#W!]!5!5!5!5!Q!5!* G 9!^!* L N%j%h(A&1$C&9$O {!B&S#N$6#Y!/%n$n!s#V#X!Q%M%;$i N#T#v#y!]!5!Q!Q!5!1 1 $ 9!^!M Y 1 M!M%H%-*.$E&} 7!8$Z!B&O#6#S#{!=$g O { $&O%}! #;$N#L Q#_!y!Q!5!5!1 * 1 * G ^!M Z G v#t!8#t$+'.$u#[ n!{!B&v!T!N$            ",
"                                                                                                                                                                            *N+N,N-N.N/N_K0N601N2N3N4N5N6N7N8N9N:NgJ3(j&g5Y!_#u;P,26..l+Y+J D&8(eC;NQ%<NB$83S.QG.)_$g!G'q*q#>J# R%Z M ^!9!G $ $ ^!9!5!$ H S%T%8!R%[&R%T%a17686Y7Y7Y7F5)8F5F5)8F5Y786x4T%[&<$M 0 R!X + M%J%k%H%t$W ' u(5J6J6J6J6J6J[({ ;!5#M#K !(b!o& #T#_!|!! Q!* 9!M j Z <$<$Z j M G 5!u$M!i % o&[!&(-*X!>$' u(5J6J6J6J6J6J@(I%V#Y$Y$P%N!V#:$R#B&X$%(6J6J6J6J6J&)J C&7$W P#1%.$r$Q%,','2%v$t$u'<#Y$. .%6!2)6J6J6J6J6J?(6$F%E&{ R#J R#8$$(6J6J6J6J6J6J6J6J=Jp&| =$u!#($(@(a!7!?$K 1%$&<#S!X!q&r$q&w!s#/$a!$(5J&)/$A&P![!q&D&3!W#& W##(6J6J6J6J6J6JO!3$8#!#f!N%t!##) ~ i ~ ##q$c!0%[(B&9$%&5#Y!6#N$v!. +'M%t!) !!L _!K%0 9!Y N T%x4v486Y7F5)8F5Y7Y786v476x4M4S%[&H 8J?GdF<$G ]!K%W!R!:!+ P!2%b!z!]!Y ^! ![&H <$Y M ^!9!$ Q!]!0 ! |!W!y!V!X + }!) -%q#P#{ 9$W#.%a!')#(O!Y!L%{!;##!s#~!c!v$O%) 4#9!/ ^!/ ^!G 1 0 0 0 K%y!|!V!:!N#+ }!x!q#c!u#f & ;#t#6#p&6!O#L%{!7!9$#!s#>$v$O%) 4#$ j M / / 9!$ 5!0 Q!]!f>y![-M!!!;$+ ~ M%7#c!>!#!W#u!6#')')6!O#.%7!& w#F%;!V#q#% G j M / ^!9!9!9!$ 5!5!0 u$|!K%y!v#X ~ i l%v$`!G#A$I%W#/%#(')T!/%0%Z![             ",
"                                                                                                                                                                =N>N?N@NANBNCNDNyMtLENFN!;GNHN)2INJNKNLN!DP=XMx+<'h5A'u,W0MNN$@%b%7)*&['U%s*N-h*NN2--$y#L4E%Y'4%F+F+$ 7 2-v$>J|!j ^!g!*$9!/ Y <$[&/ Q#v#H T%M4a1M4R%[&S%M4x486Y7Y7Y7F5)8F5F5)8F5Y786x4T%4!Z / ]!4#z  #N%[!&(+'h(%&Y!5J<J6J6J6J6J<Jt*9$C&A$u#1$Q%q$l%~ Q#y!! 5!G / Y <$N 4![&4!N  !j / * W$Q#e ##s$[!&(+'h(W g [(J)6J6J6J6J6Jt*>!V#Y$Y$V#c!P#:$} 0$Z!@(6J6J6J6J6J3)5$( ~!Y$c!o$r$H%Q%2%,'2%k%q#+'q&N!9$J {!@(6J6J6J6J6J?(6$;!, { W#R#>!0$&)6J6J6J6J6J6J6J6JJ)a!/%0%v!6!Y!- ;#w#Y$c!`!1%$&o$<#X!X!V#>!.%8*2)5J<J5JS#S!G%J%+', M#g /$C&6#6J6J6J6J6J6JA(A$H%q$O%t!%  #i N#!!X N# #A&8$=!B&M#%&V#>$;!7$w!+'J%M%##e T#v#W!! 1 / Z [&M47686Y7Y7Y7F5F5Y786v476x4a1T%@!g/N ?GeFT%/ :!N%&(+'h(w#W#O /$} o$_! !/ ^!^!9!$ * 1 * $ 9!9!^!M ONX>) i l%r$k ( I%6$8$' O#6#a!6!Y!B&2$6$G#;!o$N% #+ ) N#M!R!y!W$Q!Q!Q!* G 9!9!G ^!$ L HG5El%v$1%k ( } 8$' O#6#a!a!6!Y!- 9$G#;!1$U!+  #+ ?!M!R!y!W$0 5!5!1 $ 9!^!^!/ Y >HE+W>}!&(K w#D&>!f n!' S#L%| 6#T!' n!9$G#V#f!;$~ ~ ~ N#:!V!0 5!5!Q!5!1 $ 9!^!^!Y 1 :!W>xIx!&(K G#>!f 2$B&S#O#/%L%Y!' /$h %&3$.$G%            ",
"                                                                                                                                                            PNQNRNSNTNUNVNWNXNYNZN[N]N^N_NVB>>F8o%`NaNS'B&/%-.I26._#g4r<}%n(f #!W F;q$bNz/**?*cNm#x#)N-3dNx#cNB=nLE%* G'>/o& IFEQ!r#u$o2v#X i i X ##H%Q%r#[&M476x48![&S%M4x4v486Y7Y7F5)8F5F5)8F5Y786x4T%4!Z 9!! v#N#z!s$3%8#A&X!?$6!6J6J6J6J6J6J5Jp&M#G#E&Y$q&k%o&##N#4#u$Q!G y Z H [&8!S%S%8!R%4! !y G r#v#N#z!O%[!&(-)X!3$- ')Z(6J6J6J6J6Jt*>!P#P%P%P#`!c!:$& <!0$')6J6J6J6J6JZ(L%[ w#P%w!<#-*q#Q%2%,'2%j)&(j%t$V#& #!J #(6J6J6J6J6J&)0$w#, { ;#. k 9$?(6J6J6J6J6J6J6J6JZ(S#u!t#t#u!2$9$h >$N!V#c!w!1%1%c!N!7$A$- @(6J6J6J6JJ)/%X!G%P!8#`!& S#u!:$| 5J<J6J6J6J6J8*I%8#s$t!## #~ z T#:!v#M!!!Q%W#0%g 9#w#K .$`!S![!M%t!% ;$X M!R!u$0 G y  !8!a17686Y7Y7Y7F5F5Y786v476x4a1T%@!EE4!M4x4a1^!e 8#E&f W#L%')t*p&/%C&X 4!/ $ $ $ $ G 1 r#W!L i ;$;$N%j%eNV)1%A$B&O#' /%6#a!v!.%I ;#& w#Y$X!7#2%x!5!^!9!G $ * 1 5!5!Q!5!0 W$W!Q#T#z N###q#X!r$1%h J B&O#/%6#a!v!.%5$9#;#& 7$X!7#2%x!! y ^!9!''x#* 1 5!Q!Q!1 Q!K%Q#T#X !!e M%GEfN?Kh J B&O#' /%6#a!B&3!R#W#& w#P%h(8#s$# j / 9!^!9!$ 1 0 Q!5!1 0 W$W!Q#T#z e M%GE%J&JK k J 0%' 0%N$a!v!g 3!W#} C&`!Q%q$J%##              ",
"                                                                                                                                            gNhNiNjNkNlNmNnNoNpNqNrNsN8>M;]NtNuNvNwNxNyNx?5#67zN-G}Cc/K?S'b%C<,A=-&#}(F;>'^+l#l#O-@$lG@$U;7 P.g***GBR!N7X#N(R0j(q$U@O.R._):!5El%n9{N4E|N1%C&W#3!0$/$B&7!,'/ O4{4*4R%4!8!T%x4v486Y7F5)8)8F5F5)8F5Y7v4a1S%N j G r#M!i l%q$2%7#t$<#~!:#6J6J6J6J6J6J3)/%3!>!c!+'Q%b!O%##T#|!]!G y  !4!8!T%a1x4a1M4T%R%N j ^!# _!!!}!N%[!&(,%X!4${!#(q+6J6J6J6J6Jt*<!`!P#P#`!w!1%3$#!;!( =!6J6J6J6J6J5Jt*n$u#P#K <#r$,%Q%,','2%k%v$,%q&N!#!~!& =!6J6J6J6J6J$(8$D&, G#9#9#u#A$X$5J6J6J6J6J6J6J6Jq+Y!- /$0$W#} I%G#C&E&~!F%4$7$, #!M#' #(3)5J6J6J6J6J#(<!8#q$U!b!!(P%0%L%4$9#a!B(J)7J5J%(n$q&f!M%z!) i z M!4#V!W!R!M!G%>$W#O 2$0$R#U#6$E&H%N%+ z :!v#V!u$]!* / Z 4!S%a176v4Y7F5)8F5F5)8F5Y786v476a1S%R%4!M4x4a1<$u$3%W#| t#u!Z!8$I O 4$X  !^!Q!r#W!4#4#!!o&q#>$#!U#. /$g B&g Z!Y+8$3!9$I%G#4$1%8#;$T#T#L M!_!R!V!|!]!Q!]!r#u$K%y!W!R!v#O-N#G%j%`!4$, <!J )+B&g {!.%t#=$3!A$u#F%1%8#z!L T#T#:!_!R!W!K%# 0 Q!]!W$K%|!y!V!v#Q#_!N#,'w!7$, <!U#5#u!B&{!{!- 8$3!6$I%G#4$A&;$_!M!M!Q#_!V!W!K%]!5!Q!0 uEPIK%y!V!v#Q#_!N#G%j%w!7$s#6$/$u!B&{!- Z!- 5#f >!s#7$$&Q%~ 4#Q#v#R!|!u$                  ",
"                                                                                                                                }N~N O!O#OkN$O%O&O'OWA(O)Of+*O+O,ON1-O.O/O],2'TCA'a.|/T'|/O#Z!3!f 0Os'>01O:0'#^E>/O0nM@#_,x$m&m&x$^)t52O2Ot5Z$''E%9+D+<#1%>$w#%CZ!3OU@Q!4#&(:$W#n!4O=)g | 6#X$p$6!S#n$[ h(Q!v4v4a1[&N R%S%x4v4868686Y7Y7F5)8)8F5Y7v4a18!H Y $ u$L ;$M%U!2%q#r$1%D&')6J6J6J6J6J6J?(8$6$h 1%,%!(U!N%}!:!W$5!/ Z 4!8!M4x4v4v476x4T%R%N j 9!! v#N#z!O%!#v$-)h(%&Z!#(q+6J6J6J6J6Jt*{ 1%w!w!1%$&o$w!:$7$9$p$6J6J6J6J6J<J5Ja!I%P#w!o$X!-*8#j)j)k%v$H%A&X!N!{ 4$D&=!6J6J6J6J6J3)p#A$E&w#M#9#f ( 9#t*6J6J6J6J6J6J6JIJ2)?(A(6!n$=$n!I 2${!t#u!B&Y!:#')t*%(IJ6J6J6J6J6J<Jv!h(J%U!G%s$O%q&O {!W u'7$=$X$?(').%>!3%x!z!~ z L v#W!K%W$W$! 0 Q#!#W I ' /$/$O I U#%&q#+ V!y!K%r#Q!G y <$4!8!a176v486Y7F5)8F5F5)8F5Y786v476x4T%8![&S%T%S%8!4!_!X!F%`!+','l%o&q&-)N#Q!5!~ Q%7$9$[ 2$- n$O#6#Y!/%n$u!/$G#N!-)-%) ;$i e z :!R!! # ! r#r#! ]!5!* G / Q!L % q$!(j%1$u#6$[ p#B&S#Y!O#Y!Y!..],k %&3$.$f!;$~ e z L 4#r#]!# ! r#! ]!5!* $ G / Q!~ q$!(j%1$C&A$6$[ g S#Y!O#Y!6#Y!B&/$F%S!&(-%;$~ e z L R!]!5!Q!0 ]!0 Q!1 G 9!^!y 5!:!##q$!(q&C&A$U#[ p#B&S#T!S#0%n$u!/$G#N!S!&(% i N#X :!v#y!0 * Q!0 Q!5!*                   ",
"                                                                                                                        5O6O7O8O9O:O;O<O=O>O?O@OAOBO^NCOM1DOEOZ*)&FOGO.-c-8*')T'@%g5K?n!M#|$t-`7vC}D9.w$HOIOl&y$|,|,^)x$n#JOE%_,y#57vFKOLO.3:+V,t1u'u#W#[ n!B&6#A(p#MO9!V!r$} L%8*#('):#_#)+=$/$W#I%~!P#,'1 a1x4G+4!H [&S%x476v48686Y7Y7F5)8)8F5Y7v4a18!H Y $ u$L ;$M%U!2%q#r$c!9$A(6J6J6J6J6J6J[(7!D&, 1%-)!(q$M%+ Q#r#1 M <$[&T%a1768686v476M48!H Y G r#Q#e ##s$3%8#+'h(>$Z!8*q+6J6J6J6J6Jt*u#$&K K $&o$u'.$P#E&. 6#2)7J6J6J6J6J6J:##!P#c!K S!t$j%v$&(v$j%-*q&<#V#k ~!9$p$6J6J6J6J6J$(O <!F%;!D&;#9#M#f T!2)7J6J6J6J6J6J6J6J6J6Jq+#(a!N$T!N$')[(A(?(=J6J6J6J6J6J6J6J<J7Ju(6#0$j%q$G%O%M%l%j%f 3!%&-*1$& 2$- /$G#1$s$ #;$!!L v#V!u$! 0 ]!1 M 0 ;$-*U#u!8$=$=$n!U#W Q%z r#r#]!5!9!y Z N R%T%x4v486Y7F5)8)8F5F5)8F5Y786v476x4T%8![&[&R%8!T%a19!}!P!t!!!y!^!Q!+ N% #Q## z!<#I X$#(p&a!S#.%[ f I%s#~!c!v$s$X * y ^!G $ $ * 5!# ! ! # r#y!v#T#N#;$) -%q#1$>$, <!0$/%6#6#6#T!| {![ U#A$C&w!Q%q$P!##]!j 9!G $ 1 Q!# ! ! ! ! y!v#T#N#;$+ ) -%t$>$, <!0$.%N$6#6#T!| {![ U#U#( C&`!!#) 4#G j M / / ^!G Q!]!0 Q!Q!# K%R!T#i ;$~ NOGE1$>$, f .%N$6#6#N$Y!L%{!;#I%h ~!c!v$O%) 4#^!M / M / ^!$ 5!Q!Q!5!0 W$                    ",
"                                                                                                              OOPOQOROSOTOUOVOWOlNXOYOk2ZO[O]O^OFB_O?Bc(`OaOc/bOdG#,Y!6#&6L%g C<E<`7@K?#=4'N5*4*Z'j(*%cO7 (#f/nLdOeO|(Z$g!9!w8fOM*H%X!t$$&w#%C9#5$u!S#6#6!O!6!N$v!A$S,/ y!2%;!g :#S#B&j4C&Z+t$2%x!e z M!u$Y R%T%S%N H [&S%a1x4v486Y7Y7Y7F5)8)8F5Y776M48!H y * K%T#) -%P!!(j%q&P#6$A(6J6J6J6J6J6J8*R#I%C&K -)j)U!M%) v#! * y  !R%M4x4v4Y7Y786x4T%R% !y $ W$M!i % o&,'7#-*X!%&u![(J)6J6J6J6J6J[(G#1$1$o$.$u'S!S!`!<![ g 6!2)6J6J6J6J6J=!D&N!V#`!.$h(-*H%j%H%-)r$S!1$P#7$w#M#')6J6J6J6J6JB(U#7$3$%&:$( 0%/%9$5$a!2)6J6J6J6J6J6J6J6J6JIJq+2)3)3)3)q+J)q+=JIJ6J6J6J6J6J6J6J7J2)L%w#<#+'J%-%l%% ##j), A$E&;!;!F%3$c!q&2%O%+ N#z L Q#V!u$]!5!$ $ / H y y!G%>$;#' v!n$2${ ,%}!u$$ Q!* ^!y Z H [&S%a17686Y7Y7Y7F5)8F5F5)8Y7Y78686v476M4S%[&H N 8!S%8! !1 ! # Q!$ M M * 4#N%t!r#z A&5$p$0%I 9$G#V#G%;$) ) ;$N#M!4#|!]!0 ]!0 Q!1 * $ * $ 9!M 5!L N%7#1$;!{ 6$n!.%/%S#6#6!N$n$I 6$u#~!o$G%;$+ ;$!!Q#_!v#V!# Q!0 Q!1 * * 1 1 $ 9!$ L N%7#1$?$k { 6$- /%S#6#6!O!T!n$I ( ~!o$G%;$ # #;$!!_!y!r#Q!1 5!5!* G 9!G 9!/ y j 1 :!-%t$?$k { 6$?-.%/%S#a!O!T!n$I 9$u#~!o$t!;$~ i z Q#V!|!r#Q!Q!5!$ G 9!9!G 9!M Z $ Q#                    ",
"                                                                                                        gOhOiOjOkOlOmOnOoOpOqOrO[N^NsOtOuOvO:N?BQFwO-G>2b/xO6!L%yON&=)n%$!G#s<(4?#u6R+a,**Y?>&nLzO-'w$u4O.G'v'N7:!T#{O|O9+z!+ }O@K{ f ( . t#a!yD~O=!v!n${!2$;#( s#<#_!^!r# #-)<!;#<! PV#F;-%~ V!^! !<$ !N H N 8J8JN H [&8!M4x4v486Y7Y7Y7F5)8)8F5Y776M48!H y * K%T#) -%P!!(j%q&P#U#A(6J6J6J6J6J6J#(9$s#4$1$,%j)U!t!) v#! * y  !R%M4x4v4Y786v4a1S%[&<$M * K%L ;$l%f!!(j%t$S!?$0%u(5J6J6J6J6J6JA(h .$.$<#S!h(q&q&K <!R#0$Z!@(6J6J6J6J6Jp$U#7$>$V#K .$h(A&-*A&r$S!o$w!V#?$I%2$[(6J6J6J6J6J@(D&P%Y$P%`!s#Y!p$3![ Z!:#u(5J6J6J6J6J6J6J6J6J6J6J6J6J6J6J6J6J6J6J6J6J6J6J6J=J?(:#' U#.$7#-*U!x!z! #;$q$c!h { 9$A$C&P%u'Q%l%i ~ :!_!_!V!u$]!1 G / M j 4!N / Q#k%>$0$3!U#h .$x!K%G y G / Y <$N R%S%a1x4v486Y7Y7Y7F5)8F5F5)8Y7Y7Y786v476a1T%R% !N S%T%R%4![&4!N  !j / $ Q!:!!#P!r#W!U!C&U#w#V#q&8#O%0 <$M ^!^!9!* 1 5!0 0 Q!]!u$V!:!z e + z!##f!H%P#G#;#- .%| :#=!O#n$5$9#9$w#Y$X!7#,'##Q! !y / 9!* 1 * 1 0 ]!]!K%R!L z X !!+ ##N%H%c!s#;#5$t#.%| O!Y!B&5$9#;#& w#Y$-*,'##Q! !Y M / ^!$ 1 1 5!5!1 0 W$W!M!:!T#~  #z!G%j%c!& 5$t#.%| :#=!O#n$I ;#& w#Y$h(8#,'##G Y M M ^!$ * * 1 5!5!Q!r#y!Q#L :!T#;$}!s$j%                    ",
"                                                                                            !P#P$P%P&P'P(P)P*P+P,P-P.P/PMF0P1P2P3Pi$4P5Pb%c/{?6P7P8PgA|/(7AB9PC&W >$J1p85*C'z!4*r'U$*%zA:P49;PGBw)7 o#JO0 1 -'+ J%Q%-)1%h |$>!f Z!S#T!Y!T!|/6.n$gG,/k c!h(k%-%) ~ L # 1 5!# T#b!2%##N#!!*%y#|!r#Q!* $ ^!Z  !N =F8J=FR%[&R%T%76v486Y7Y7Y7F5)8)8F5Y776M48!H y * K%T#) -%P!!(j%q&P#W#[(6J6J6J6J6J6J#(} 7$V#S!H%j)P!M%) Q#r#1 M <$[&T%a176v4v476M48!N j ^!Q!y!z  #-%P!k%,%q&<#7$T!5J<J6J6J6J6J<J')C&u'u'S!q&t$A&t$o$, u#C&W#p&6J6J6J6J6JA(I >!;!W P#w!o$u'S!u'<#1$1%P#Y$;!. .%B(6J6J6J6J6Jt*>!P#V#c!1$, 0%8*0%M#. 2$| u(6J6J6J6J6J6J6J6J6J6J6J6J6J6J6J6J6J6J6J6J6J6J6JB(.%9$3$K `!K ,%N% #+ i M!z!A&:$A$7!9#[ . & %&,'% }!4#u$|!u$]!* 9!M j <$<$ !4!a1Z M!G%+'+'Q%G%e 5! !<$Z Y Z H 4!R%T%a1x47686Y7Y7F5F5F5F5F5F5)8Y7Y786v476x4a1M48!H 4!a1x48!4!N N R%S%N $ _!M%2%q#P!# 5!y!N#+ e X :!v#V!]!5!0 0 5!1 5!1 $ ^!M Y 1 M!M%7#<#N!h } 7!5$u!0%S#N$O#{!5$Z!/$u#$&P!}!}!;$N#L Q#_!y!0 * 5!1 1 5!1 $ G 9!/ $ :!-%q#h(t$1$C&9$5#Z!B&S#N$6#S#{!=$n!{ $&P!}!z! #;$N#:!_!y!0 * 5!5!1 * * $ 9!M Y j * Q#M%H%-*o$, f 7!8$g ' Y!6#S#{!5$Z!/$u#$&O%z! #;$N#L v#_!y!Q!5!5!* * 1 * G ^!M j * v#t!8#r$-*o${ 7!8$g                     ",
"                                                                                      <P=P>P?P@PAPBPCPDPSB3 EPFPGPc3x3HPJH;/o%`NaNS'{?-Ec%=!T!,!5,- 0$a7IPE&w!DO*/?&mDG'[*^)k$=&7 L4O.49JPKP*%YJLP?!('C'% ##G%h(%&C&>!0$B&T!v!d*m!bOB&' Q)|B|$MP7$i)v$O%) _!1 Y y / * 5!1 G W$ #) 5!<$/ $ * 1 1 5!1 G G * y  !R%T%M4T%R%[&T%76v48686Y7Y7F5)8)8F5Y776M48!H y * K%T#) -%P!!(j%q&c!A$#(6J6J6J6J6J6J8*9$3$w!h(H%Q%b!-%+ M!W$5!/ Z 4!8!M4a1x4a1M48!4!<$M $ # R!e ##s$[!&(+'X!o$F%O!6J6J6J6J6J6J=JT!, .$S!q&t$-*-)+'u';!, Y$<!O!6J6J6J6J6J&)0%J s#?$>$P%`!K $&K 1%`!V#Y$%&w#2$6#3)6J6J6J6J6Jt*u#1%w!K u'3$5#T!:#8$M#[ 5$T!A($(J)<J6J6J6J6J6J6J6J6J6J6J6J6J6J6J<JIJq+[(O!n$;#k V#P#, 7$v$##i i T#y!L b!w!M#=$p#Z!Z!=$A$h(U!) K%0 # ]!* ^!y Z N 4!4!H R%F5v4M W$M!Q#W!# ^!R%M4[& ! !4!R%8!T%M4x476v4Y7Y7Y7F5)8F5F5F5F5)8Y7Y786v47676x4a1S%N [&x476S%4!<$9!K%M!i M%Q%c!;!F%t$W$^!^!j <$Y M / ^!G 5!0 Q!# K%y!|!W!T#;$+ ~ M%7#`!G#U#9#B&6#')p&T!L%/%{!R#w#4$4$P#q#% 0 <$y ^!^!9!9!9!$ 5!Q!0 u$NPOPW!M!!!)  #% 7#c!u#a7c(R#t#a!p&6!O#L%{!7!A$k F%W q#% 0 <$Y M / ^!9!9!$ 5!Q!5!]!u$|!o2Q#z ~ ) i t!8#`!>!#!R#t#a!')p&T!L%.%7!& w#4$F%P#q#% G Y M / ^!9!9!9!$ 5!5!0 W$OPf>y!v#X ~ i t!8#`!G#} #!W#/%#(')N$                    ",
"                                                                          PPQPRPSPTPUPVPWPXPSAYPZP)O[P]P^P_P`P3Pi$_*=.aPu!@7-GD)i##.*>6.)+w3$!R,?'U%3H4*9+4*?!a,nMO0_)o2w$O.O.L4w$7 r#! dObPcP}!,1>>w!4$h <!6$- 0%| O#N$6!6!6#S#n!w#>$%&.$U!}! #(') X v#V!K%# 5!* $ $ 1 0 u$e !([!y!M 9!9!9!G 9!M j N / _!0 j 4!T%x4a1R%[&T%x476v486Y7F5)8)8)8F5Y7v4a18!H Y $ u$L ;$M%U!2%q#h(K k X$6J6J6J6J6J6J8*U#7$c!X!,%&([!N%}!:!u$Q!9!Y  !4!8!S%T%S%8!4! !Y 9!Q!u$Q#;$l%f!,'8#-*<#K ;!O!6J6J6J6J6J6Ju(p#~!K h(-*+'-),%,%S!C&h N!s#6!6J6J6J6J6Jq+#(.%( 4$7$3$P%P#c!P#V#P%W 3$?$s#' @(J)6J6J6J6J6J[(s#1$$&o$h(K C&9##(=!| {!O M#O Y!@(5J6J6J6J6J6J6J6J6J6J6J6J6J6J6JIJq+#(2$u#C&{ } 7!5#3!s#!#i X X v#r#|!;$+'n!B&u!{!{!u!7!:$q#T#0 * 1 $ M j  !N R%8!S%S%T%a1a1T%T%a1M4S%4!N [&[&4!4![&8!T%M4a1x476v486Y7F5F5F5F5F5F5F5F5F5F5F5Y786v4v476x4S%4!R%76v4a1[&y 4#j%;!>!& ;#p#0%O#A$_!9!$ G G * 1 * G ^!^!/ Y 5!L HG5Ex!t$k D&>!f n!B&S#Y!O#6#T!' /$h 3$?$o$-%;$~ ~ N#:!V!# 5!Q!0 Q!1 $ 9!^!9!^!$ L HG5El%v$1%k ( A$n!' O#Y!L%| 6#T!Z!9$G#;!o$q$) ;$;$e :!V!# 5!Q!Q!5!5!* 9!^!^!/ Y >HE+W>}!&(K w#D&>!f n!' S#L%v!a!N$' /$h 3$`!f!;$~ ~ ;$e :!W!Q!5!Q!5!5!1 $ 9!^!^!Y 1 :!W>xIx!&(K G#>!f n!' O#Y!L%| Y!' 5#G#                    ",
"                                                                      dPePfPgPhPiPjPkPlPmPnPoPpPY#H&qP)7rP&#n-j&@'..A'P8sPtPuPa@u!b%03vP7)SIb1?#P-C'g(wPi!h!Z$+*m&g(_,xPu4y!v#T#Z'('9+C'`IU!V)S!c!u#M#p#' L%T!=!N$S#L%{!J 9$6$( %&&(P!J%% u$9!|,x$^)0 0 0 0 Q!]!u$|!r#* # !!-%!#o&4#E%@$:!T#L X i ) ;$N%7#t!R!Y M476x4R%[&T%a1x47686Y7F5)8)8)8F5Y7v4a18!H Y $ u$L ;$M%U!2%q#q&o$F%O!6J6J6J6J6J6Jt*M#F%c!S!-)v$!#s$##X y!# * / j  !4![&[&4!H Z y 9!5!! W!T#}!N%J%k%j%t$o$c!s#X$6J6J6J6J6J6J[(;#:$1%q&,%H%j%q#j%r$:$~!Y$<!6!<J6J6J6J6J7J%(N$9$~!;!F%3$W Y$Y$W >$%&:$E&W#:#q+IJ6J6J6J6J5Ja!E&<#<#X!A&r$$&{ =!u(8*Y!{!J [ .%6#')A([(?(&)$(3)3)3)u(?(t*8*')p&X$O!/%. , w#W#8$/%t#R#W -%T#M!Q#W!0 Q!u$s$A$n!8$n!O 7!D&c!3%K%G 9!^!y Z H 4!R%T%M4a1x4a1M4a1Y787I9S8w476T%R%[&R%8!T%M4a1x476v4v486Y7Y7F5)8F5F5F5F5F5F5F5)8)8F5Y786v476x4T%[&R%a176x4S%H X s#' N$T!6#=!#(@(J v#9!1 1 * $ 1 ! y!:!e ~ i M%q#X!r$K & B&O#' 0%a!6!v!{!0$W#& w#`!&(U!b!x!5!^!G 9!9!$ 5!]!]!Q!5!0 W$W!Q#T#z N###q#X!r$1%h J B&O#0%6#|/A'g 3!R#W#& 7$X!7#,'% # Y ^!G 9!$ 5!]!# ]!Q!1 Q!K%Q#T#X !!e M%GE%J.$k J B&O#' 0%a!6!B&3!R#W#& w#`!&(U!N%# j / 9!^!9!$ 1 Q!0 Q!1 Q!r#W!Q#T#z e M%GE%J&JK k J 0%' 0%a!6!v!g 3!R#} w#c!v$                    ",
"                                                      yPzP{P|P}P*P~P Q!Q#Q$Q%Q&Q'Q(Q)QKF*Q+Qm+E&36c)- .%n$rCg5g5g5)'O ,Qc(*'7$-Q8#@*.Q57a,nM/Qy#@$O.P.>&E%w$lG0Q1QZJ-$j(.++ b!-*2Q3Q*'|$0$?-B&0%' B&n$u!- 8$9#A$7$c!.$v$}!:!T#T#M!R!W!V!y!W$! r#W$y!4#_!v#v#_!e f!<0P!V!W!M%s$z T#% 4Q-)V#%&Y$;!9$O Z!n$- C&Q%]!v476M4[&4!S%M4x4v486Y7F5)8)8)8F5Y7v4a1S%N j G r#M!i l%q$2%q#r$<#4$O!6J6J6J6J6J6Ju(p#;!1%u'A&q#2%q$t!e v#|!# 1 9!M y Y j y M 9!* 0 W$W!M!~ M%q$2%7#-*X!$&%&0$t*6J6J6J6J6J6JX$u#N!$&-*8#v$&(Q%&(j%h(`!F%R#N$2)7J6J6J6J6J<J#(/$D&D&#!{ s#h k h s#u#{ . 6!q+<J6J6J6J6J6Jt*M#V#h(t$-)7#8#j%`!I 8*$(B([(p&6!S#n$5$n!=$g B&| S#O#v!' {!8$9#M#;#0$3!I g /%S#T!/%2$G#-)-%z _!V!u$# 1 M N * G%$&?$~!>$A&U!e r#<$Z j  !N [&8!T%a176v486Y7Y78686Y7Y7F586v47676x4x4x4x4v4v4v486Y7F5F5Y7Y7)8F5F5F5F5F5F5F5F5F5)8F5Y7Y7Y786v476a18!R%8!T%x486)8_!W#u!p#2$/$7![ 7!:$_!G 1 # u$V!!!o&q#W I%6$R#9#)'B&g Z!Z!5$9#9$>!s#7$$&Q%!!M!M!Q#4#W!|!y!K%0 5!0 ! W$K%y!W!4#Q#v#N#G%j%`!4$, <!M#u!B&g Z!{!Z!8$3!& G#4$1%v$+ Q#L L M!4#V!y!u$]!Q!0 ]!r#K%y!W!4#Q#Q#_!N#,'`!4$, <!6$/$u!B&{!{!- 8$3!f >!s#7$t$) _!M!M!Q#4#y!K%u$]!5!Q!0 ! W$K%y!V!v#Q#_!N#G%j%w!7$s#6$/$u!B&{!- Z!- 5#f >!s#7$$&Q%~ 4#Q#v#R!                      ",
"                                                5Q6Q7Q8Q9Q:Q;Q<Q=Q,?<C=']E&EFB_OQ8A$;#n!c/H9(7&66#V$u;0%g [ w#`7>3U,p-w/9+./>Qj(*%?Qb=w$_,E%>&x$^)5!@QAQ0+X>O%BQCQDQo%E<U#I {!B&S#a!:#=!:#T!u!Z!3!G#K 3%-%N%M%5*?!z T#v#K%! ! # 0 5!5!Q!5!1 $ ^!]!}!j%<#1%>$k 9$n!.%O r$##V!M!J%pHc@EQABL%v!S#Y!6#6!:#N$O w!O%* x4a1S%N N S%a176v4868686Y7Y7)8F5Y786x4T%4!Z 9!! Q#e ##s$3%8#A&X!?$6!6J6J6J6J6J6Jq+v!k w!o$X!+'v$!#o&}!z v#W!u$! 0 5!1 1 5!0 ! u$W!v#T#i x!U!,'&(,%X!o$K , /%Z(6J6J6J6J6J6J=!k W 1%H%j)!(2%2%!(&(,%o$, W#- a!2)6J6J6J6J6Jq+8*O!6#Y!S#| L%/%v!6!X$X$A(J)<J6J6J6J6J6J6J6!:$X!A&j%v$k%,'[!!(w!- 8*%(=J2)&)B(t*p&O!6#Y!S#v!L%0%' 0%L%| v!O#Y!6#O!p&@(B(6#7!, <#,'}!:!R!|!r#Q!G / Z 4!T%8!0 v#i :!^!T%v4v4R%4![&8!S%T%a176v4v4Y7F5)8)8)8)8)8)8F5Y7Y7Y7Y7Y7Y7Y7Y7Y7Y7Y7F5F5)8)8F5F5F5F5F5F5F5F5F5F5F5F5)8F5Y7Y7868686v4a1T%8!4!R%a186F55!8#J%}!N#X !!x!k%8#x!0 ]!) -)D&5${!n$S#N$Y!L%B&t#9#s#V#-)-%;$i N#z L v#y!0 Q!0 ]!]!0 5!* $ 9!M 5!:!##q$!(j%1$u#6$[ p#B&S#Y!O#Y!Y!..{F*'N!S!&(-%) ~ N#X :!R!! 0 ]!# # ]!Q!1 * $ 9!M Q!i q$!(j%1$C&A$6$[ g S#T!Y!S#L%B&t#/$F%S!&(-%;$i N#z L R!]!5!Q!0 ]!0 Q!1 $ G 9!M 5!:!##q$!(q&C&A$U#[ p#B&S#T!S#0%n$u!/$G#N!S!&(% i N#z L v#y!0 * Q!0 Q!                      ",
"                                                mBFQGQHQIQJQ(Hc3KQLQMQBLN3y6@B. z'NQ_&OQ6!L%n$g5p#U#36PQa)QQRQU@M*Y#>&eO]!# o#SQw$TQ4949X#_):!T#UQh67KVQt!j%P#u#a7|$j&t#6!A(#(:#S#B&t#=$7!} , F%V#j%M%W!1 0 ]!>&]!]!]!# r#r#! r#V!T#!!z e }!% ##o&S!u#W#J n!B&L.~%(1L%P#M%1 r#&(G#0%8*=!T!v!0%- 0$} A$<!V#U!:!/ T%M4S%N H 8!a1x476v48686Y7Y7)8F5Y786x4T%4!Z / # v#!!}!N%[!&(+'q&%&a!6J6J6J6J6J6J5JO!u#`!K <#t$j%!(P!l%~ X Q#R!y!K%W$r#r#W$K%W!4#M!z ~ }!O%!#Q%q#A&<#w!P%#!p$7J6J6J6J6J7JZ(Y!w#V#.$7#3%!#[![!!#j)j%.$E&& . {!@(6J6J6J6J6J<J7J=JZ(3)u(&)&)B($(5J6J6J6J6J6J6J6J6J6JJ)@({!c!-*,%&(2%!#J%G%s$k%<!- a!t*$(q+5J5Jq+3)B([(')X$O!6#6#6!p$8*?(u(2)%(2)u(p$/%[ ?$,%G%) T#4#|!! Q!G y Z H [&x4R8Y7R%Y  !G5X:S8w4S%S%T%M4a1x476v486Y7F5)8G5G5G5G5G5G5G5)8)8)8)8F5F5F5F5F5F5F5)8)8)8)8)8)8F5F5F5F5F5F5F5F5F5F5)8F5Y7Y7868686v4a1T%8!4!R%7686v4j M!5!H S%T%R%9!M!##l%# ]!+ <#Z!A(O!O#t#M#A$I%s#~!`!&(N%T#G j M / / ^!9!$ Q!0 Q!Q!# K%R!:!!!~ ;$-%q#1$>$, <!0$/%6#6#6#T!| {![ U#} w#c!v$s$+ _!* y ^!G $ * 5!]!! ! ! ! |!4#L N#~ ) ;$-%t$>$, <!0$.%N$6#6#T!| {!7!9$#!G#E&c!!#) 4#G j M / / ^!G Q!]!0 Q!Q!# K%R!T#~ ) ;$-%q#1$>$, f .%T!N$6#6#T!| {!;#I%h ~!c!v$O%) 4#^!M / / ^!9!$ 5!Q!0 Q!]!                      ",
"                                                WQZ6XQ=6YQ.*ZQR,u#n*t3v:<'J/-Eu,W0[Qd*zN[ J:N3]QU%p-9+R+Y*qP^Q_QZJCG|!u$u$K%u$7 _,P.>&P.F&`QJ%Q%-)1%h ( A$n!B&S#T!Y!T!a!6#v!t#3!s#P%<#j%P!M%x!x!z!i L R!y!W!y!u$7 ! 0 5!1 $ ^!]! #j%h(A&1$w#} U#[ g S#6#6!O!6!Y!.%5$9$+' #5!W$J%?${!a!- J & ~!u'o&~ ;$~ :!r#$ Z [&S%S%N H R%M4a1x4v486Y7Y7Y7)8F5Y786x4T%[&<$M 0 R!X + M%J%k%H%t$>$a!6J6J6J6J6J6J<J8*>!P#w!1$h(-)v$3%s$##) N#T#M!_!4#R!V!4#_!M!T#N#) ##M%P!k%q#A&S!1$P%C&[ ?(<J6J6J6J6JZ(p&{!E&u'H%!(b!J%P!P!b!!(H%.$4$s#w#;#')6J6J6J6J6J6J<J<JIJ7J5J=J=J=J5J<J6J6J6J6J6J6J6J6J6J@(Z!D&K ,%&(3%P!U!G%O%M%o&t$?$9$t#t*7JIJ7Jq+%(%(2)2)3)3)$(u($(2)%(J)5J7JJ)$(=!9#3$h(&(G%;$M!_!W!W$5!9!Y <$N R%T%x4Y78676M4a186Y786v4x4x4x476v48686Y7Y7F5)8G5)8)8G5w4w4w4w4G5G5G5G5)8)8)8)8)8)8)8F5F5F5F5F5F5F5F5F5F5F5F5F5F5F5F5F5F5F5F5Y786v476x4M4S%[&S%86F576R%y j <$<$Z j y ^!# v#5!$ u$p8e0@16$G#P#s$e ~ ~ i z v#V!u$Q!>H0+5!* G 9!9!G E'Y&j 1 :!-%8#1$F%{ 6$n!.%/%S#6#6!N$n$I 6$u#~!o$G%)  #) N#M!4#W!u$]!Q!0 Q!5!* * 1 1 $ 9!$ L N%7#1$3$w#{ 6$- /%S#6#6!O!T!n$I ( ~!o$G%~ ;$;$~ !!_!y!W$0 5!5!1 * G 9!G G ^!M j 1 :!-%t$3$w#{ 6$n!.%/%S#a!6!Y!.%I 6$u#~!o$t!;$;$~ !!Q#V!|!r#Q!Q!5!* G 9!9!G 9!/ j *                       ",
"                                                #=oMJHjFt6k J L%v!O#|7c%6.| 0%- V0} I%gJ&#F;s*p8C'M(k(m#-+eO# r#b=K%y!H5-$*%L ?!('C'mDaQTJ0D%&C&>!0$n$6.F#=!=!T!| 0%Z![ f { , V#j%q$##X u$]!r#r#W$u$K%W!V!W!V!v#_!Q#X ~ }!z!+ -%X!u#} D&. .%N$a!:#:#v!n${!2$0$D&E&>$u's$L Q!!  #,%u#6$:$1%r$!(}!Q! !Z Z  !H H  !N 8!S%[&4!R%T%a1x4v486Y7Y7Y7)8F5Y786x4T%R% !y Q!W!L ;$l%U!!(7#+'P%S#=JIJ6J6J6J6J6J@(D&N!P#1%<#r$H%Q%J%N%x! #;$e !!z X T#z !!i ) }!l%O%q$2%7#+'X!o$K 7$R#' %(6J6J6J6J6JB(.%. F%t$k%!#P!f!G%G%q$,'q#u'7$, %&D&=!6J6J6J6J6J6J6J6J6J6J6J6J6J6J6J6J6J6J6J6J6J6J6J=JB(L%( :$V#,%,'U!o&O%-%l%####o&v$c!I%- N$:#')?(3)Z(q+J)=J5J=J=Jq+3)&)@(#(:#O#t#3!?$2%M%% ;$M!V!W!K%0 9!Y  !4!8!T%x476v4Y7F5)8F58676x476868686Y7Y7Y7Y7F5F5)8G5G5)8)8G5w4w4w4w4w4w4w4G5)8)8G5G5G5G5)8F5F5F5F5F5F5F5F5F5F5F5F5F5F5F5F5F5F5)8)8F5Y786v476a1T%R%T%Y7)876a1T%[&N  !j M 9!5!V!;$# M 9!X YC^,bQv$-%* 4!Z Y y / G x#Z$5!0+>H0 W$W!Q#L T#|*M*z!G%j%`!s#;#- .%| :#X$Y!n$5$9#9$w#Y$X!7#,'##0 <$y ^!G * 1 5!Q!0 0 ]!K%4#L z X !!+ ##N%H%c!s#;#5$t#.%| O!Y!B&5$9#;#& w#Y$-*,'##Q! !y / / ^!$ 1 5!Q!Q!|,x$7 W!M!:!X ;$}!z!G%j%c!( 5$t#.%| :#=!Y!B&I ;#& w#Y$X!7#,'##G j M / ^!$ * * 1 5!5!0 W$W!Q#L :!T#;$}!o&                      ",
"      cQ                                        n(z?u!dQzN| a!p&T'v!t#5#} h 4$<#<N9+9+>'r'eQO-_)X#7 {+f/**zOnL# # ]!PIfQVQ85,1>>w!4$n-A$5$n$' L%O#N$a!6!Y!t#5#A$k 7$.$J%% x!% }!e X :!v#V!W!V!W!|!u$W$r#! 0 OPgQ+ -%8#w!h ( <!} - v!Y!O#T!a!N$| B&2$k c!h(Q%N% #;$e L W!r#Q!5!# :!q$b!~ X L v#y!]!1 * G y  !N H N R%T%M4T%R%S%M476v486Y7Y7Y7F5Y7Y78676M48!H Y 1 |!Q#e ##G%3%&(H%`!g ?(=J6J6J6J6J6J@(( Y$P%P#1$X!A&j%!(P!o&-%l%##}! #+ )  #}!% t!N%f!b!2%8#+'q&o$1%w!s#' &)7J6J6J6J6J6Jp$9$;!7$t$!(b!q$o&O%N%o&b!Q%h(7$, Y$>!:#6J6J6J6J6J6J6J6J6J6J6J6J6J6J6J6J6J6J6J6J6J6J6JB(B&U#%&N!~!+'P!o&M%x!z! #+ )  #-%k%q&P#~!D&9#T!t*u(3)%(Z(q+Z(2)?(p$O#g 7!I%4$c!X!k%x!e T#M!_!W!u$# $ Y  !4!8!M4x486Y7F5)8G5G5)8F5F5F5F5F5F5F5F5F5F5F5F5F5G5)8)8)8)8G5w4G5G5G5G5G5G5G5G5G5)8)8)8)8)8)8)8)8)8F5F5F5F5F5F5F5F5F5F5F5F5F5F5)8F5Y7Y786v476a1M48!T%Y7)886a1T%M4a1x48!Y K%##v$S!4#<$M 0 N7O0_!V!K%* 9!* * $ $ * $ 9!hQ2HZ $ Q#M%7#r$S!iQjQ7!8$Z!B&S#N$Y!{!=$g 5#u#1$U!}!}!;$N#L Q#_!y!]!5!Q!5!5!5!1 * G 9!/ $ :!-%q#q&A&1$C&9$5#Z!B&S#N$6#S#{!=$n!{ $&P!}!z! #;$N#:!_!y!0 * Q!Q!1 * * $ 9!^!M j x#Q#M%H%-*.$E&} 7!8$g ' Y!6#S#{!=${!5#{ $&O%z! #;$N#L Q#_!y!Q!5!5!1 * 1 * G ^!M j * Q#M%7#r$-*o${ 7!8$                      ",
"    kQlQ                                        T!P8*>:#uPa@u!{FmQ( C&P%h(8#3%C'Z$A!i![*k(Z$|,^)>&_,_,L4R!:!N#;$nQ}!O%oQP eNc!u#M#pQqQO#X$p&O!T!| {!J U#} C&P%h(8#3%x!K%$ 0 # ! r#u$K%y!W!W!V!M!z ~  #% x!% f!t$h(w!s#J B&Y!| O#:#Y!L%0%Z!M#A$<!k W v$s$+ v#5!/ ^!9!^!9!$ 1 5!1 K%i !!G M 9!G * Q!Q!1 5!# u$]!M N R%M476x4R%S%M4x4v486Y7Y7Y7F5Y7Y786v4a1S%4!Z $ u$_!!!}!O%b!j)q#1%;#| u(6J6J6J6J6J&)J C&?$P%`!1$S!A&7#!(!#P!f!s$N%-%M%M%N%O%o&q$J%3%j)8#+'h(.$1%P%4$R#p&6J6J6J6J6J<J5JN$G#V#%&-)3%P!o&-%t!t!N%P!!(-*P%7$>$D&=!6J6J6J6J6J6J6J6J6J6J6J6J6J6J6J6J6J6J6J<J7J2)#(' U#C&%&%&?$v$s$M%% + ~ e N#N#!!;$M%f!J%&(u'7$M#{!n$B&0%/%/%0%n$Z!O R#u#W r$j)q$-%z!!!M!R!W!y!K%# 1 M  !4!8!M47686Y7F5G5w4w4w4w4G5G5G5G5)8)8)8)8)8)8)8F5F5G5)8)8)8)8G5G5G5G5G5G5G5G5G5G5G5)8)8)8)8)8G5G5G5)8F5F5F5F5F5F5F5F5F5F5F5F5F5F5)8F5Y7Y7Y78676x4a1S%M486F5Y7v4R%5!|!4#!!x!!(1%G##!##G ^!y Z <$Z j y 9!G $ 5!FIf>u$y!:!;$) i l%8#c!u#} 9$u!6#')')6!O#L%{!R#k F%;!V#7###0 <$y ^!^!9!9!9!$ Q!0 0 K%y!|!W!M!!!+ }!x!7#c!u#f & 0$.%a!p&6!O#L%{!7!A$k F%W q#% 0 <$Y / ^!^!9!9!$ 5!Q!5!]!u$o2y!Q#z ;$4*Z'[+/?c!>!#!W#u!6#')p&T!L%.%7!A$k F%F%P#q#% $ Y M / ^!9!9!9!$ 5!5!0 u$|!K%y!v#X ~ i t!8#`!G#} #!W#/%#(')                      ",
"    rQ                                          O#c/sQ3!f MPtQ3H9.`I}!;$!!U$-$X#uE>&>&x$|(B=D'1 1 * 9!# z o&>>s'c!?$& EQABu!n$S#6!uQyDa..%5$3!f C&o$P!##x!}!;$e z T#v#|!W$K%K%W$! # ! ! # ]!r#i f!,%w!4$s#>!vQ- u!n$S#6#a!6!a!S#=$A$k 7$<#q$ #}!}!;$T#v#R!|!! ]!# ]!* ^!^!G # Q#z![!s$# G $ G G 9!M j $ z U!M%r# !R%a1v476R%S%M4a17686Y7Y7Y7)8F5F5Y786x4T%[&<$9!r#R!X + M%q$3%7#K 7$R#p&6J6J6J6J6JZ(L%J w#W N!`!1$S!-*j%v$k%2%!#b!J%P!J%J%b!3%!(Q%8#j%-)q&1$1%`!F%R#B&B(6J6J6J6J6J5J$(| <!Y$V#v$U!G%N%x!##% t!f!2%q#X!c!7$. p&6J6J6J6J6J6J6J6J6J6J6J6J6J6J6J6J6J6J6JIJ%(6!J h ?$4$( { t$G%x!z!+ e X L :!:!T#!!~ +  #t!b!q#$&W %&%&%&%&%&>$Y$c!w!.$+'j)s$##) i !!:!_!W!K%r#0 $ / <$4!8!M47686Y7F5)8w487878787w4w4w4w4G5)8)8G5G5G5G5)8)8)8)8)8)8)8)8)8G5w4w4w4w4w4G5)8)8)8)8)8)8)8G5G5G5)8F5F5F5F5F5F5F5F5F5F5F5F5F5F5F5F5F5F5F5Y7v476x4T%T%x486F5)8H q$$&F%D&J 8$g | {!7#M!5!Y y y Y j Z j Z H (KwQfQN#x!t$k D&>!f n!' O#Y!| 6#T!' n!9$G#;!o$-%;$;$~ N#M!W!# 5!Q!0 Q!1 $ 9!9!G ^!$ L HG5El%v$1%k ( } 8$' O#6#a!6!6!T!Z!6$G#;!o$q$) ;$;$e :!V!# 5!Q!Q!0 Q!* 9!^!^!/ Y >HE+W>}!Q%K k D&>!f n!' S#L%| 6#N$0%5#s#?$c!q$) ;$;$~ N#:!V!]!Q!Q!5!5!1 $ 9!^!^!Y 1 :!W>xIx!&(K G#>!f n!' O#Y!L%| Y!' 5#                      ",
"    [5                                          |$~,3$xQyQzQl%{Q*$m#B=|,^)^)Q!0 # E%_,|!%@|Q!!z e z!VQG%H%P#3(<,[ 8$v!p$#('):#S#t#8$9#U#w#3$P#S!&(l%K%9!* 5!Q!0 ]!# ! W$u$|!_!L N#;$+ z!l%-%q$-*N!{ M#- 0%| N$p$=!6#| {!J U#W#& :$h(8#3%% r#M G * 1 Q!0 ]!]!# # ]!# y!L Q#! W$z x!G%l%y!y!_!:!z e i e l%A&:$1%s$y!Z x48676R%S%M4a176v486Y7Y7)8)8F5Y78676M48!H / # y!:!~ x!s$J%&(u'o$h 6!6J6J6J6J6J5JA(0%W#C&3$V#w!1$X!t$+'H%q#v$&(Q%k%Q%Q%&(8#j%-)-*t$h(o$w!N!3$#!u!')Z(6J6J6J6J6J3)T!I <!3$.$3%s$-%l%}!+  #% s$!#Q%,%$&C&3!:#q+IJ6J6J6J6J6J6J6J6J6J6J6J6J<J7JJ)3)@(X$T!p#I%;!, { W#G#2%##+ ~ N#L v#4#R!4#M!:!L T#X e z!-%P!,'2%,',',','3%[!J%J%q$N%##i X L :!Q#4#W!u$# 5!G M j N 8!M47686Y7F5)8G5878787|8|887878787w4)8)8G5G5G5G5G5G5)8)8)8)8)8)8)8G5G5G5G5G5G5G5)8)8)8)8)8)8)8)8)8)8)8F5F5F5F5F5F5F5F5F5F5F5F5F5F5F5F5)8)8F5Y7v476x4M4T%M4x4F5w4Z u'. u!6#p&'):#6!{!t$i 5!<$Y ^!1 ! V!Q#:!X x!8#}Qt$K & B&O#' 0%6#a!v!g J W#& w#P%h(8#,'% 1 ^!G 9!9!$ 5!]!]!Q!5!0 W$W!Q#T#z N###GE%Jr$1%h J B&O#/%6#6!S#.%5$9#;#& 7$X!q#2%% # s5^!G 9!* 5!]!]!0 Q!5!0 K%Q#T#X !!e M%7#}Q.$h J B&O#' 0%6#a!B&3!R#W#A$k c!v$P!O%! Y ^!G 9!9!$ 5!]!]!Q!1 Q!r#W!Q#T#z e M%7#h(t$K k J 0%' 0%a!6!v!g 3!R#} w#c!                      ",
"                                                j(57=>|Q~QQ#4#L4(#L4y!V!R!FL R!R:!Q#e f!;7P#?$>$E&0$I =$.%0%' B&' .%2$W#} } G#P#q#t!e i !!X T#:!v#R!K%W$W$y!V!R!_!v#:!X !!~ P!-)N!E&h D&0$I u!' 0%' n$u!Z!5$/$f G#7$K v$z!L z z :!_!R!V!|!! ]!# ! K%4#v#v#Q#L T#L ~ !(W 1%M%Q#v#_!_!X s$8#h(P#~!D&W#;#9#t#v!5$C&k%0 86v4a1[&8!M4x476v486Y7F5)8)8)8F5Y7v4a1S%4!Y 5!W$R!X + t!G%3%,%q&~!0%2)7J6J6J6J<J5JB(N$5$& ~!%&N!w!1$<#S!X!h(h(q&r$r$r$r$q&h(u'.$1$1%V#7$G#R#g A(5J<J6J6J6JIJq+N$( ;!>!, q#o&l%z!) e N#e + -%P!!(j%$&G#[ g a!J)6J6J6J6J6J6J6J6JIJ=Jq+%(u([(:#L%p#;#6$. 3!n!{!/$k <#s$~ z M!4#y!u$r#! r#u$y!R!_!Q#L z N#e ~ ;$) ) + + ) ) ~ i e N#z L M!_!R!|!! 0 1 G M j  !4!S%a17686Y7F5)8G5w487w4w48787w4w487w4G5G5G5)8)8)8)8)8)8)8)8)8)8)8)8)8)8)8)8)8)8)8)8)8)8)8)8G5G5)8F5F5F5F5F5F5F5F5F5F5F5F5F5F5F5F5F5F5F5F5)8F5Y7Y7Y7v476a1T%8!M4)8M9 !<#9$9#5#M#9$>!G#F%k%;$! y Z ]!##v$V#~!u#6$/$g n${!- - 8$3!9$I%G#4$1%v$N#:!L M!v#R!V!W!K%]!0 ]!! W$K%y!W!4#Q#v#N#o&q#`!4$, <!M#u!B&g {!t#u!5$3!A$u#F%w!7#z!:!L L M!4#W!y!u$]!^)5!0 ! r#u$W!4#v#Q#v#N#,'`!4$, <!U#5#u!B&{!g {!5$3!9$I%G#F%t$+ Q#L L M!_!V!y!K%]!Q!0 ]!uEPIK%y!V!Q#Q#_!N#G%j%w!7$s#6$/$)'B&g Z!{!- 5#f >!s#7$$&Q%~ 4#Q#v#R!                      ",
"                                              lGcO#Ry!|!w)W$r## 5!$R!!t!J%Q%-)1%W)>!%R2$n$v!Y!O#T!N$v!' u!3!k >$>$.$G%% % x!z!~ T#4#y!y!|!K%K%u$! # ]!Q!# !!t!J%&(+'1%h f 0$=$B&O#a!6!6!O!T!t#{!9#G#K 3%M%-%M%##+ ~ z Q#|!r#W$r## ]!0 Q!5!1 $ ^!]! #j%.$1%%&s#f 7!n!t#6!{!3$J%|!R!&(4$O t#' v!N$6!O!a!S#{!- W#1%O%$ 76v4a1[&R%S%a176v486Y7F5Y7F5)8F5Y786x4T%R%Z G ]!|!Q#e z!-%U!v$1$4$A$- @(6J6J6J6J6JIJq+?(O!p#u#>$P%P%N!V#P#c!`!w!1%w!w!w!w!`!c!P#P#V#;!5$N$#(u(5J6J6J6J6J6J3)6#5#~!?$A$G#k%l%}!~ z L :!T#e % f!,'7#<#7$u#( 2$$(6J6J6J6J6J6J6J<JJ)#(N$B&g g u!n$B&' | 6#')6#I h r$q$i :!_!y!r#]!5!1 * * 5!0 ! W$|!W!R!_!v#M!:!L L T#T#T#T#:!Q#v#_!R!W!|!W$! 5!G ^!y j  !4!R%S%x476v486Y7F5)8G5w4G5w48787w4G5G5G5G5w4)8)8)8)8)8)8)8)8G5G5G5G5G5G5G5G5G5G5G5G5G5G5G5G5G5)8F5F5F5F5F5F5F5F5F5F5F5F5F5F5F5F5F5F5F5F5F5F5F5F5F5F5F5F58676x4M48!a187}9a1T###N#:!v#R!y!X [!b!N% #:!]!+ E&- v!S#O#N$O#n$9#s#V#-)-%;$~ e N#X :!R!]!]!# ! # ]!Q!1 * G M Q!:!##q$!(j%1$u#6$J =$B&S#Y!O#Y!Y!B&9#s#3$?$.$f!;$~ e z L 4#r#0 ]!# # 0 5!$ G 9!^!y 0+RF5Ex!&(K C&& 6$J {!S#Y!O#Y!6#Y!B&/$F%u'v$N%) ;$i N#X _!! 0 ]!# ! # ]!Q!* $ 9!M Q!:!##q$!(q&C&A$U#[ p#B&S#T!S#L%' .%5#G#N!S!&(% i N#z L v#y!0 * Q!0 Q!                      ",
"                                              o2R.o2:PZJ|Qi  #Z&Z&G%,%K %&C&>!0$/%,!O#=!=!Y!L%0%Z!W#>!h ~!c!v$P!J%x!W$# r#r#W$u$|!V!V!V!M!:!M!L N#+ x!l%-%H%K %&C&>!0$.%6#=!p&O!v!' B&Z![ & , ;!N!H%M%y!* Q!]!# # ! r#W$u$u$W$K%4#:!T#X i z!% ##o&S!u#W#J n!B&N$p&8*X$6#O V#o&# 4#h(6$O!p&a!L%.%t#5$;#I%7$%&.$U!M!M M4x4M44!R%S%M4x476v486Y7Y7F5)8F5Y78676a1S%H / 5!W$4#X ) l%o&k%c!:$3$& O!7J<J6J6J6J6J6JIJq+X$5#& >!;!3$%&W Y$P%N!N!N!P%W 3$7$4$~!s#>!. :#q+IJ6J6J6J6J6J<J5J')2$& G#k G#%&[!z!;$!!L Q#v#M!z }!o&!#v$X!>$~!~!W#B(6J6J6J6J6J6J<Jq+#(a!v!n$u!n$L%N$=!A(@(A(:#Z!u#<#P!) M!R!y!r#Q!* 9!^!/ / 9!$ 1 Q!# r#W$K%V!4#4#_!_!_!_!v#_!R!V!y!|!u$! ]!5!* 9!y j  !N [&8!T%a176v486Y7F5)8G5G5G5G5w4w4w4w4G5G5G5G5G5)8)8)8)8)8)8)8)8)8)8)8)8)8)8)8)8)8)8)8)8)8)8)8)8)8)8F5F5F5F5F5F5F5F5F5F5F5F5F5F5F5F5F5F5F5F5F5F5F5F5F5)8)8F586v476a1S%x4M9S8Y7j Y M4Y786v486<$T#}! #i Q#]!##{ n$u!0$} } I%~!1%&(O%T#$ Y / ^!9!G * Q!# ! ! # ! |!4#L N#;$;$-%q#1$>$, <!;#/%N$6#O!a!v!{![ U#} w#c!v$P!J%### Y 9!G $ 5!0 ! ! # ]!# K%R!M!z i ;$~ -%-)r$1%h M#.%T!N$6#a!v!{![ U#U#& w#c!!#+ _!* y ^!9!G $ 1 # ! ! ! # ! |!4#X ~ ) ;$-%GE1$>$, f .%T!N$6#6#T!| {!;##!G#, P#v$O%) 4#^!M / / ^!9!$ 5!Q!Q!5!]!                      ",
"                                            P.E%0 5!u$N#G%,%w!E&2+U#5$n$' L%O#N$6!a!S#t#5#A$k 7$<#N%z!z!}!;$z T#X :!V!W!V!W!|!K%u$W$r#f>W>% }!O%j%P#G#& A$n!n$0%| O#T!a!6!N$.%7!k >$%&.$J%##z!Z7SFe :!V!|!y!y!K%K%u$r## ]!Q!* r#+ J%Q%-)1%h f U#J {!S#6#a!a!6!Y!.%Z!O G#S!z!W$G W!!#:$.%t#M#, P%P%h(s$e z T#_!! G <$8!M4T%4![&8!T%a1x476v486Y7F5)8)8F5Y7v4x4T%4!y $ # y!M!e z!-%2%N!3$u':$' 2)7J6J6J6J6J6J<JIJ%(A(X$| #!?$3$%&>$>$W W W >$4$G##!D&. {!S#p$%(IJ<J6J6J6J6J6JIJ2)| s#4$. 9$c!&(M%) N#:!_!R!R!_!L + s$b!Q%h(?$, 3$D&@(6J6J6J6J6J<JIJt*{!S#p$[(?(B(&)$(2)2)u(N$;#:$t$J%) :!4#u$# 5!G / Y j Z Z Y M ^!G $ 1 0 # r#u$u$K%K%K%K%|!K%W$r## ]!Q!1 $ 9!/ Y  !N 4!R%S%M4a1x4v486Y7F5F5)8G5)8)8)8G5G5G5G5)8)8)8)8)8)8)8)8)8G5G5G5)8F5F5F5F5F5F5F5F5F5F5F5F5F5F5F5F5F5F5F5F5F5F5F5F5F5F5F5F5F5F5F5F5F5F5F5F5F5F5F5F5F5F5F5)8F5Y78686v4x4T%76R8S8)8M4S%T%T%R%R%8![&Y Q!Q!M j Y :!h(;!`!x!:!!!N#z L _!W!u$0 Q!0 0 5!1 * * 1 $ 9!M 5!L N%7#1$F%u#9$n!.%/%v!Y!6#N$t#8$9#6$C&.$G%)  #) N#M!_!v#V!! 0 ]!Q!5!5!5!1 * 9!/ G :!-%8#o$?$w#u#9$@&t#' O#6#O!T!t#8$;#C&.$G%) }!}!) N#v#W!u$]!Q!]!]!0 Q!1 5!1 $ 9!M 5!L N%t$3$w#{ 6$?-.%/%S#a!:#T!n$I 6${ E&o$t!;$) ;$N#M!R!y!r#5!5!5!* G 9!9!G 9!M Z *                       ",
"                                            9+l%-%O%[!+'V#u#M#g _#L.X$p&O!N$v!g 0$W#& C&P%h(8#3%##0 $ Z$1 Q!# r#W$u$y!y!R!M!z ~ }!% l%U@-*.$S!`!G#7!/%6#O#=!X$N$S#L%{!J 6$A$C&`!v$P!J%x!K%$ 0 ]!# r#K%W!V!W!V!Q#M!L e + z!##z!o&q&%&C&>!0$.%6#:#p$=!| B&n$- J D&E&?$V#&(z!# y 9!u$;$7#{ , $&j)f!q$ #0 <$j  !H N 4!N [&S%T%8!R%8!T%a1x476v486Y7F5)8)8F5Y78676M4[&j ^!5!W$4#X ) x!P!.$P#1$%&M#v!u(<J6J6J6J6J6J6J6J6J6J$(n!9$f } } } A$A$A$A$W#5#5$5$B&')2)IJ6J6J6J6J6J6J6J<J2)S#3!~!~!3!U#t$O% #N#L _!W!|!y!R!Q#~ -%P!!(A&W 4$P%>!t*6J6J6J6J6J<JIJp&M#=$6#3)6J<J7Jq+u(X$B&;#P%8#o&) :!V!|!# 1 9!M j  !H N N  !<$Y M / ^!G * 5!0 0 0 0 0 0 ]!0 5!1 * G 9!^!M Y Z H 4!R%8!T%a1x476v486Y7F5)8)8G5G5)8)8)8)8)8)8)8)8)8)8)8)8)8)8)8)8)8)8)8)8F5F5F5F5F5F5F5F5F5F5F5F5F5F5F5F5F5F5F5F5F5F5F5F5F5F5F5F5F5F5F5F5F5F5F5F5F5F5F5F5F5F5F5)8F5Y7Y786v476M47687M9G58676M4T%S%4!y G 0 L L ! ^!Z ]!x!b!% Y v4S%4!H Z / G * Q!0 Q!# K%R!L z z + ##% f!H%c!s#. - B&S#:#=!O#' u!8$U#C&%&c!h(k%z!0 <$y ^!G * 1 * 5!]!# # |!R!v#M!L !!) }!t!q#c!s#. 8$.%' S#:#T!/%t#8$M#( C&%&o$k%z!0 <$Y / ^!G 1 5!Q!0 ]!0 ! |!R!Q#T#N#+ ##% f!H%c!( 5$t#.%| :#=!Y!B&I ;#A$k Y$X!7#2%% G y / ^!9!$ * 1 1 5!1 0 W$W!Q#L :!T#;$}!o&                      ",
"                                          1$W { U#/$=${!B&S#a!X$(/4+.%5$3!9$w#1$o&l%x!}!;$!!T#:! RW$7 7 ! # ]!]!# ! ]!1 u$e f!,%w!4$s#} =$.%t#B&S#6!#(8*N$n$I 9$G#;!o$P!z!##}!~ X :!L Q#y!u$|!G'7 ! ! r#! 0 OPHG85O%H%w!4$h { 6$- 0%| O#T!a!6!O!T!8$w#W >$<#q$) ~ i N#Q#y!0 1 5!0 ! T#b!##T#v#4#_!W!]!1 * M Z N 4!N 4!8!M4x48!R%T%x476v486Y7Y7F5)8)8)8F5Y7v4x48! !y G ]!|!Q#N# #-%,'h(, G#Y$u#a!<J6J6J6J6J6J6J6J6J6J5J[(p$X$X$X$X$X$X$X$X$p&A(t*t*&)q+7J<J6J6J6J6J6J6J6JIJ')D&;!( . [ { ,%M%e :!_!y!W$! r#|!4#N#l%f!3%j%1$V#N!D&@(6J6J6J6J6J6J<Jp&f #!O A(<J7J%([(Y!. Y$t$j)O%e Q#4#y!r#1 ^!Y <$N 4![&R%R%4!N H <$Z Y y M / 9!9!G G G G $ G ^!^!/ y Y j <$H 4!R%8!T%M4a1x476v486Y7F5)8F5F5)8G5G5G5G5G5G5G5G5G5G5G5G5G5G5G5G5)8F5F5F5F5F5F5F5F5F5F5F5F5F5F5F5F5F5F5F5F5F5F5F5F5F5F5F5F5F5F5F5F5F5F5F5F5F5F5F5F5F5F5F5F5F5F5F5)8F5Y786v476x4a1a1v4F5G586v486)887S%u$;$,'V#P#v$+ G N G 0 1 j <$Y y y M 9!G ^!/ M y 5!:!-%q#q&u'C&9$7!8$Z!B&S#N$T!L%B&t#9#s#V#S!&(% i N#z L v#y!0 1 Q!]!0 Q!1 $ G 9!^!* L % q$j)H%$&w#A$;#p#' S#N$6#Y!L%B&8$G#N!S!&(-%;$i N#T#v#y!]!5!Q!0 ]!0 5!* $ G 9!M Q!L x!3%,%$&C&9$7!8$Z!B&O#6#S#{!=${!5#{ $&O%z! #;$N#L Q#_!y!Q!Q!0 Q!Q!5!* $ 9!M j * Q#M%7#r$-*o${ 7!8$                      ",
"                                          3O5#' 6#')A(')O!v!n$=$J A$k ?$P#S!&(t!]!$ * 1 5!Q!Q!0 ]!FIr#u$V!Q#!!i i ) l%N%[!-*N!{ M#p#' S#X$')X$a!v!.%n!7!6$k W S!q#2%l%u$^!$ 1 5!0 ]!# ! W$u$O.N7O0xIHG #z!##q$&JeNc!u#M#p#' L%T!=!N$S#L%{!J 9$6$( %&&(U!P!##! M 9!9!^!9!$ * 1 5!1 G W$e Q!Y 9!* * 1 Q!Q!1 0 W$W!u$/ 4!8!a186S%R%T%a1x4v486Y7Y7F5)8)8)8F5Y78676T%N j ^!1 r#V!L i ##-%q#s#D&c!>$/$6#3)IJ6J6J6J6J6J6J6J6J6J6J6J6J6J6J6J6J6J6J6J6J6J6J6J6J6J6J6J6J6J6J6JIJq+t*g , , O 8$#!`!,'z!T#4#y!r#]!0 ]!W$V!z % o&b!&(r$K W } A(<J6J6J6J6J6J6Jp&D&F%( ' X$a!| {!0$Y$3%t!% ~ _!|!K%W$5!/ j  !4!R%8!S%T%T%8!R%[&4!N H  !<$Z Y Y y y y y y y j j Z  !H N 4![&8!T%M4a1x4x476v486Y7F5)8)8F5F5)8G5G5G5G5)8)8)8)8)8)8)8)8)8)8)8)8)8F5F5F5F5F5F5F5F5F5F5F5F5F5F5F5F5F5F5F5F5F5F5F5F5F5F5F5F5F5F5F5F5F5F5F5F5F5F5F5F5F5F5F5F5F5F5F5)8F5Y786v476x4a1M4T%7687G5M4M 0 W$!!2%.$C&O 3!~!k%0 76x4a1S%H j Y ^!Q!# ! K%:!;$+ ;$M%7#c!u#f U#t#6#')')6!O#L%{!. #!G#E&P#8#s$+ _!9!M / / ^!9!$ 5!Q!0 Q!]!u$R!:!!!i ;$x!q#1$>$, >!M#n$^'V$6#T!| {![ f #!G#%&8#O%) 4#$ j M / / 9!$ Q!]!0 Q!5!]!y!:!!!~ ) ;$-%q#$&F%I%0$t#6#')')6!O#.%7!A$k F%F%P#q#% $ Y M / ^!9!9!9!$ Q!0 Q!5!0 W$V!Q#X e i t!8#`!G#} #!R#L%#(')                      ",
"                                        xFv66!O!T!n${!Z!3!h V#-*q$t!% z!+ ~ z Q#K%W$r#! # ]!0 Q!>HZ-9!# X s$,%S!q&1%#!/$5${!B&S#6!p$p$6#n$=$/$U#h 1%3%M%t!##+ e z T#v#u$! r#! ]!Q!5!Q!Q!5!* 0 j(3H>>1$P#:$G#W#=)t#B&S#6!p$p&O!O#- 9$G#;!o$U!}!% ##;$L Q#M!4#W$]!# ]!* ^!/ M / ^!* ! L t!W$y G * $ G 9!M / 4#l%j%2%K%4!8!M4v48![&S%M4a17686Y7Y7F5)8)8F5Y786v476M4R% !y G Q!u$_!X ) l%Q%?$#!D&G#>$h N$=J6J6J6J6J6J6J6J6J6J6J6J6J6J6J6J6J6J6J6J6J6J6J6J6J6J6J6J6J6J6J6Jq+#(t#>!} I S#5$`!J%% e :!y!r#0 5!1 5!# |!L }!N%U!!(,%1$F%. =!=J6J6J6J6J6J6Jp$I%:$, & } u#, 4$V#j%l%i !!L R!K%! Q!^!Z H [&8!T%M4a1x4x4M4T%S%S%8!R%[&[&4!H  ! ! ! ! ! ! !N N N 4![&R%8!S%T%M4a1x47676v486Y7Y7Y7F5F5F5F5)8)8)8)8)8F5F5F5F5F5F5F5F5F5F5F5F5F5F5F5F5F5F5F5F5F5F5F5F5F5F5F5F5F5F5F5F5F5F5F5F5F5F5F5F5F5F5F5F5F5F5F5F5F5F5F5F5F5F5F5F5F5F5F5F5F5F5F5Y786v476x4a1S%a187R8Z % A&3$( /${!' a!0%R#S!W$86x4a1x4T%S%T%&R'R(RX z!A&k ( I%f 2$n$S#6#a!O!T!' n!U#u#~!o$-% #+ ) e :!4#W!u$0 5!1 * G 9!9!G 9!M Z $ M!-%7#$&?$k & n!.%/%S#6#6!O!dGp#6$u#;!.$G%;$) ) i :!R!y!W$0 5!5!1 $ 9!9!G 9!/ y Z $ ) 7#$&?$w#{ 6$n!.%| N$6!O!T!' n!U#u#N!q$) ;$;$~ N#:!V!]!Q!Q!0 Q!1 $ 9!9!G ^!M j * M!M%v$o$F%u#6$8$' O#Y!L%v!N$0%5#                      ",
"                                      O!v!' u!7!A$w#F%;!V#q#f!~ u$0 ]!# # ! r#W$K%W$K%R!v#:!T#X e z!##G%H%V#<!9$& ;#| A(t*#(O!v!n$g 8$R#h :$P%.$7#N%W!* Q!0 ]!# # ]!# ! r#W$W!v#X N#!!i z!x!O%,%V#{ R#7!5$0%6#p$X$a!v!.%n!7!;#A$4$S!q#2%x!W$/ G * * 5!Q!0 ]!# # ]!# |!Q#L X :!y!W!X z!O%L y!_!M!:!z ) + }!&(`!>!~!b!R!j x476R%[&S%M4a176v486Y7F5)8)8F5Y7Y786v4x48!4!<$M $ # y!v#N#z!J%X!E&J ;#>$>$I a!t*J)6J6J6J6J6J6J6J6J6J6J6J6J6J6J6J6J6J6J6J6J6J6J6J6J6J6J6JJ)@(a!.%J <!=$L%t#& 8# #N#L _!W$Q!* G 9!$ 0 u$M!+ M%f!,'7#<#F%9$/%2)6J6J6J6J6J6Jp$<!%&>$%&N!.$t$,%v$q$;$L Q#R!|!r#Q!G j H [&S%M4a1x476v4v476x4a1a1M4T%S%S%8![&[&[&[&[&[&[&[&R%8!8!S%S%T%T%M4M4a1x4x47676v4v4868686Y7Y7Y7Y7F5F5F5F5F5F5F5F5F5F5F5F5F5F5F5F5F5F5F5F5F5F5F5F5F5F5F5F5F5F5F5F5F5F5F5F5F5F5F5F5F5F5F5F5F5F5F5F5F5F5F5F5F5F5F5F5F5F5F5F5F5F5F5F5F5F5F5)8F5Y786v476a1S%M4|8X:M !(k p#a!X$=!T!| 5$D&-*0 76j 1 r#|!V!O- #)R&JA&$&( n$O#' /%O!:#S#.%I ;#A$k W S!j%!(x!1 / 9!G $ * 1 5!Q!Q!1 Q!r#W!Q#L :!T#;$}!s$j%c!G#;#5$t#/%:#=!Y!B&5$9#;#& 7$X!7#,'##0 <$Y / 9!* 1 1 5!Q!Q!1 Q!K%Q#L :!T#~  #}!s$X!G#;#5$t#.%| :#=!L%5$9#;#A$k W S!j%G%! Y ^!G 9!9!* 5!]!0 Q!5!0 W$W!Q#L T#~  #z!G%j%c!s#;#- .%L%a!6!v!g 3!R#f w#c!                      ",
"                                    W#s#w!b1,%l%!!N#N#.+j(L Q#4#y!y!R!4#R!_!M!L X T#) P!7#q&$&P%C&M#n!p#.%' B&B&n$g n!3!0$U#G#c!A&&(U!+ e e N#z L v#W!|!y!V!R!V!V!_!M!_ _ g0f!,%V#:$%&E&W#5#8$.%' B&n$.%g =$/$9${ F%`!j%l%N#e e X M!_!4#y!r## ! r#K%R!4#R!4#M!:!Q#e ,'w!F%u#F%+'b!f!N%N%v$t$X!1$V#E&W#3!7!{!0%v!g 9$h(r#Y776[&4!8!M4x476v486F5)8)8F5F5)8F5Y786v4a1S%[&<$M $ ]!K%Q#N# #O%-*I%O n!3!D&A$5#6#@(&)2)=J<J6J6J6J6J6J6J6J6J6J6J6J6J6J6J6J6J6J<J=J3)&)B(O!2$W#9$M#n$N$8$>$&(-%e :!R!W$1 ^!y j Y / * # 4#i % s$[!&(q&W w#;#A(6J6J6J6J6J6Jp$>!>$P#1$h(H%j)J%s$z!!!Q#V!u$]!* / j 4!S%M4a176v486Y7Y7Y78686v4v47676x4x4a1M4M4M4M4T%T%T%T%T%T%T%T%T%T%T%T%T%T%M4M4M4M4a1a1a1a1x47676v4v48686Y7Y7Y7F5F5Y7Y7F5)8)8)8F5F5F5F5F5F5F5F5F5F5F5F5F5F5F5F5F5F5F5F5F5F5F5F5F5F5F5F5F5F5F5F5F5F5F5F5F5F5F5F5F5F5F5F5F5F5F5F5F5F5F5F5F5F5)8F5Y78676x4a1S%x4}9I9<$O%c!9$/$W##!E&3$1%H%l%* Y 4#O%1$4$G#9$9#{!.%Z!- g 5$3!f ( } G#P#8#~ L L :!Q#4#V!y!u$]!0 *RPI$RPIu$y!4#v#4#z s$j%c!3$Y$;!0$- g {!g .%u!8$7!f } G#P#v$ #Q#:!:!_!W!|!K%r#Q!1 1 Q!r#r#u$y!R!v#Q#4#z 3%c!3$Y$;!6$O - g g .%u!8$7!9$( } G#h(}!:!L L M!v#4#V!K%]!Q!5!0 ! r#r#u$V!Q#Q#_!N#G%j%c!3$:$9$5#- g {!{!g Z!/$9$I%G#4$1%v$) 4#Q#_!V!                      ",
"                                    %  #N#X T#R!W!V!W!y!K%u$W$! 0 |!i ## #O%j%1%~!{ 6$8$.%' L%O#N$6!O!T!n$7!k %&3$1$o&% x!% }!e X :!v#V!V!V!W!|!u$W$r#! W$+RZ7SFN%7#`!n-|$& 2$n$v!Y!O#T!6!a!/%u!3!h N!u'7#q$l%% z!+ e L V!|!y!|!W$r#! 0 5!* $ G #  #j%h(-*o$C&A$6$J Z!| 6#p$L%9$<#!!V!,%7!0%' 0%v!6#p$p&T!u!n![ ( :$&(# 76a1[&N R%S%a176v486F5)8)8F5F5)8F5Y7Y78676a1S%[&<$M $ 0 y!:!!!~ x!b!`!=$=!L%O R#( & 0$Z!p&Z(IJ6J6J6J6J6J6J6J6J6J6J6J6J6J6J6J6J=Jp$5$M#. 0$/$- L%:#=!f `!k%t!!!_!V!K%5!/ j  ! !<$Y 9!Q!W!!!}!N%J%!(r$F%k h :#6J6J6J6J6J6J8*6$>$K S!-*7#2%q$t!~ M!V!r#Q!G y <$N S%a1x476v486Y7Y7Y7Y7Y7Y786868686v4v476x4x4x4x4a1a1M4M4T%S%S%S%S%8!8!R%R%[&R%R%R%R%R%R%R%R%8!S%S%T%T%M4M4a1x476v4868686Y7Y7F5F5)8)8)8F5F5F5F5F5F5F5F5F5F5F5F5F5F5F5F5F5F5F5F5F5F5F5F5F5)8)8)8)8)8)8)8)8)8)8)8)8)8F5F5F5F5F5F5F5F5F5F5F5F5F5)8Y7Y786v476x4T%v4X:R8v4Z 5!y!4#V!|!W!}!U!k%3%% Q#1 e >!' T!6#O#n$3!E<P0&#G%~ ~ ~ ;$e T#4#! # # ! # 0 5!* $ $ / Q!GGHG5Ex!&(K G#>!f n!' O#Y!L%v!N$0%5#s#?$:$o$f!;$~ ~ N#:!V!# Q!0 0 Q!5!* G 9!G ^!y 5!z 5Ex!Q%K k D&>!f Z!O#Y!L%v!a!N$0%5#, :$o$f!;$;$;$;$e Q#r#]!# # # ]!0 5!$ $ 9!M 0+GGHG5Ex!,Rk D&>!f n!' O#Y!| 6#N$0%5#G#P%<#v$x!~ e z L v#y!0 1 5!Q!Q!                      ",
"                                    ]!# ! W$u$W!V!W!V!Q#X ~  #}!% jDoQP eN`!G#0$g L%T!=!p$6!T!| g ;#6$( w#P#8#J%b!l%! Q!]!# ! W$K%|!y!W!W!R!M!z ~  ###x!O%~?<#X!w!s#J B&Y!S#=!=!Y!L%0%Z![ f u#~!c!7#G%z!T#W$Q!! W$W$u$K%y!W!y!V!v#_!Q#X ~ }!## #O%X!u#} D&. .%N$a!O!O!| n$t#3!E&v$W$* v$t#@(p$N$L%t#p#5#f ;!P%$&A&2% #* S%M48![&R%S%a1x476v4Y7F5F5F5F5)8F5Y7Y7Y7v4x4M48!N Z M $ r#_!L !!e N#3%{ t#:#S#5$} >!f /$/%O!p$')8*t*?(&)$(3)3)3)u(B(@([(8*#(#(p$L%3!U#6$[ n$O!t*t*u!c!2%O%) Q#|!K%! G j  !4!4!H Z / 1 K%T#) M%q$!#A&F%w#F%a!6J6J6J6J6J6J?(/$3$.$q&-)v$,'f!l%e _!K%]!* / Z N R%M476v48686Y7F5Y7Y7Y7F5Y78686Y7Y78686v4767676x4a1M4T%T%S%R%R%[&[&4!N H H  ! ! ! ! ! ! ! ! !H N N 4![&R%8!S%T%M4a1x476v48686Y7Y7F5)8)8F5F5F5F5F5F5F5F5F5F5F5F5F5F5F5F5F5F5F5F5F5F5F5F5F5F5F5)8)8)8)8)8)8)8)8)8)8)8F5F5F5F5F5F5F5F5F5F5F5F5F5)8Y7Y7Y786v4x4T%76M987G5w487|887)8Y7M40 L % M%+ R!<$W$`!A$6$f I%~!!=-Rc.M%]!Z / 9!G $ 5!0 ! ! # ]!! K%R!:!z e ~  IGM%Jr$1%h J 0%' 0%a!6!v!g 3!R#f w#c!v$P!b!% ]!Z / ^!9!* 5!]!# ]!0 Q!W$V!M!X z N#?!a2-)r$1%h J B&O#' 0%6#v!g 3!R#W#& w#c!!(J%% # j ^!G 9!$ Q!! r#! ]!0 # K%R!T#!!e i -%q#%Jr$1%& B&O#' 0%6#a!v!g J W#A$k P#8#o& #v#G / ^!/ ^!9!* Q!0 Q!5!0                       ",
"                                  |!K%W$r#! r#! ]!5!u$e q$+'$&>$u#R#EQABu!n$S#6!p$O!O#t#8$7!f C&1$o&l%l%##) z L T#M!|!|!|!u$W$r#r#W$r## 5!K%i f!-)w!4$s#A$EQABu!n$S#6#6!6!Y!t#5#A$k 4$.$U!}!}!}!;$z :!Q#_!V!y!W!y!K%u$W$W$! 0 OPgQ+ -%7#`!h ( >!f - v!Y!O#T!a!6#v!B&I w#c!h(2%) W!5!G i 0$6#u!0$C&`!r$j)x!i z L _!|!0 y 4!S%S%8!R%8!M4a1x47686Y7Y7F5)8F5F5F5F5F58676x4T%R%H Z / Q!y!v#T#!!e x!2%N!n$[(8*6#/%t#p#I 7!R#0$9#8$u!/%O#N$6#Y!/%.%- n!/$7![ 9#=$n$L%Y!=!t*u($(T!E&&(N%i Q#R!K%# 1 y  !4![&[&4! !y G W$M!i x!o&J%H%>$7$:$6#6J6J6J6J6J6J2).%7$X!A&j%k%[!s$##z V!r#5!9!Y H R%T%x4v486Y7Y7Y7Y7F5F5F5Y7Y7Y7Y7F5F5Y7Y7867676x4a1M4T%S%8![&N H  !<$Z j Y Y y y y M M M M y y Y j j Z <$ !N 4![&8!S%M4a1x476v48686Y7F5F5)8)8)8)8F5F5F5F5F5F5F5F5F5F5F5F5F5F5)8)8)8)8)8)8)8Y7Y7F5F5F5F5F5F5F5F5F5F5F5)8)8)8)8)8)8)8)8)8F5F5F5F5)8Y7Y7Y786v4x4M4a1F5w4G5Y7v476a1S%S%T%[&N <$<$ !4!8!y L z T#X X L Q#V!y!W!]!5!0 ]!0 Q!5!5!1 G ^!y 5!:!-%7#<#N!k 9$n!u!t#' O#a!N$g 2$9#U#k 1$f!;$+ ;$!!Q#_!v#V!# 5!0 5!1 5!5!1 $ 9!M 9!M!M%8#u'1%>$w#R)=$t#' O#a!O!Y!g 2$0$k 1$f!;$ # #;$!!v#_!W!# Q!0 0 Q!Q!Q!5!* G ^!y 1 :!-%-*1%>$k 9$n!u!t#' T!O!Y!g 2$9#U#k 1$-%z!z!+ e :!_!V!u$0 Q!5!1 * $ $ G 9!M Z                         ",
"                                  W!_!L i ;$) l%N%O%[!-*N!{ R#O 0%6#p$#('):#S#.%O ;#& w#3$P#S!&(t!# * 5!Q!0 # ! r#W$K%K%y!_!L i ;$~ + t!O%[!-*N!{ M#p#B&O#X$p&=!6#v!g [ U#} C&P%h(8#,'x!W$^!$ 5!Q!]!! u$|!y!y!y!v#X ~  #}!z!##.R/R0Rw!s#J B&Y!| O#:#Y!L%0%Z!M#A$<!k P%k%t!e W!9!Y $ G u$7$. C&$&k%N%;$4#G / / y j <$ ! !H 8!a1M48!R%T%a1x47686Y7Y7F5)8F5F5)8)8F586v476a1S%[&H j G ! y!_!L !!e i !#A$Y!A(u(&)')O#Z!9#W#W#0$9#n!Z!t#B&' n$g p#2$/$7!J M#9#.%=!@(2)%(&)')v!;#-*-%~ Q#y!|!r#1 ^!<$4!R%8!8!R%N j ^!! v#N#z!N%q$&($&V#:$N$IJ<J6J6J6J6JJ)Y!4$r$-)7#!(P!-% #L |!]!$ M <$[&S%a17686Y7F5F5Y7Y7F5)8F5Y7Y7F5F5Y7Y78686v4x4x4a1M4T%8!R%4!H <$j Y M / ^!9!G $ * * 1 1 1 1 * * $ G 9!^!M y j Z  !N [&8!S%T%M4x476v486Y7Y7F5F5)8)8F5F5F5F5F5F5F5F5F5F5F5F5F5F5F5F5)8)8F5F5F5Y7Y7Y7Y7Y7Y7Y7Y7Y7Y7Y7Y7Y7F5F5F5F5F5)8)8F5F5F5F5F5F5)8Y7Y7Y786v4x4a1M476G5G5v4a1M4M4M4[&/ 5!]!r#r## $ H [& !M476M48!4! !y ^!G 5!0 Q!# K%R!v#M!X ) }! #O%q#`!G#U#9#B&N$X$=!T!L%n$5$6$w#?$P#S!&(% 0  !Y / 9!$ * $ * 5!Q!]!K%y!|!W!M!!!)  #l%7#`!G#U#0$I n$T!:#T!L%n$5$M#( w#?$1$&(% 0  !j M / 9!$ $ * Q!]!0 # |!W!V!:!N#) }! #s$j%c!#!M#I t#O#=!=!T!/%Y+O$( w#?$P#S!&(x!* M 9!G $ 1 5!Q!0 0 Q!]!u$W!4#v#M!X ;$)                         ",
"                                  u$!!G%+'<#o$h W#/$5${!B&S#6#6!O!T!n$Z!Z!3!G#o%p8a2t!% }!+ ~ z Q#|!u$u$W$r#! # ]!]!Q!$ r#!!G%,%S!q&1%#!/$=${!B&S#a!X$p$6#.%5$1RB'w#1$J%##x!}!;$!!T#L _!K%! r#! ! # ]!# # ]!0 # N#G%-)$&P#:$G#W#=)u!n$S#6#6!6!a!S#=$A$k 7$<#G%) + ) !!_!|!r#0 $ G 1 $ ]!,'q#x!L Q#4#W!K%# ]!Q!$ / Z N [&R%S%76768![&S%M476v4Y7Y7Y7F5)8F5F5F5F5)8Y786v476a1S%[& !M 1 ! y!_!L z N#x!A&u#5$A(5Jq+$([(p&6!T!S#| L%/%0%' ' /%| S#Y!6#O!=!p$#(?(2)J)7J$(N$5#;!h(P!e Q#4#y!r#5!9!Y N 8!T%M4T%8!4!Z / ]!4#z  #t!G%3%H%S!~!Y!q+IJ6J6J6J6J5Ja!7$+'H%v$,'q$t!) M!u$Q!9!Y H R%T%x4v4Y7F5F5F5F5F5F5F5Y7Y7Y7Y7Y78686v4v476a1M4T%S%R%4!N  !Y M ^!G * 1 Q!0 ]!# ! ! r#r#r#r#! ! # ]!0 Q!1 $ 9!^!M j <$H 4!R%8!T%M4x4v48686Y7Y7F5F5)8)8F5F5F5F5F5F5F5F5F5)8)8F5Y7Y7F5F5Y7Y7Y7868686868686v4v4v486868686Y7Y7Y7Y7Y7F5F5Y7Y7F5)8)8)8)8Y7Y78686v476x4M4T%G5w486v486)887S%T#!(h(P%>$1%3%Q!M4N H H  !j M / ^!^!M / M y 5!L % q$j)h(w#A$U#[ =$B&S#Y!O#6#Y!B&/$G#P%<#v$x!~ e !!T#v#y!0 1 5!Q!Q!5!* G 9!^!/ $ L HG5Ex!&(K w#A$;#=$B&S#Y!S#O#6#Y!=$G#P%<#v$N%) ~ e X v#y!0 1 5!5!Q!Q!1 G 9!9!^!y Q!T#) z!v$1%w#A$U#7!- ' O#Y!S#L%' .%5#u#P%d3p-) ;$i N#X :!R!]!]!# ! ! # 0 1 * 9!y 1 M!z!f!!(j%1$G#                          ",
"                                  G%,%V#<!9$W#.%O!A(t*#(O!v!' u![ & w#4$F%V#j%t!! 5!0 ]!# ! ! r#W$K%u$|!4#Q#L X !!;$x!l%q$,%V#{ f & ;#| ')A('):#S#B&g n!U#k ?$^,=,?#M%|!9!* 1 5!Q!0 0 ]!r#W$W$V!M!N#i e ;$% M%f!+'V#<!. 7!5$0%6#p$=!6#v!g [ U#W#& :$h(8#3%z!# Y / ^!M / / ^!^!9!9!G * y!G%-%# j G 5!]!# # 0 ]!r#K%V!V!|!Q!4!v476R%4!8!M476v4Y7Y7Y7F5)8F5F5F5F5)8F5Y786v476M48!4!Z 9!5!! y!_!:!X i N%X!w#8$T!p$@(2)J)J)3)B(A(p&=!6!6#6#O!p$8*t*&)%(=JIJIJ=Ju(A(O!n$M#4$&(M% #v#y!|!W$Q!G y  !R%M4a1a1M4S%[& !y Q!W!L ;$% O%P!2%+'~!.%A(q+6J6J6J6JIJ=!?$H%7#Q%!#G%x!~ v#r#1 / Z 4!8!M47686Y7F5F5F5Y7Y7Y786v486868686v4v47676x4M4S%8![&H <$j y 9!1 Q!]!! W$K%|!y!V!R!R!4#4#4#4#R!R!W!|!K%u$W$# 0 Q!1 9!M Y Z  !4!R%8!T%a176v48686Y7Y7F5)8F5F5F5F5F5F5F5F5F5F5)8F5Y7Y7Y786v4v486v476x4x4x4x4a1a1a1x4x4x4x476v48686v486Y7Y7Y7F5)8F5F5F5Y7Y7868686v476M4T%G5|8)8S%^!]!W$N#-*k . =${!5#Y$W!764!<$<$Z j Y ^!0 K%M!e ~ ~ -%q#1$>$, f .%T!N$6#O!a!v!{!0$U#& w#P#8#o& #v#G / ^!^!9!G * Q!0 Q!1 Q!W$V!Q#X e ~ Z&q#%Jr$1%h M#n$T!6#O!a!v!{![ U#W#A$?$8#o& #v#* Y / ^!^!G * Q!0 Q!5!1 Q!|!M!X z !!i -%q#%Jo$s#[ n$N$6#6#6#T!n$7!9$#!G#E&P#8#s$z * y ^!9!G $ * 5!# ! ! # r#y!_!L !!~ ;$M%7#1$>$, >!0$0%                          ",
"                                  6$8$' O#N$T!6!a!Y!L%t#7!k >$w!b!% ##z!## #N#M!y!|!|!K%u$u$W$r## 0 * r#!!t!b!&(+'1%>!W#7!=$B&S#N$T!N$N$n${!Z!3!s#N!u'7#s$% z!+ ~ !!M!y!W$W$! # ! # Q!5!1 $ Q!X s$,%S!r$K k U#2${!B&S#6#6!O!O!T!g 9#9$w#1$J%##l%x!+ !!L M!R!! 0 ]!0 $ / M y Y <$ !Z 1 + -)j)y!j ^!* 5!5!G Y * v#t!8#t$,%O%j 86x4[&4!8!M4x4v4Y7Y7Y7F5)8F5F5F5F5F5)8F5Y7v476x4M48!N Y 9!5!! |!4#:!X + 3%+'.$:$f {!')Z(5J7J=Jq+Z(%(2)3)3)2)Z(q+J)5J7J<J6J7JB(v!O { W o$8#t!N#L R!|!! Q!G y <$4!S%a1x4x4a1T%R%H Y 1 K%Q#e }!t!G%!#,%4$7!L%u(6J6J6J6J<Jp&%&8#v$j)b!s$##i 4#! * M <$[&S%a1v4Y7Y7Y7Y7Y7868686v47676767676x4x4a1M4T%8![&N <$Y M 9!* 0 r#u$|!V!_!Q#M!:!T#X X z z z z X X L M!v#_!R!W!|!u$r#0 * G / y Z  !4!R%S%a1x476v48686Y7F5)8)8)8F5F5)8)8)8F5Y7F5F5Y7Y786v47676x4a1M4T%T%T%T%S%S%S%T%T%T%T%M4a1x4x476v4v486Y7F5F5Y7Y7Y7F5Y7868686v4x4M4M4G5R8M9Y M%X!:$( 5$0%O#a!6!Y!<!M!v4[&[&8!S%T%M4j R!l%-*3$w#u#9$n!.%/%v!T!6!Y!.%5$/$U#w#o$N%z!z!+ i L _!V!u$0 0 0 1 * $ $ G 9!M Z $ Q#M%v$o$%&C&D&]'u!t#' O#a!6!Y!{!/$U#k 1$q$+ z!z!~ :!_!V!u$]!Q!0 0 1 $ $ G 9!/ y Z $ ;$8#u'1%>$k 9$n!u!B&N$O!O!T!n$I 6${ N!f!;$) >'Q-l -$4#|!]!Q!0 0 Q!5!* * 1 $ 9!M 5!L N%7#1$F%{ 6$2$.%/%S#6#6!                            ",
"                                  Y!X$X$N$v!n$7!9$#!s#, V#7#J%O%y!1 0 # ]!# ! $RNPNPW!v#M!Q#:!xIS,z!z!G%,%K 3$w#I%M#L%=!p$p&O!v!' 0%{!R#w#F%;!V#j%q$##T#! # ! # ! r#W$K%|!|!4#v#_!Q#X i }!##t!j%V#<!9$& ;#t#a!#('):#S#B&g 8$J A$~!V#u'v$M%|!9!* 1 1 Q!Q!5!Q!0 ]!0 ]!K%v#M!_!M!N#z V!4#t!7#!(e R!M!T#X N#}!##o&7#w!u#& h A&/ v4a1[&4!8!M4a17686Y7Y7F5)8F5F5F5F5F5)8F5Y786v476x4M4R% !Y 9!5!! |!4#Q#z x!O%O%!(1%u#O ' N$p$A(B($(2)Z(q+q+Z(%(3)u(?(A(p&O!Y!Z!9$7$-*!#f!x!N#Q#V!|!r#Q!G y <$N R%a176v476x4a1S%4!Z G W$R!X ;$% O%J%j%>$u#/$8*6J6J6J6J6J#(W k%j)3%q$M%}!N#V!]!G y  !R%T%x4v48686868686v4v47676x4M4M4M4M4T%T%S%8!R%4! !j M 9!* Q!# K%V!_!M!T#!!e i ~ ) + +  # # # #+ + ;$i N#!!X L M!_!V!K%! ]!5!$ ^!y Z  ![&S%M4a1x476v486Y7F5F5F5F5F5F5F5)8F5Y7Y7Y786v476x4a1M4T%S%8!R%R%[&[&4!4!4![&[&[&R%8!S%T%T%a1x476v486Y7Y7Y7Y7Y7F5Y7868686v4x4M4M4w4}9R8Y N%P%2$6!:#Y!/%.%Z!=$4$4#76<$! 4#:!X !!l%v$w!D&8$t#B&v!:#=!O#' - M#& w#?$V#S!&(x!1 / 9!$ 1 5!5!Q!0 0 0 ]!u$W!4#v#M!X ;$) N%7#`!h . 8$t#L%:#=!T!/%.%5$M#( ;!V#u'v$x!! Y / 9!G 1 5!Q!0 ]!]!0 ]!|!4#v#M!X ~ + ) N%h(G#U#M#I t#O#=!X$v!=$9#;#& k W S!q#o&0 <$y F+4%''* 1 5!0 ]!0 # K%4#L z z + ##% f!H%c!s#;#- n$| :#=!Y!B&5$3!                            ",
"                                  9#R#>!4$P#A&x!!!N#e N#X Q#_!4#|!u$K%|!V!_!M!T#X X 852Ry/j),%xQ<)l$J O t#0%' B&B&t#8$n!/$R#G#`!h(X!8#+ z z !!X M!v#_!R!y!|!y!R!_!M!L X z ~ b!Q%!(j%`!k . 9#9#u!0%' B&n$u!=$/$W#9$u#c!-*Q%q$}!N#!!X L Q#4#|!W$W$u$|!|!y!R!v#:!:!v#!!,'`!%&P%~!;#f $&[!)  #U!t$c!Y$>$W ~!J g n$n$B&0%{!0$K $ x4S%N N R%T%M4x4v4Y7F5)8)8F5F5F5F5F5)8F5Y7Y7Y786v476M4[&H Z / * 0 W$y!v#T#!!e ##P!Q%H%r$w!k f 3!5${!t#B&' n$g p#O 0$A$h >$$&+'k%P!x!~ z L Q#4#K%0 * / j  !4!8!M47686Y786v476M48!H / ]!|!Q#!!+ l%f!Q%o$u', 6#6J6J6J6J6J')P#[!!#P!N%##~ T#|!5!^!j N 8!M4x47686v476x4a1a1M4T%S%8![&[&R%R%[&[&4!N  !Y / G 1 # u$y!4#:!!!~ + z!x!M%-%O%o&f!f!f!f!f!f!G%G%s$O%-%t!x!z!+ ~ N#L v#V!|!r#]!1 G / Z N [&8!T%a176v48686Y7Y7F5F5Y7Y7F5F5Y7v476x4a1M4S%8!R%4!H <$Z j Y Y Y Y Y Y Y j Z  !H N [&8!S%M4a1x476v486Y7Y7F5Y7868686v476a1a1w4|8G5a1j z!s#2$& ;!N!.$t$-)q$u$H $ k%?$} /$5$Z!{!g u!8$9#M#R#6$G#`!-)P!e Q#Q#Q#v#4#W!u$# ]!]!]!! u$|!V!4#v#v#N#G%&(A&1$N!, ;#5#n!Z!t#n$u!n!9#;#6$G#`!-)j)s$N#v#v#_!4#W!u$]!0 ]!]!]!W$|!V!4#v#Q#v#N#[!A&1$N!, U#9#5#n!g n$g 2$7!M#. U#u#h( #Q#M!M!Q#_!V!|!W$0 5!5!5!1 Q!# u$V!v#Q#v#e f!H%P#:$F%6$O Z!u!Z!{!.%u!5#9$& } G#P#v$+ v#                            ",
"                                  M%x!}!) i z V!|!y!y!u$W$r#! # ]!Q!* r#!!G%,%1$Y$s#vQEQAB)'g53R:/uQ:#O#.%I 9$u#~!1$o&l%l%##) z T#X M!|!K%|!K%W$r#r#W$r#]!1 W$N#G%H%1%7$h A$5$t#u!n$S#6#6!6!T!n$9#k %&3$1$J%##z!## #e X :!_!V!y!y!|!u$r## ]!Q!* PI+RHGM%7#`!h D&<!} - S#Y!O#T!=!' D&A&v#N%w!/$O#S#v!S#N$p&p$N$.%/$& , Y$k%9!M4S%4!N [&8!M4768686Y7F5)8F5F5F5F5F5F5F5F5F5Y7Y786v4x4T%R%N <$Y ^!* 0 K%R!v#L !!i ;$) }!O%k%-)h(<#.$o$K 1%$&.$X!r$-*,%k%o&x! #) i !!L Q#4#W!u$Q!^!y Z H [&S%a17686Y7F5Y786v4a1S%4!Y 1 ! W!M!e }!l%b!r$Q%`!v!6J6J6J6J6Jp$1$o&G%s$x!+ !!M!u$* M <$4!S%M4a1x476a1M4T%8!R%[&4!H  !<$<$Z Z j j Y y ^!* Q!# u$V!Q#X e }!t!O%G%P![!3%2%!(!(k%Q%k%k%k%k%j)j)2%,'3%[!J%q$G%O%t!z!) e X M!R!|!r#0 G M j  !4!8!T%a1x4v486Y7Y7Y7Y7Y78686v4x4M4S%R%[&N  !Z y / 9!G * 1 1 5!5!5!5!1 * G ^!M y j  !4!R%8!T%M4x476v486Y7Y7Y7Y786v476x4M4v4Y7F586x4Z y!:!R!K%V!z z!o&f!N%z ]!3%~!.%:#0%2$9$G#P#o&i ) + ) e :!4#|!# ]!# ]!Q!5!1 1 1 $ 9!M 5!L N%7#1$F%{ 6$2$.%/%S#6#6!N$.%I 6${ E&o$G%~ ;$;$N#M!4#W!u$]!Q!]!Q!5!1 1 5!1 $ 9!$ L N%7#1$3$w#{ 6$p#/%S#6#6!6!Y!.%I ( ~!o$G%~ ;$) ;$N#_!]!1 5!Q!0 Q!1 $ 9!G 9!^!y Z $ M!-%t$?$k { 6$2$n$S#6#a!O!N$0%O G#?$7$$&-%;$~ ;$e :!W!]!                              ",
"                                  # ! r#W$u$K%y!y!y!V!_!:!e ~ ~ % t!l%q$,%V#{ R#5#' N$X$#('):#S#.%I 0$A$w#Y$S!j%j)M%! 1 5!Q!0 ! r#r#W$u$u$|!4#L e ;$~ ) l%N%b!+'V#u#0$- 0%S#=!p&=!6#v!g [ U#f k P#8#b![!l%|!$ 0 ]!# r#u$K%y!W!W!W!v#T#e ) }!##z!G%4R}Qw!s#J n$Y!v!O#O!| n$B&- M#u#V#3%r#}!$&{!A(O!O#/%g 3!6$I%~!P#A&k%[! #M S%S%[&4![&8!M476868686Y7F5F5F5F5F5F5F5F5)8F5Y7Y7Y786v4a1T%R%4! !j / $ ]!u$W!_!M!:!L T#z ) t!O%G%f!G%G%f!q$q$G%o&s$O%O%l%;$!!z X L M!v#R!|!r#0 G Y <$N [&S%a1x4v4Y7F5F5Y786v4x4T%R%Z G 0 u$4#X ~ + o&j%3%S!5#')%(IJIJJ)L%r$M%N%M%}!i T#_!! 9!Y  ![&S%M4a1x4x4M4S%R%4!N  !Z Y y M M / / ^!^!9!G 1 ]!r#y!4#:!!!;$}!M%q$b!3%j)&(8#j%H%j%,%,%H%H%H%H%j%j%q#7#8#&(k%2%3%b!q$O%t!##) e T#Q#V!K%]!$ / Y <$N R%T%a176v48686868686v476x4T%8![&N <$j y / $ 5!0 ]!! r#r#W$W$W$W$r## 0 Q!1 G ^!y <$H 4!R%T%a1x476v486Y7Y7Y786v476x4M4M4x48686x4x4Y7Y7x4a1N 1 V!!! ###X 1 ) ,%h } , P#t$&(O%5! !y / ^!9!* 5!Q!]!# ]!# K%4#T#z !!+ ##% f!H%c!s#;#- n$| :#=!Y!B&5$9#9$w#Y$X!7#2%% 0  !M 9!G * 1 5!Q!0 ]!# K%4#T#z X !!+ ##N%H%c!s#;#5$t#n$| O!Y!B&5$9#;#& w#Y$-*,'##Q! !y / ^!9!1 Q!0 0 0 Q!0 W$W!M!:!T#~  #}!s$j%c!& 5$t#.%| :#=!O#.%I ;#A$h V#v$J%!#l%1 / 9!9!G $ 1 0                               ",
"                                  W!y!|!y!|!W$! ]!Q!K%N#o&,%S!.$k f W#7!=$B&O#a!6!O!T!n$Z!Z!3!G#K P!N%M%%  #~ N#z M!|!K%u$W$r#! ! # ]!Q!$ r#!!G%,%S!q&1%#!/$=${!B&S#a!p&')N$.%5$3!9$w#1$J%##x!##) z L L v#|!W$|!K%W$r#r#W$r## 0 # N#G%H%1%7$h <!~LpQu!n$S#6#a!a!6#S#n!C&Y$W X!-%L Q#|!9!$ -%9$0%5#A$E&o$s$##z!;$!!M!R!y!# j R%S%8!R%[&R%T%x4v486Y7Y7Y7F5)8F5F5F5F5F5F5F5F5F5Y7Y78676a1T%8!4! !j M $ 0 ! u$y!R!_!Q#L !!i ;$) ) ;$~ ~ ~ ;$) ) ) ) ) ~ N#X L Q#_!V!|!W$]!5!G y <$N R%S%a1x47686F5)8)8F5Y78676M48! !/ 1 # y!Q#X N###!#,',%%&;#:#q+q+A(0$Q%##x!##;$z M!V!0 ^!j H [&S%M4a1a1M48![&N  !j y / 9!G * 1 5!5!1 1 5!Q!# K%V!Q#X i + z!t!f!3%j)&(q#,%-*r$h(X!X!X!h(q&r$r$t$r$r$r$A&+'H%7#&(j),'b!q$s$t!##) N#L _!|!]!1 9!y <$N R%S%a17676v486v4v476x4T%R%4! !j M ^!$ 5!# W$K%|!W!R!4#4#4#_!4#V!W!|!u$r#]!5!$ M j  !N R%S%M4a176v486Y7Y786v476x4M4R%S%86Y7a1S%8!R%N 4!4!H <$Z j Y j Y 5!|!T#N#L Q#4#R!y!Q!* 1 5!1 1 5!1 $ G ^!M Q!:!N%j%h(u'C&9$7!8$Z!B&S#N$Y!g p#{!5#{ $&P!}!}!;$N#L Q#_!y!0 * Q!]!0 Q!1 * $ G 9!* :!N%j%h(A&1$C&9$5#Z!B&S#N$6#S#g p#n!{ $&P!}!z! #;$N#:!_!y!0 * Q!0 0 0 5!* G 9!M j $ Q#M%H%-*o$, f [ 8$g ' Y!6#S#{!=${!5#{ K o&% ## #i :!v#Q#R!]!0 0 Q!5!1 1 *                               ",
"                                  4#5RL :!T#) l%M%x!G%,%V#{ f W#.%N$6!:#p$O!v!' g 7!A$w#4$F%V#j%M%r#Q!]!]!# ! ! r#W$K%K%y!4#Q#L X !!;$x!l%q$,%V#{ f & ;#| ')A('):#S#.%5$9#U#w#3$V#u'v$M%|!9!1 Q!0 ! r#! ! W$u$|!_!L e ;$~ ) x!-%q$+'V#u#0$p#' L%T!X$=!6#v!{!J 9$6$D&W j)G%f!) 9!S%N j M 4!4#1%s#V#t$j)##5!^!G G 9!^!M j Z  !4!8!M4T%R%R%T%a17686Y7Y7Y7F5)8F5F5F5F5F5F5F5)8F5Y7Y7Y7v4x4a1T%8![&H Z M $ 1 0 ! u$y!V!4#Q#M!M!:!:!M!Q#Q#Q#M!L L T#T#L L :!Q#4#W!|!W$# Q!* 9!M <$4!R%T%a1x476v486F5)8)8F5Y786v4a1S%N y G Q!W$R!Q#:!e N%Q%,%-*P%M#u!t#/$>$j)O%##;$!!:!4#K%1 M <$N R%T%M4M4T%S%4!H Z y ^!G * 5!]!! ! r#r#r#r#r#W$|!4#M!z ~ }!x!-%G%!#Q%7#,%-*r$X!<#o$K P#P%>$3$7$7$3$P%$&.$u'h(r$-*-)j%7#k%,'b!f!N%l%z!;$!!v#|!! 5!G M Z H [&T%M4x476v476x4a1M4R%H Z y ^!$ Q!# W$W!4#v#M!L T#X z z z X L :!Q#_!V!|!W$]!$ / Y <$N [&S%M4x4v486Y7Y786v476x4T%[&8!86Y7a18!4!N H / 5!W$y!R!_!M!W!y H N R%8![&H Z Y / * 5!1 0 W$|!K%W!T#+ }!) -%7#c!u#f U#t#6#')')6!O#L%{!R#k F%F%P#q#% 0  !y / ^!9!9!9!$ 5!Q!0 Q!]!u$R!:!!!~ ) x!7#c!u#f & ;#t#6#p&6!O#L%{!7!A$k F%W q#% 0  !Y M / ^!9!9!$ 5!Q!0 0 Q!]!|!Q#X i ~ i t!8#`!>!#!R#t#a!')p&T!L%.%7!A$k F%;!V#j%x!1 M 9!$ 1 5!5!1 5!0 0 # K%NPK%y!                                ",
"                                  [-6R6K7Ks$S!G#& #!6$8$' S#T!T!6!6#S#0%t#3!k >$1%J%##z!z!## #N#:!W!y!y!K%u$u$W$r#! ]!1 W$!!t!b!&(+'1%>!W#7!=$B&S#N$T!N$N$n${!{!9#G#K 3%-%M%% }! #;$!!M!y!W$u$W$r#W$r#]!0 Q!1 ]!z s$,%S!q&1%h W#2${!B&S#a!X$X$O!O#{!/$6$w#1$U!}!z!}!e _!W!W!W$G y M / / j 0 ) t!e M!Q#V!! # ! # Q!* ^!j  !4![&8!x4x4R%[&S%M4x486Y7Y7Y7F5)8F5F5F5F5F5F5F5F5F5F5F5F58676x4a1M4S%[&N <$M ^!G 1 0 # r#u$|!W!R!4#4#4#4#4#4#_!_!_!_!_!4#V!W!|!u$! ]!Q!1 G / Y <$4!8!T%a1x476v486Y7)8)8F5Y7Y7Y786x4M4[&Z / * ]!K%V!4#M!}!-*<#H%7#t$X!S!-)!#H%v$% X :!_!y!! G j  !4!8!S%T%T%S%[& !j M G 1 0 ! W$|!W!W!V!V!V!V!V!R!v#L N#) ##l%O%U!!#Q%j%+'t$h(S!.$$&1%V#, I%W#9#=$=$9#A$P%$&o$u'S!X!X!h(t$H%v$j)!#P!f!O%l% #z v#y!r#Q!$ / Z H R%T%M4a1x4a1M4T%8!N j M 9!1 # u$y!R!M!z N#i ;$) +  # # #+ ;$i N#X :!v#R!K%]!1 9!M j H [&S%a176v4868686v476a1T%4!8!v4Y7a1S%8!T%T%K%##&(1$3$h D&w!0 <$Y j j Y y M y Y y y j 1 :!W>e l%r$k ( I%9$2$n$S#6#a!O!T!' n!U#u#~!o$-%;$~ ~ N#:!W!]!1 5!5!5!1 $ 9!9!G 9!M Z $ M!-%7#$&?$w#& 2$n$S#6#a!6!O!T!{!U#u#~!o$q$) ;$~ e :!W!]!1 5!Q!5!5!* 9!9!G 9!^!M j * ;$v$o$?$w#u#9$n!B&S#L%v!a!N$0%5#s#3$`!f!;$;$;$) i L R!! ]!# ! # ]!Q!* G 9!y >HE+W>xIx!                                ",
"                                  U!4R?KyQc!f 0%6#S#Y!X$X$T!| .%[ f #!G#E&P#8#P!N%K%$ Q!]!]!# ! u$y!y!V!Q#M!Q#:!e + ####G%,%K 3$w#I%M#L%=!p$p&O!v!' 0%{!R#w#F%;!N!H%M%y!* 0 # # ! ! r#W$|!|!K%4#v#_!Q#z ;$##x!-%H%P#{ f & ;#.%6!#('):#S#B&g n!M#& ;!N!u'v$l%u$/ ^!9!9!G 9!/ M / / M y / 1 u$L v#* y G 5!# ! # 0 ]!r#|!4#4#r#<$T%v476R%[&S%M4x4v486Y7Y7F5)8F5F5F5F5F5F5F5F5F5)8)8F58686v476x4M4S%R%4!<$j y / 9!$ 1 Q!]!! W$u$u$K%K%|!|!|!|!|!K%K%u$r#! ]!Q!* G 9!/ Y Z H 4!8!T%a1x476v486Y7F5)8)8F5Y7Y7Y78676a18!H j ^!1 ! K%y!V!~ o$>$u'+'H%j%H%&(!#r$H%}!_!4#W!W$Q!/ <$N R%8!S%S%8!R%H Y / $ Q!! u$y!V!4#v#v#Q#Q#M!M!:!L X i + % M%s$P!2%8#X!N!:$~!C&k s#{ >!& 3!p#0%6#')')6#u!} { G#h , 4$W 1%u't$-)j%&(2%!#P!o&M% #z Q#W!W$0 * / j N 8!S%T%M4T%S%R%N Z / $ Q!r#y!4#Q#L e + }!##x!l%M%-%-%M%t!x!##}!) i z :!4#K%! 5!G / j H [&M4x476v48686v476a1T%4!8!86F5x48!H G !!j)K u#[ {!S#=!;#M!Y y Y Y j / 5!W$_!L X N#t!7#h(r$1%& B&O#' L%O!:#S#.%I ;#A$k W S!j%!(x!1 / 9!^!9!* 5!Q!0 Q!1 Q!r#W!Q#L :!T#;$}!s$j%c!G#;#5$t#/%:#:#S#.%5$9#;#A$4$S!q#2%% # j / 9!9!* 5!Q!0 0 Q!1 Q!K%Q#L :!T#~  #}!o&X!s#;#5$t#.%L%a!6!B&3!R#W#A$k c!&(U!N%# j ^!G G $ 1 0 ! # ]!0 ! |!4#:!z N#i M%7#}Qt$K                                 ",
"                                >!W#=$.%t#B&T!')#(O!O#n$I } h N!J%##% ##z!) z :!M!|!W$K%K%W$r#! ! # Q!OPfQVQ85O%H%w!E&<!U#5$B&/%v!Y!N$6!:#N$B&3!k %&3$1$o&z!z!z!+ e :!V!|!W!W!y!|!u$r#! # 0 # xIrGS,-%7#`!s#& } 8$' O#N$T!N$O!6#.%g /$G#N!u'7#q$l%z!+ ~ z Q#K%! ! # 5!1 G y Z H N 4![&j V!}!!#o&! <$M 9!$ $ ^!Y * v#t!8#r$3%1 x476a1[&4!8!M476v486Y7F5)8)8F5F5F5F5F5F5F5F5F5F5F5)8Y7Y786v476x4M4S%8!4!H  !Z Y M / 9!G * 5!Q!Q!0 0 ]!]!]!]!]!0 0 Q!1 * $ 9!/ y Y Z H 4![&8!M4a1x476v486Y7Y7Y7)8F5F5F5Y786v476x4S%N <$y G Q!! u$|!~ N!<!w#w#<!D&( { W u'!(z u$K%W$0 $ Y H [&8!S%S%8!R%N Z ^!* ]!W$y!4#Q#M!:!T#T#L T#X !!N#i ;$z!l%-%G%b!!(v$t$7$[ g | N$a!6!O!O!=!8*@(&)2)q+q+2)?(X$O!O!6!L%n!A$>$o$S!X!q&+'q#Q%,'J%G%M%+ !!M!V!u$]!* / <$4!R%8!8!R%[&N <$M * 0 W$W!v#T#N#;$##M%N%s$G%f!f!q$q$q$f!o&s$N%t!##+ i T#4#|!! 5!G M Z N S%a1x476v486v476x4M4[&S%F5G586R%9!% D&=$u!/%T!O!p&[(2$-%$ <$H [&T%Z W!% H%$&Y$w#9$n!u!t#B&Y!O!T!g 5${!5#u#1$o&% z!+ i !!T#M!V!# 0 Q!5!1 5!1 * G / j $ Q#M%7#r$-*o${ [ 8$g ' S#N$6#S#{!{!5#u#$&J%##% ##;$z :!M!R!! Q!0 0 5!5!1 * G ^!M j $ ~ 7#r$-*o$, f [ 8$.%O#N$6#v!{!2$/$W#>$f!;$ # #;$!!Q#4#R!# Q!0 ]!0 Q!Q!Q!1 9!/ y 5!M!M%7#u'V#k 9$n!u!t#'                                 ",
"                                L%T!~%7R~%a!0%n!7!;#A$k W S!q#f!K%G 1 Q!5!Q!]!# ! W$u$u$|!R!:!e ) + ##q$+'P eNc!u#M#u!| T!X$p$6#O#| g 0$6$( w#P#8#b![!l%! Q!]!]!# r#K%W!V!W!y!W!v#T#e ) z!% N%8R,Ih(w!s#J B&T!Y!X$=!v!0%/%g 3!A$C&~!N!q#f!z!T#W$Q!]!]!# ! r#u$u$r#W$y!K%|!R!M!z N#!!L R!X x!2%b!z V!:!!!e  #z!z!s$8#w!u#} Y$u$86v4M4[&N R%T%x4v486Y7F5)8)8F5F5F5F5F5F5F5F5F5F5F5)8F5F5Y786v476x4a1M48![&4!N H <$Z Y y / / ^!^!9!9!G G G G G 9!9!^!^!/ M Y Z  !H 4![&8!S%T%a1x476v486Y7F5Y7Y7)8F5F5F5Y78686v476T%[&H Z M $ Q!# r#T#<#G#W#5#=$g u!5$>!-*-%V!Q!# 0 $ M <$4!R%8!S%8!R%N <$M 1 # K%V!v#L z !!N#e e e i ~ ;$)  ###M%s$f!J%!(7#t$V#;#T!@(Z(IJ<J6J6J6J6J6J6J6J6J6J6J6J6J6J6J6J6J%(=!g 6$G#E&P#.$h(A&H%8#j)!#f!l%+ N#:!V!u$]!* y  !N 4!4!N H Z y $ # K%R!M!z ~  #% N%f!P!b!!#3%3%3%3%,'3%[!J%U!G%N%x!}!N#:!4#|!! 5!9!y <$R%M4x476v4v4v4v476a1R%S%86F5v48!M O%- p$O!O#' g - Z!#!% 9!/ K%M!X % Q%K I%;#I B&N$X$~%Y!L%t#[ & w#F%F%P#q#% 1 / G $ * 1 1 * 5!]!0 # K%y!|!W!Q#z ;$i l%v$`!G#} #!R#L%')p&T!L%/%{!7!A$, ;!V#j%x!# j / G * * * 1 5!0 ]!0 # 9R|!W!Q#z ;$) i l%q&G#} #!R#t#a!')p&O#L%g [ ( w#?$V#u'q$0  !j y / 9!$ * 1 ]!]!0 # |!W!y!V!X + }!) M%8#`!G#U#9#t#O#=!X$T!/%                                ",
"                              .%p#/$R#& { F%h(t!e i i !!X :!M!_!|!W$u$K%|!V!v#M!M!X !!z + P!-)N!E&<!. I AB/%0%' B&n$g 5$/$. I%4$P#1$7#) !!!!X :!v#4#4#V!u$u$K%W!4#M!L :!T#e i % [!+'V#C&A$;#9#AB5,yOn$B&t#=$2$/$R#G#`!h(X!7#% X z z T#Q#_!4#V!y!|!K%V!4#Q#:!T#T#:!~ b!!#v$$&E&6$3!3!A$q&z V!i f!-*P#7$C&u#R#5#{!n$.%.%n$g >!R!Y776M4R%[&R%S%x4v486Y7F5)8)8F5F5F5F5F5F5F5F5F5F5F5F5)8F5Y7Y7Y7Y786v476a1M4T%S%8!R%[&4!H H H  ! !<$<$Z Z Z Z Z <$<$ ! !H N 4![&R%8!T%M4a1x4767686Y7F5F5)8)8)8)8F5)8F5Y7Y7Y786v476M4R%N <$Y / $ 0 0 ! % r$A$p#- - - O E&-%y!* / G 9!y Z 4!8!S%S%8!R%N <$y * r#y!v#T#N#~ + }!% -%N%t!x!x!x!x!l%O%U![!,'k%7#S!7$;#p&q+5JIJ<J6J6J6J6J6J6J6J6J6J6J6J6J6J6J6J6J6JIJ=J2)B(t*a!} 4$%&P#.$r$-)7#,'q$N%% ;$X _!|!! $ y j Z Z j y ^!$ # V!M!z ~ }!x!-%o&P!,'j)k%v$H%-)-),%q#8#&(j),'b!q$s$t!+ e X _!|!! 5!9!Y N 8!M4x4767676v476x4S%S%T%M4a1x476W$1%<!u#7$1%-)8#j%J%W$ !W$2%3$W#5${!.%u!O 9#O 3!W#s#w!h(H%) _!v#Q#v#_!V!|!# ]!]!0 ]!r#K%W!4#_!4#N#f!2%!#8#1%C&;#;#[ Z!B&B&{!5#3!/$. G#w!q&h(&() _!v#Q#_!V!K%# Q!0 0 ]!r#K%W!R!4#_!4#N#P!!#7#w!C&W#7!;#[ g B&{!5#3!I /$. G#1$X!&(;$R!4#4#R!W!u$Q!1 5!5!5!Q!# W$W!4#_!_!e H)h03%q#3$R#3!0$[ p#.%n$g 5#M#. U#G#`!                                  ",
"                          ;!<#q#U!M%x!##z!+ !!4#y!W!y!|!K%K%u$# ]!Q!1 W$z s$H%X!<#w#} U#[ 5$n$O#a!6!O!T!n$Z!{!9#G#K P!N%M%x!}!~ N#z M!|!K%u$W$r#! # ]!0 Q!* r#z s$,%S!r$K #!/$=${!B&S#a!p&')6#.%5$/$6$w#1$J%##x!##) z L T#Q#|!W$K%W$r#! ! r#! # Q!]!!!o&H%1%7$k u#9$=$g .%| T!6#6!O!.%Y$W!Q!t!$&3!O#Y!N$6#a!6!:#N$.%[ , N!A&! a1M4T%S%8!R%8!M4x476v486Y7Y7F5)8F5F5F5F5F5F5F5F5F5F5F5F5F5F5Y7Y7Y7Y786v4v476x4a1a1M4M4T%S%S%8!8!8!8!R%R%R%R%R%8!8!8!8!S%S%T%M4M4a1x47676v4v486Y7F5)8)8F5F5F5F5F5)8)8F5Y786v476x4T%R%N <$Y / G 1 1 * 4#z!j)q&$&w!o$q&J%r#Y / / y j  !4!8!T%S%8!R%N <$M $ # R!:!e + z!x!M%N%U!-*+'J%N%O%s$f!q$P!,'Q%8#j%-)P%[ T!q+6J6J6J6J6J6J6J6J6J6J6J6J6J6J6J6J6J6J6J6J6J6J6J6J6J6J=J#(6#| /$7$<#u'q&H%!(J%o&t! #N#M!W!# $ ^!/ / ^!$ Q!! W!L e }!l%N%f!b!2%Q%v$8#7#A&`!>$%&P#A&q#8#&(j)3%[!b!q$M%+ e T#_!y!! 1 ^!<$[&S%a1x476v4v476a1T%8!4!R%x4v4a1H # R!4#W!u$0 V!t!b!t!* 9!z 7#( 8$9#6$P%O%e ;$) i z Q#4#V!# Q!]!]!Q!Q!0 0 5!G ^!y 5!:!-%7#u'V#w#9$n!u!t#B&S#6#N$g 2$5#W#k o$G%;$+ ;$!!Q#4#_!V!# 5!0 5!5!Q!Q!5!* 9!/ $ M!M%7#u'1%>$w#9$=$t#' Y!6!O!Y!u!n!0$k 1$f!;$ # #;$!!v#_!W!]!5!Q!Q!|,Z$1 * G ^!M j * M!M%+'1%>$h 6$n!u!t#' T!O!Y!u!/$6$<!, 1$t!;$;$~ !!Q#                                  ",
"                        N!j)% z K%]!r#W$u$u$|!R!R!W!R!M!:!M!L ~ x!l%##o&H%V#u#} U#.%6#:#p$p&O!v!' u!7!A$w#F%;!N!H%M%r#Q!# ! ! r#r#r#W$K%K%y!4#Q#L X !!~ ##z!o&H%P#{ f & ;#| ')A('):#S#.%8$9#U#k ?$N!<#8#M%|!9!1 Q!0 ! r#! ! W$u$K%4#:!e ;$~ ) % M%f!-)P#u#M#p#B&/%Y!=!:#6#| - . A$9$u#H%]!G ) .$- ')Y!0%g 0$f } I%~!K !(s$z!G 8!S%S%T%T%R%R%M4x476v486Y7Y7F5)8F5F5F5F5F5F5F5F5F5F5F5F5)8F5Y7Y7F5F5Y78686v4v4v476x4x4x4a1a1M4M4M4M4T%T%T%T%T%M4M4M4M4a1a1x476767676v4v48686Y7F5F5F5F5F5F5F5F5F5F5F5F5Y78676x4a1S%[&H Z y ^!$ 5!5!1 K%v#X ) t!N%x!+ v#/  !y M j  !4!8!T%M4T%8!4! !Y 9!5!K%:!N#+ % t!O%G%[!A&C&s#V#X!-)v$,'b!!#k%8#j%-)A&:$g ?(7J6J6J6J6J6J6J6J6J6J6J6J6J6J6J6J6J6J6J6J6J6J6J6J6J6J6J6J6J7J2)6#. ~!P#<#A&v$2%J%o&l%+ !!Q#K%Q!* $ $ * Q!r#y!Q#i }!l%O%q$[!!(7#r$w!P%%&, A$. . } E&:$3$%&Y$c!S!&(J%O%z!~ z M!R!u$Q!G Z 4!8!M4x476v4v476a1T%8!4![&x476S%8!M4T%S%R%[&R%^!L t!N%Q!Z 1 ~ r$Y$w!q&s$* [& !j M ^!$ * * 0 # ]!# u$|!y!R!z + }! #O%q#`!G#U#9#n$T!=!=!Y!| L%{!U#w#?$V#S!Q%##Q! !Y / 9!$ * $ * Q!0 ]!K%y!|!V!:!N#)  #% 8#`!G#U#0$I n$T!b/T!/%.%5$M#( w#?$1$&(% 0  !j M / ^!$ $ 1 0 0 Q!]!u$|!y!Q#z ;$ #+ N%7#`!#!M#I .%Y!X$X$T!/%Z!M#( k W S!q#!(% G Y M / ^!G                                   ",
"                          N#L Q#4#V!R!V!W!|!u$u$r#0 |!~ % }!O%S!G#& I%9$8$' v!Y!T!6!O!O!T!n$7!k >$w!b!% ##z!z!+ e :!W!y!W!W!y!|!u$! # 0 1 W$!!t!J%&(+'w!{ #!6$8$' O#N$T!N$N$n${!g /${ 1%3%M%M%x!z!+ ~ !!M!y!W$u$W$r#W$r## 0 Q!1 ]!!!o&,%S!q&K w#6$I Z!n$S#a!X$p$:#Y!{!3!f , u'-%z e !!W!9!y G -%6$.%6$C&`!G%) }! #i T#R!K%]!Y N R%T%76x48!R%M476v486Y7Y7Y7F5)8F5F5F5F5F5F5F5F5F5F5F5F5F5F5F5F5)8F5Y7Y7Y7868686v47676v4x4x476767676x4x4x4x4x4767676767676v4v4v4v4v48686Y7Y7F5F5F5Y7Y7F5)8)8)8)8Y7Y7Y786v4x4a1M4R%H Z y ^!$ 1 0 ]!# W$W$r#r#W$W$# Q!9!M y Y j  !4!8!S%M4M4T%R%N Z / * # R!!!) ##M%o&U!P!j%s#' 6!S#p#& Y$j%!#!(v$j%+'t$r$;!S#=J<J6J6J6J6J6J6J6J6J6J6J6J6J6J6J6J6J6J6J6J6J6J6J6J6J6J6J6J6J<J7J2)')Z!w#K h(-)8#2%P!s$x!) z R!r#]!5!5!]!r#y!_!!!z!t!s$U!3%k%v$-*3$. p#L%a!X$p&p&X$6#T!T!Y!v!n$W#S!P!O%x! #N#:!_!y!# $ Y N R%T%x476v47676x4M4S%[&R%76v4T%R%[&H  !H N [&4!<$* R!^! !/ 0 R!:!M!_!|!1 G $ 1 5!5!1 * G $ G / >H:R;Rz % r$k A$U#[ =$B&S#Y!O#a!T!B&9#s#?$:$o$t!i e !!T#v#y!0 * 5!x$Q!5!* G 9!9!^!$ L HG5El%v$1%k ( A$n!B&S#Y!S#O#a!T!=$G#P%u'&(-%;$~ e X v#y!0 * 1 Q!0 Q!1 G 9!G ^!y 5!L ;$}!&(K C&& 6$[ p#B&O#Y!S#L%0%n$5#G#N!+'N%) ;$e T#M!v#y!Q!5!Q!Q!5!1                                   ",
"                          K%y!V!R!R!V!R!M!z ) }!##% U!-*.$S!`!f /%6#S#Y!X$X$T!| .%[ U#6$( w#P#8#J%O%|!$ Q!]!]!# r#K%W!W!W!y!W!v#T#e ) z!##G%,%K %&C&>!M#/%S#Y!X$=!v!' 0%{!R#w#F%;!P%,%N%W!* 0 ! ! # ! r#W$K%K%K%4#v#_!Q#z ;$##x!M%j%P#{ f & ;#t#a!#(')O!v!n${!n!M#& F%`!q&j) #$ 8![&N  !/ M 4!R!$&E&X!k%N%]!j M / M M / y  !N 4![&T%v4v48!R%M4x4v486Y7Y7Y7F5)8F5F5F5F5F5F5F5F5F5F5F5F5F5F5)8)8)8F5Y7F5Y78686Y7Y7868686v4v4v4v4v4v4v4v4v4v4v4v4v4v4v4v4v48686868686Y7Y7Y7Y7Y7Y7Y7Y7Y7F5F5)8)8)8Y7Y786v476a1M4S%4!Z y ^!$ 5!]!r#u$|!|!W$0 1 * G ^!M j / / Y <$N [&S%T%M4T%S%[&H Y 9!Q!u$Q#~ z!t!s$J%2%&(1%8$$(6J6Ju(L%} X!2%v$q#,%A&q&h(C&a!6J6J6J6J6J6J6J6J6JIJ%(&)?(@(@(@(@(t*@(B(3)q+IJ6J6J6J6J6J6J6J6J6J6J6J8*9#s#W S!-)v$,'U!O%% ~ M!y!W$# ! u$y!_!L ) M%o&P!3%Q%H%r$P#W#S#[(J)6J6J6J6J6J6J6J6J6JIJq+O#{ 1$8#O%}!e L Q#V!r#1 y N R%T%x476v4767676a1S%[&8!76v4a18!N N Z 9!0 y!4#4#!!l%y!9!M j  !H  !<$y $ 1 1 1 * 5!r#W!L !!e ~ rE)R<R+'$&& n$T!N$6#O!a!v!g 0$W#& w#c!v$P!J%##* y / F+4%G * Q!0 5!|,T$w$V!M!X z N###GE%Jr$1%h J B&O#0%6#a!v!{![ U#W#& 3$8#s$+ _!$ j M / / 9!* Q!0 Q!5!5!]!|!M!X z N#e M%=R%J.$h J n$N$6#6#6#T!B&3!6$D&u#C&V#7#o&z * Y / 9!G G $ * 5!Q!Q!5!0 W$                                  ",
"                            K%u$r## Q!K%i q$h(c!?$u#R#=$.%u!n$T!8*A(=!O#.%I 9$G#N!J%##l%l%##) z L :!W!K%|!|!K%W$! ! ! # 0 1 W$N#G%,%w!E&<!U#5$n$' L%O#N$6!a!O#n$9#k %&3$1$o&z!z!## #i L V!|!W!W!y!|!u$r## ]!Q!# >R?RS,-%7#`!s#& A$n!' O#N$T!N$6!N$.%g 9#s#V#S!v$s$z!) e T#v#K%* / ^!/ y 9!9!Y 5!N# #L 4#V!# Q!0 0 1 G 9!M H 8!8!R%S%7676R%[&T%a17686Y7Y7Y7F5)8F5F5F5F5F5F5F5F5F5F5F5F5F5F5F5F5F5F5F5)8F5Y7Y7Y7Y7Y7Y7Y7Y7Y7868686868686868686868686868686Y7v4v4868686868686868686Y7Y7Y7Y7F5F5F5Y786v476x4M4S%[& !M G 1 0 ! u$y!V!4#_!4#R!W!y!K%r#]!* G / Y <$N R%S%T%M4T%8!4!<$M * ! y!T#}!t!s$U!3%q#.$G#O!5J6J6J5Ju({!w!j)j%-)-*r$h(u'h 6!6J6J6J6J6J6J6J6J6Jq+=!B&{!Z!- - - p#- n$a![(J)6J6J6J6J6J6J6J6J6J6J6Jq+8*v!. c!A&H%&([!G%M%}!z _!W!K%|!V!_!L N###O%U!,'Q%7#q&N!D&T!$(J)IJ6J6J6J6J6J6J6J6J6J<JIJ$(O!- E&[! #i X M!R!W$Q!M H [&S%a176v4v4v4v4x4T%R%8!a1x4a1S%R%76N K%##q#`!F%I%I%[!4#* Y y y Y Y Y M M y j  !G v#t!+'1%>$h 6$2$g u!B&T!:#N$.%5$/$U#h 1$-%}! #;$!!Q#4#_!W!0 Q!Q!|,Z$1 1 * G M Z x#*%M%8#u'1%>$I%n!u!t#' Y!6!O!Y!p#9#U#w#o$G%) }! #e Q#R!y!W$0 Q!0 Q!* $ $ $ G / y Z * ;$8#u'1%>$k 9$n!u!n$Y!6!O!T!n$I U#<!P%q$+  #+ ) e :!_!|!]!Q!0 0 5!1 * $ G / y Z $ Q#                                  ",
"                            )  #l%N%O%[!-*N!& 7!5$0%6#p$#('):#0%n!3!0$A$k W S!j%f!K%G 1 5!Q!0 # ! r#K%K%u$|!4#L N#;$}!l%-%N%b!+'V#u#M#u!| T!X$p&O!N$v!g 0$W#A$k P#8#b![!l%! Q!]!]!# r#K%W!V!W!y!W!v#T#e ) }!## I@RyQ}Qw!s#J B&T!Y!X$=!v!0%/%g 3!A$C&~!N!q#G%}!M!0 9!* $ G 9!G $ G ^!G 0+j*^!5!! K%r#9!M G Q!]!0 ]!u$K%r#W$W!V!# <$M476x4R%[&T%a176v486Y7Y7F5)8F5F5F5F5F5F5F5F5F5F5F5F5F5F5F5F5F5F5)8)8F5Y7Y7Y7Y7F5F5F5F5F5Y7Y7Y7Y7Y7Y7Y7Y7Y7Y7Y7Y7Y7Y7Y7Y7v4v4v4v4v4v4v4v4v47676v4868686Y7Y7Y786v476x4a1T%R%N j G 5!]!W$|!W!4#v#:!L L :!:!M!v#R!y!! 1 9!y Z H [&8!S%T%S%[&H j ^!Q!u$4#N#l%o&P!3%k%q&F%3!u(6J6J6J6J6JO#P%&(-)+'q&K `!1$h 6!6J6J6J6J6J6J6J7J2)@(a!B&{!Z!- - - p#- t#Y!=![(?([(?(q+IJ6J6J6J6J6J6J6J6J%(n$?$q&A&j%!(J%s$x!i :!_!V!R!v#L N#) M%q$[!k%j%r$N!( {!2)6J6J6J6J6J6J6J6J6J6J6J6J6J6J6J6Ju(9#Q%) i z :!4#u$0 /  ![&S%a176v48686v4x4T%R%R%T%M4a1M4N u$) !(1%<!/$n$6#L%K % # Z y 9!5!! y!_!L i ) ;$-%7#`!#!M#I .%Y!X$p$T!/%Z!J & w#3$P#S!&(x!$ Y / ^!9!$ * $ * Q!Q!]!u$|!K%y!Q#z ) ) -%7#`!G#U#M#I 0%=!X$T!/%.%5$M#( ;!P#X!Q%##0 <$Y / ^!$ * 1 5!0 0 Q!]!K%4#v#M!X ;$ #+ N%h(G#U#M#I t#O#=!X$S#.%5$M#& w#W S!j%f!# j / 9!G $ 1 5!Q!]!]!0 ]!u$W!4#v#L ~ + ) N%7#                                  ",
"                            h(1%h W#/$5${!B&T!:#=!:#T!n$Z!Z!3!3$3%M%-%M%x!}!~ N#T#y!u$K%u$W$r#! # ]!0 5!$ r#!!G%,%1$W { U#/$=${!B&S#6!p&:#O#.%5$3!9$w#1$o&l%l%##) z L L Q#|!|!|!K%W$r#r#W$W$]!1 W$N#G%H%1%7$h ARI:t#u!n$S#6#6!O!N$B&9#k %&?$$&b!##z!##+ !!M!_!W!W$! ! 0 1 G / y Z N j* R/ y V!i z!N#Q!Y / 9!9!M 5!E+fQz z!j%<#3%Q!v4v4a1[&4!T%x476v486Y7F5)8)8F5F5F5F5F5F5F5F5F5F5F5F5F5F5F5F5F5F5F5F5F5F5F5F5F5)8)8)8)8)8F5F5F5F5Y7Y7Y7Y7Y7F5Y78686Y7Y786v4v476767676x4x4x4x4x4x4x476v4868686v476x4a1T%R%N <$^!Q!! |!V!4#v#Q#:!X !!!!z X T#:!M!_!K%0 * ^!Y  !4!R%8!S%8!4! !y $ # y!Q#;$N%P!3%k%v$1%W#| Z(6J6J6J6J6JY!>$7#-*+'o$, w#`!C&a!6J6J6J6J6J6J6J%(:#N$A(?(?(@(@(@(@(t*t*[(#(O!L%u!5$t##(q+IJ6J6J6J6J6J6J6J7J=!w#<#h(+'v$,'U!N% #!!L Q#M!T#N#) % s$!#j)8#r$N!( 0%?(7J6J6J6J6J6J6J6J6J6J6J6J6J6J6J6J6J5JL%j%~ i !!L _!K%]!^! ![&S%a176v486v476x4M48!R%R%8!M4v4/ o$U#2$.%| N$:#p&O#E&2%|! ! !G 4#+ P!7#o$, & 6$[ p#B&O#Y!v!/%B&n$O G#N!+'N%+ ;$i N#X M!W!Q!5!Q!0 Q!5!* G 9!/ Y 5!L ;$e x!&(K u#6$[ p#B&S#T!Y!S#0%.%5#u#P%u'&(-%;$i !!T#Q#W!]!5!Q!Q!Q!5!* $ G G ^!y 1 e f!!(j%1$C&& 6$[ g S#T!Y!v!/%B&.%5#;!u'v$N%+ ) i X :!_!r#]!# # ! ! # 0 * $ 9!M 5!M!z!f!!(h(, & 6$[ p#                                  ",
"                              0$.%6!8*t*#(:#L%t#5$[ A$w#4$F%V#[!y!* Q!# ! ! r#r#W$K%|!K%y!_!M!L X i % t!l%q$,%V#u#R#O 0%6#')A('):#S#.%I 0$A$k ?$P#S!v$M%# * 5!Q!0 ! r#! ! u$u$y!_!L e ;$~ ) l%N%b!+'V#u#0$p#' S#=!p&=!6#v!g [ U#f k P#8#J%!#M%|!G Q!0 ]!# ! r#r#W$r#r#|!R!M!L L T#X x!&(~ 4#!!}!M%##:!4#GGz !!i NOGEV)-*1$#!M#Y$y!Y776T%4!N S%x476v4v486Y7F5F5F5F5F5F5F5F5F5F5F5F5F5F5F5F5F5F5F5F5F5F5F5)8)8)8)8)8)8)8)8)8)8)8)8F5Y7Y7Y7Y7Y7F5Y786868686v476x4a1a1M4M4T%T%T%M4M4M4a1x476v4v4v476x4a1M48!4! !y * ! K%R!Q#L X z !!i ;$;$~ i e !!z L R!W$]!* / j  !4!R%8!R%N Z / 1 r#V!L  #G%[!k%8#q#P%=$A(5J6J6J6J5Ju(t#>$,%t$-*1$k u#P%h Y!=J<J6J6J6J6J6JB(.%=$6#Z(6J6J6J6J6J6J6J5J$(#(S#u!5$g O![(@(=J6J6J6J6J6J6J6J&)[ ~!1%t$j%k%[!G%% ~ !!X z e ) ##-%U!j)q#A&V#D&{!@(6J6J6J6J6J6J6JIJ=Jq+Z(=J7J<J6J6J6J6J=J0%q#i e !!L _!K%0 ^! ![&S%a176v486v476x4a1S%R%4!R%a1Y79!~!B&N$a!v!n$- 8$0$c!P!u$Y $ :!!(o$?${ ;#.%N$6#6#6#T!n$7!9$#!G#C&V#7#o&!!1 y ^!9!9!G $ 1 Q!0 0 Q!]!u$V!Q#X i i M%=R%J&JK h J /%N$6#6#T!| g 7!9$<!E&P#8#s$+ _!$ Y / ^!9!G 1 0 ]!0 0 0 u$V!M!X z N#e M%A&W E&>!0$.%T!N$6#N$| g 3!6$D&G#C&V#,' #v#1 M 9!$ * * 5!# r#! ! # r#y!_!X ~ ) ;$M%7#1$>$, 9$.%T!N$6#6#                                  ",
"                              t#=$I 9#M#W#u#o$&(q$}!N#!!z !!X Q#W!|!y!y!|!y!R!_!:!z z X + J%j%X!1%4$R#O n!- .%' B&B&n$=$9#W#f 9${ N!j%z!i i N#z T#:!v#R!u$r#u$y!W!W!R!v#:!X X + P!-)N!7$3$, [ {!n$' ' B&n$B&t#I W#( u#4$1%8#}!L z T#M!4#R!4#V!u$r#u$y!R!v#Q#v#M!T#T#N#f!j%`!4$, <!6$5#p#w#-*}!_!M!% ,%V#;!w#<!W#O t#0%n$.%t#g E&4#Y776T%R%[&8!a176v4868686Y7Y7)8F5F5F5F5F5F5F5F5F5F5F5F5F5F5F5F5F5F5F5F5F5F5F5F5F5F5F5F5F5)8)8F5F5)8)8)8)8)8F5Y78686v476x4M4S%8!R%[&[&4!4!4!4!4![&8!S%T%M4a1x4x4a1M48!4! !Y 9!0 y!_!M!X e ) }!l%G%P!q$O%t!% z!+ ~ X 4#K%# 1 ^!j  !4![&4! !y G 0 K%v#N#l%P!2%7#+'r$E&O#5J<J6J6J6J@(Z!#!c!r$r$t$S!P#?$;!A$t#')=J6J6J6J6J6J8*/$I%6$T!?(@(@(t*@(?(B(3)q+q+Z(2)3)?(p$O#n$p&2)7J6J6J6J6J6J7Ju(B&, S!A&q#2%P!-%z!) ;$) }!x!N%q$3%v$X!:$R#N$2)7J6J6J6J7J2)u($(?('):#O!8*t*@(@(?(?(?(N$G#b!~ N#T#M!R!W$Q!/  !R%T%x476v4v4v48676x4T%8!4!R%76F5<$!#c!4$4$V#X!v$,'b! #4#G 1 z H%R#0%u!{!p#n!3!U#<!7$P#-*+ _!M!:!:!Q#V!|!W$]!Q!0 ]!! W$K%y!V!v#Q#v#N#G%j%w!~!& R#9#g B&g Z!g {!O W#>!4$P#o$v$) 4#_!_!R!y!u$r## Q!5!Q!# r#u$|!y!R!v#Q#X G%j%`!4$, <!6$/$t#.%g - 5$8$/$W#>!>$1$8#+ v#M!:!M!v#W!u$r#]!Q!Q!]!r#u$W!R!v#:!L L ) U!,%%&#!6$R#3!g ' .%g =$8$/$W#<!7$                                  ",
"                              $&!#l%t!l%%  #!!:!_!V!y!y!y!|!u$r#r#! # 0 1 W$N#G%X!4$h <!U#5$n$0%| T!6!O!:#N$B&3!k %&`!J%##z!z!## #i L W!y!W!W!y!|!u$r## 0 * BRCRDRnQ-%7#`!{ I%9$n!B&S#T!Y!N$6#' g g /$G#N!S!v$N%}!+ ) i X v#K%r#W$r#! ! # ]!Q!5!* Q!X O%j%h(t$$&w#} ;#5$n$v!N$a!6!a!Y!=$s#-*M!y j }!f 6#N$6#6#a!N$S#0%g [ 3$t$s$5!M4M4T%S%8!8!M4x476v486Y7Y7Y7)8F5F5F5F5F5F5F5F5F5F5F5F5F5F5F5F5F5F5F5F5F5F5F5F5F5F5F5F5F5F5F5F5F5F5F5)8F5Y78686v476x4M48![&N H <$Z Y y y y Y j Z  !H 4![&R%S%T%S%8!4! !j ^!1 u$v#T#N#) ##t!M%2%>$C&P%v$q$f!o&-%l%}!!!M!W!r#5!9!y Z  !<$j ^!1 r#V!T#) O%!#Q%H%u'>$W#p&6J6J6J6J6J:#>!1%o$u'q&t$r$X!P%A$7![ {!2)6J6J6J6J6J8*/$<!s#( } ( #!I%#!A$;#g p&3)5J6J6JIJq+$(X$5${!@(6J6J6J6J6J6J6Jp&. 3$.$,%&(,'q$M%% z!##M%s$q$[!&(j%c!0$Y!$(6J6J6J6J6J?(u!/$I 5${!.%/%L%{!. & f 9$f E&k%l%) z M!_!y!! 1 y N 8!M476v4868686v4x4a1M48!4!8!v4Y7S%G ! |!y!K%r#Q!W$ #b!M%# ^!W!P!C&U#:$h(!(x!e e !!L M!4#! 0 ]!# ! # ]!Q!1 * G / Q!:!##q$!(q&C&& 6$[ p#B&S#N$T!L%B&t#5#u#P%u'v$x!;$e T#M!v#W!]!1 5!5!5!1 * $ G 9!/ G M!z!f!!(j%1$C&& ;#p#B&S#T!Y!v!/%B&5${ K J%z!##z!+ i X M!R!! 0 ]!# ! # 0 5!1 * G / Q!L % !#,%$&C&9$7!8$Z!B&Y!a!S#{!=$g O { $&O%}! #;$N#L                                   ",
"                                V!5!]!! # ! u$|!y!W!y!K%y!_!T#;$ ###l%-%N%b!+'V#} - 0%| T!X$p$6#S#n$[ U#U#& w#P#8#J%O%|!$ Q!]!]!# r#K%W!W!W!y!W!v#T#e ) z!z!G%oJERFRw!s#J /%v!O#=!=!T!| L%g . k ;!~!N!q#f!z!L ]!Q!0 0 0 ]!! u$K%K%FL_!4#v#X ~ z!% t!q#c!u#} ( ;#n$6#O!p$O!| .%Z!I . #!?$q&f!W$H 8!) J 8*S#B&p#M#A$<!w#F%1%U!!!K%M [&S%T%M4T%8!T%a1x4v486Y7Y7Y7)8F5F5F5F5F5F5F5F5F5F5F5F5F5F5F5F5F5F5F5F5F5F5F5F5F5F5F5F5F5F5F5F5F5F5F5)8Y786v476x4a1T%8!4! !Z Y M / 9!G $ $ G 9!/ y Y Z H N [&R%R%[&H Z y G 0 W!L N#) z!t!U!8#P#[ - R#V#j%!(J%q$s$l%) !!Q#y!# 1 ^!y Z j y G Q!u$_!!!}!G%!(8#+'w!<!=$t*6J6J6J6J6J6#, X!<#u'q&t$A&t$V#9$[ D&J &)6J6J6J6J6J[(8$& w#:$W V#`!K K `!%&#!8$' T!p$B(Z(7J<J3){!5$6#B(=J6J6J6J6J6J?(u!& c!+'8#j)J%s$M%l%t!s$q$J%2%j%h(;!u!@(J)6J6J6J=Jp&0%9#0$/$5$u!0%| | Z!U#G#E&%&1%-)N%}!~ L _!V!K%]!$ j 4!8!M476v486Y786v4x4a1M4S%[&8!v4Y7a1M4a1M4T%R%[&[&y M!J%N%]!j 5!!!v$t$U!e y!M H Y / ^!G * ]!! ! # ]!! |!4#X ;$+ ) -%q#1$>$, 9$n$N$6#6#6#T!| g . #!G#E&P#8#o& #v#G / 9!G G $ 1 0 0 5!1 Q!W$V!Q#X e ~ ##7#1$>$, <!0$.%N$6#6#T!| g 3!6$D&G#%&j%x!]!Z M 9!G $ * 1 Q!# ! ! ! # ! W!L N#;$+ ) N%q#$&4$>!0$.%a!')')6!O#n$7!A$k ;!~!N!q#% G j y M ^!9!                                  ",
"                                4#y!W!y!|!K%u$r#! # 0 1 r#!!o&q&P#:${ U#/$=${!B&N$p&'):#Y!B&2$6$u#N!J%% t!l%##) z L :!W!K%|!|!K%W$r#r#W$# 0 1 W$N#G%H%1%E&<!z4GRt#u!n$S#6#6!6!O#n$I f s#;!$&G%##z!## #N#L v#R!|!K%u$W$! 0 Q!0 Q!]!g085HGM%8#w!h ( A$n!n$v!Y!O#T!6!a!/%u!7!k c!q&j)l%e X v#|!1 y N e <!p#I%:$u'o&;$) ;$i X |!0 G Y H R%T%x4a1R%S%M4a17686Y7Y7Y7)8F5F5F5F5F5F5F5F5F5F5F5F5F5F5F5F5F5F5F5F5F5F5F5F5F5F5F5F5F5F5F5F5F5)8)8F586v476a1M4T%R%4!<$y ^!$ 1 5!Q!]!# # 0 Q!5!* 9!/ Y Z H N N H <$Y ^!1 ! 4#z ;$z!l%-%8#C&2$X$@(T!0$:$-*,'3%J%N%##) z v#|!# 1 ^!Y Y / * # y!Q#e ##U!Q%j%-*W 3!6#3)6J6J6J6J6Ja!k <#.$u'r$-*-*A&c!D&f ;!D&@(6J6J6J6J6J?(g U#, >$P#K <#q&A&-*q&K >$F%k U#n$p&%(IJ=J@(6#Z!.%B(6J6J6J6J6JJ)t*{!?$+'q#Q%[!G%s$O%s$q$b!3%k%+'N!} a!J)IJ6J6J6JB(. #!O 0%O!#(8*')X$p&=!O#=$( N!k%s$O%+ z M!R!y!r#5!9!<$[&S%a176v4v486Y78676x4a1T%R%S%v486M48!R%BGEE4!4![&[&y v#_!M N M Q!W!4#K%# Q!$ G * 1 * * $ * * $ 9!M Q!L N%t$?$k { 9$n!.%0%S#a!O!T!n$I 6${ E&$&N% #+ ) e :!_!V!K%]!0 0 Q!1 * $ $ G M Z * M!M%v$o$%&C&#!2$.%/%S#6#6!O!T!p#6${ E&$&q$+  #+ ~ L R!! Q!0 ]!]!]!Q!5!5!5!1 $ 9!M 5!+ 7#1$?$k { 6$n!.%L%6#O!:#N$' n!U#{ P%q$) ;$;$;$e :!W!Q!5!Q!5!5!1                                   ",
"                                W!W!y!V!Q#L !!e ) x!t!l%q$,%P#( 7!5$0%6#')A('):#/%5$9#0$} h >$u'H%q$|!G 1 Q!Q!0 # ! r#u$K%u$y!_!L e ;$;$x!-%N%b!+'V#u#0$g L%T!=!p&=!6#v!g 0$W#A$k W S!q#!(t!r#0 # ]!# r#W$u$u$u$W$K%R!:!!!i ~ ) M%HRyQ}Qw!s#J B&T!O#=!=!T!| /%{![ f u#~!c!v$N%;$V!^!H <$j y 9!^!j Q#u'?$-)[!}!0 Z y / M M y j Z <$H [&S%7676R%S%M4a17686Y7Y7Y7)8F5F5F5F5F5F5F5F5F5F5F5F5F5F5F5F5F5F5F5F5F5F5F5F5F5F5F5F5F5F5F5F5F5F5F5F58676a1T%S%R%N <$M G 1 0 ! r#u$K%|!|!K%W$r## Q!* 9!/ j <$ !<$j M G Q!W$v#N#+ l%s$U!.$5#')=J6J$(S#R#$&&(Q%!(q$-%% ;$T#4#u$]!* / M 9!5!r#V!:!~ x!J%v$,%t$7${!t*J)6J6J6J6J<Ja!h .$.$u'r$+'+'-*`!#!( W s#[(6J6J6J6J6Ju(v!3!E&N!w!.$q&+'j%8#v$7#H%+'q&P%} =$v!p&2)=J8*5$=$t*6J6J6J6J6J<JIJY!F%+'H%v$3%q$G%G%q$J%3%j)8#X!h 2$[(6J6J6J6Jq+v!~!%&U#{!6#p&X$:#=!?(u(t*S#;#>$k%N%M%N#Q#4#W!W$0 $ M H R%T%x476v4v486Y7Y7v476x4M48!8!M4x4M4R% !F+$ G 1 u$V!T#O%N%T#r#9!Z <$<$Z y / G $ $ 5!r#V!L T#!!+ ##x!q$H%c!( 5$.%' O#=!=!O#n$2$0$A$k W S!q#!(x!5!/ 9!G $ 1 Q!0 ]!]!0 # K%V!4#v#M!X ) + N%7#`!h . 8$t#L%:#=!Y!B&5$9#;#A$4$S!q#!(x!! Y / 9!G 1 Q!# ! # # ]!! W!v#:!T#N#+ ##% f!S!s#;#5$t#.%| :#X$L%=$/$0$A$k W S!j%G%! Y ^!G 9!G * 5!0 0 Q!1 Q!r#                                  ",
"                                r## Q!K%i N%!(-*w!s#9$W#7!=$n$Y!6!O!O!T!n${!Z!9#:$,'-%N%M%x!}!~ N#L y!u$K%K%W$r#W$r#]!Q!1 * W$N#G%,%S!o$h W#/$5${!B&S#a!=!O!O#.%5$/$6$w#1$o&l%l%##+ i N#!!:!W!y!|!K%u$W$W$r## 5!G ! z o&H%.$`!3$D&I:t#u!n$S#6#6!O!T!n$I f s#F%o$U!}!}!+ e M!V!|!! 5!$ 9!/ / 9!9!M 0 !!) Q#4#y!]!5!Q!Q!* G / Z H [&R%[&8!x4x4[&8!T%M4x4v486Y7F5)8F5F5F5F5F5F5F5F5F5F5F5F5F5F5F5F5F5F5F5F5F5F5F5F5F5F5F5F5F5F5F5)8F5Y7Y7Y7v4x4M4S%[&H Z y $ 0 ! K%W!V!R!4#4#_!v#_!V!|!W$# Q!$ / Y j j Y / $ 0 K%M!i }!M%P!7#7$L%q+IJ6J5J$(.%>$j%H%7#3%q$N%z!e :!V!W$0 $ 9!$ 0 u$4#T#) t!!#q#+'r$;!0%2)7J6J6J6J<J7JN$k .$<#u'r$+'+'-*c!} 9$W k [(6J6J6J6J6Jq+#(g , V#1%<#r$-)q#v$k%!(!(k%v$t$P#;!u#[ X$&)')' L%u(6J6J6J6J6J6J<JN$;!-*,%7#2%J%U!U!J%!#!(v$j%$&J Y!$(6J6J6J6J8*6$4$3$?$w#R#/$/$n!L%&)2)#(L%7!s#w!v$}!_!W!y!K%# 1 ^!j N 8!M476v48686868686v476x4a1S%R%4![&M4G+y  RRFQ#;$k%$&k . ( P#b!W$ !Y y j Z <$Z Z <$$ Q#M%H%A&1$C&9$3!5${!' Y!a!T!| ' .%5#{ K s$##z!+ i X :!M!R!! # # ! # ]!Q!5!* G M 5!L % q$!(j%1$u#6$[ p#B&S#N$6#Y!0%t#5#{ K J%z!##z!;$X :!M!R!! 0 ]!# # ]!0 Q!1 * G / Q!~ U!k%,%$&C&9$7!8$t#S#6#a!S#{!=$g O :$J%##% z!+ i !!T#_!! 0 ]!]!]!0 Q!1 $ 9!M j $ Q#                                  ",
"                                ##x!% f!-)w!F%I%M#n$6#=!p$p&O!L%' {!7!& w#4$F%V#3%W!* Q!# ! ! r#r#W$K%|!K%y! Rv#_!Q#e ##x!z!o&H%V#{ f W#.%O!A(t*#(:#S#B&=$M#& w#3$V#u'v$t!# * 5!Q!]!# r#W$u$|!|!W!v#L z N#e ) ##% f!H%P#{ R#[ 8$v!X$p&=!6#v!g [ U#f k W S!q#2%l%u$^!$ $ $ * * 1 1 1 * G ]!]!* $ 0 ! W$# ^!9!* Q!0 Q!]!u$K%W$W!4#R!! Z T%x4a14!R%T%M4x4v486Y7Y7F5F5F5F5F5F5F5F5F5F5F5F5F5F5F5F5F5F5F5F5F5F5F5F5F5F5F5F5F5F5F5F5)8F5Y7Y78676a1S%[&H Z M G 0 u$W!4#v#:!L T#T#X z T#M!_!V!|!r#0 $ / M y M 9!1 # y!L ;$##N%[!j%~!6#6J6J6J6J6Jp$9$P%S!,%&(!#f!M% #!!Q#y!r#Q!1 5!# |!v#!!}!N%,'H%t$u'k Y!=JIJ6J6J6J5Ju(' C&.$<#S!t$-),%-)K I%( W h #(<J6J6J6J6J5J3)v!, c!K <#r$,%8#Q%!(!#[!3%!(v$-*u'w!C&- L%L%' T!3)6J6J6J6J6J6J6J6#~!-*-)j%j)[!J%J%[!,'k%7#+'P%g t*J)6J6J6J6JO!E&>$Y$$&1%:$, C&G#. ' T!S#t#[ u#c!&(!!y!K%u$r#Q!G y Z 4!S%a176v486Y7868686v476x4a1T%R%H N a1*4$ -%8#j%o$h [ L%X$| . .$R!4!Y 9!0 y!v#T#!!N#l%v$`!>!& 0$.%a!')#(O!Y!n$3!6$D&u#, N!H%l%1 M 9!G $ * * 1 Q!! ! ! # ! |!4#L N#;$;$-%q#1$>$, <!0$/%6#6#6#T!| g [ f <!E&V#j%x!]!Z M 9!G * * 1 Q!# ! ! ! ! |!4#L N#;$+ ) N%r$%&C&>!0$.%a!')')N$| g 3!A$k ;!~!N!b!# j / G $ * 1 1 1 ]!# ]!0 Q!# K%R!L e ~ i t!8#                                  ",
"                                  s#>!U#5$n$/%O#N$6!O!:#N$B&3!~!3$o$b!% ##z!z! #z V!|!y!W!W!y!|!u$! # 0 1 u$e z!+ -%h(s#& I%9$8$' S#T!T!6!a!Y!L%t#3!s#P%-*G%% }!+ ) i z Q#K%u$K%u$W$u$W$r#! ]!5!u$e -%[!v$-*w!<!U#[ 5$n$O#a!O!:#6#n$5$/$6$w#1$U!z!% z!+ e z T#v#K%! ! ]!Q!5!* $ 9!M Z y :!X ]!Q!Q#N#e Q#G M ^!9!^!y >HE+fQ+ &(h(.$2%]!x4x4T%N [&S%M4x476v48686Y7F5)8F5F5F5F5F5F5F5F5F5F5F5F5F5F5F5F5F5F5F5F5F5F5F5F5F5F5F5F5F5)8F5Y786v4x4T%R%H Z M $ 0 K%4#Q#M!T#!!i ~ ;$;$;$e z T#L Q#V!u$0 $ 9!^!9!G 5!! W!T#) % o&J%,'P%O#6J6J6J6J6J%(=!O W +'j%!(J%s$x!;$X _!|!# 0 ]!r#y!Q#e ##o&!(-)X!`!D&O!<J6J6J6J6J2)a!O F%1$<#h(-*H%j%j%S!7$, %&<!:#5J6J6J6J6J<J5Ja!, `!$&u't$H%v$j),'[!!#,'j)&(j%t$1$W h >!6$2$v!u(<J6J6J6J6J6J6J6#~!-*+'H%k%3%[!!#,'j)v$H%q&4$T!J)IJ6J6J6J6J6!4$w!w!$&o$u'S!S!S!.$3$>!/$2$W#4$q#x!R!K%u$! Q!$ / j  ![&T%x476v486Y78686Y7v476x4M4T%8!N 4!*4N4# -*>!O n$L%T!=!p$S#O N!v#[&<$* N#k%u'W E&s#f 2$B&Y!a!O!:#N$' 8$W#<!Y$P! #}!}! #~ T#4#! # # ! # ]!Q!1 1 1 * 9!M 5!L N%7#1$F%W)l$n!.%0%S#6#6!N$n$I 6${ E&$&q$+ + ) e L R!! Q!0 ]!]!0 Q!1 1 5!1 $ 9!$ L N%7#1$?$k { 6$- 0%S#6#O!:#N$' n!& E&$&U!+ ) ) + ~ Q#r#]!# # # ]!0 5!$ * $ ^!M j 1 :!-%A&%&C&G#9$n!                                  ",
"                                  ' | N$X$p$Y!L%g [ U#U#& k P#j)b!t!y!* Q!]!]!# W$W!V!W!W!y!W!v#T#~ z!% ##G%-)u'h(w!A$B&Y!v!Y!X$X$T!| .%7!9$#!s#E&P#q#f!i r#1 Q!0 0 ]!# ! u$K%y!_!Q#v#:!e + ####G%,%1%3$w#I%M#L%6!:#p$:#S#B&u!5$W#w#3$V#u'v$l%u$^!* Q!]!# # # ! u$u$W$W!4#v#M!:!X i ~ ##,%,%M%!!X !!) ~ v#:!X z !!e M%7#V)u's#W#M#Y$V!v4a1S%4![&8!M4a1x476v486Y7F5)8F5F5F5F5F5F5F5F5F5F5F5F5F5F5F5F5F5F5F5F5F5F5F5F5F5F5F5F5F5F5Y786v476M48!N Z M $ 0 W$4#T#!!N#~  #z!z!z!####}!) i e z M!4#W$Q!* $ $ * Q!r#W!T#) t!J%,'[!`!v!6J6J6J6J6J6J<JN$E&r$-*&(3%P!O%z!e :!R!u$r#r#K%R!L ~ x!f!k%-*<#c!( =!6J6J6J6J6Ju(L%0$7$1$S!r$-)q#7#7#-*K >$;!A$v!Z(6J6J6J6J6J6J:#, c!K S!A&H%v$j),'!#,'!(Q%8#j%A&.$`!P%3$w#R#t#?(<J6J6J6J6J6J6J6#~!A&-*H%Q%,'3%,'!(Q%7#-)<#>!')6J6J6J6J7J2)L%?$.$.$<#q&j%Q%!(!#U!,'t$4$h 7$X!-%Q#W$W$r#Q!$ ^!y Z H R%M4x476v486Y78686Y786v4x4M4T%8!4![&76Y70 8#<!B&:#v!.%8$9#. #!u'R!R%4!W$,%h . 8$u!t#L%:#=!0%5$/$0$A$k W u'H%q$W$/ G * 1 5!Q!0 ! ! ! # r#y!_!T#z !! #% x!f!H%c!s#;#- .%| :#X$Y!n$5$9#6$k W S!q#!(x!! Y ^!G $ 1 Q!# ! # # # |!_!T#z X !!+ ##N%H%c!s#;#5$t#.%| :#Y!n$=$/$0$A$k W t$!(l%r#y 9!$ * 1 Q!! r#! # 0 # K%R!L T#z ;$}!z!G%j%c!( 8$u!.%L%a!                                  ",
"                                  Z!5$/$. I%%&1$7#% X !!!!z L _!_!R!K%W$u$|!V!_!L L X N#i e ##b!+'?$A$;#J O t#0%n$n$.%=$2$2$9#R#>!:$`!-*x!!!N#N#z T#M!_!W!K%u$W$u$y!R!v#:!L T#SFIRJR<0,%V#w#6$J I .%/%' B&B&t#n!7!;#6$G#`!+'k%G%e T#L :!Q#4#W!K%W$W$r#u$y!R!v#:!X X e U!7#q&$&V#~!9$3!n!' =${ +'v#$ W!##X!7$C&w#{ U#5#u!0%n$n$.%g E&v#v4T%8!8!R%R%T%M4a17686Y7Y7F5)8F5F5F5F5F5F5F5F5F5F5F5F5F5F5F5F5F5F5F5F5F5F5F5F5F5F5F5)8F5Y7Y786v4a1R%N Z / * ]!|!_!!!+ ##l%-%s$U!!(v$Q%J%o&O%M%##+ ~ !!4#u$# Q!5!Q!]!W$V!X ) -%j)j%8#N!t#$(IJ6J6J6J6J6JX$f Y$<#+'7#!(P!-%}!e :!V!|!|!V!v#z + M%U!Q%r$.$K <!O!6J6J6J6J6J&)0%R#?$.$h(A&j%v$&(Q%8#,%1%<!. O t*6J6J6J6J6J6JX$s#N!w!<#r$-*H%v$j)!(j)&(7#,%A&X!o$w!W 4$k ( n![(6J6J6J6J6J5Ju(.%:$A&-*H%Q%2%2%!(k%7#,%-*N!n!u(6J6J6J6J$(O#7!W <#q&-)8#2%P!O%% ;$e ) t!N%M%;$y!0 0 0 5!$ 9!M Y <$H R%S%M4x476v486Y7Y7Y786v476x4T%8!4!R%76x4<$K%O%c!~!`!t$3%G%G%P!% # H 8!L f .%u!n![ f ( } u#h(}!:!T#X T#:!v#4#W!W$! ! ! # ! u$y!_!M!M!Q#e G%H%P#:$F%6$O Z!t#u!t#B&t#O B'n*R){ V#8#}!M!:!M!v#R!W!y!u$! ]!# ]!# W$|!V!_!Q#M!z G%H%P#:$%&E&6$O Z!g u!n$u!5$7!9$& I%V#7#z!:!T#T#M!v#R!y!u$# 0 ]!]!0 ]!W$V!_!Q#Q#v#N#G%j%N!W ;!9$5#- g {!g u!8$7!9$I%G#                                  ",
"                                  -%N%-%x!}!~ !!M!W!u$K%K%u$W$r## 0 Q!1 * W$N#G%A&q&1%h W#/$5${!B&Y!X$p$:#T!n$5$/$6$W P!##l%l%##+ ~ N#T#V!y!W!y!K%u$W$r## 0 5!$ ! z o&H%.$P%s#vQEQ.%t#B&S#6!p&:#Y!B&2$6$u#~!$&o&% ##z!) z M!_!W!u$u$W$! # ]!# ! # 5!G ! !!o&H%1%7$h & 8$n$0%| O#T!a!N$/%t#7!E&7#V! !<$}!5#N$N$6#6#a!N$S#0%I C&w!t$3HE%EE[&R%S%[&4!8!T%M4x4v486F5)8)8F5F5F5F5F5F5F5F5F5F5F5F5F5F5F5F5F5F5F5F5F5F5F5F5F5F5F5)8)8F5Y78676T%N Z / * # y!Q#!!}!M%o&P![!b!X!U#t#I u'[!!#b!f!N%l%}!!!_!y!W$! # ! u$V!X ) x!q$7#w!, } - 3)6J6J6J6J6Jq+#(p#Y$h(-*v$,'U!-%z!i M!R!R!v#L e z!O%J%v$h(K W 9$p$6J6J6J6J6Jt*=$#!>$.$q&+'8#j)!(2%j)&(<#u#& >!=!6J6J6J6J6J6JA(U#?$c!$&<#X!t$,%j%q#j%,%-*q&S!o$w!N!:$;!>!5#S#$(6J6J6J6J6J#(7!~!1%r$-)q#k%!(!(j)&(H%A&X!E&O!7J6J6J6J6Jt*=$#!N!S!A&q#k%[!o&x!) X v#R!W!y!|!u$]!5!Q!5!* G ^!/ y Z  !4![&8!M4a1x476v486v486v476x4M4S%[&R%T%T%R% !9!u$V!|!r## W!:!e z V!Q!Z W$+'%&o$N%z !!N#e !!_!r#]!# r#W$W$r## Q!0 Q!1 G / Q!T#O%r$:$h <!6$n!B&S#N$6!:#N$0%8$U#{ E&$&O%+ ) + ~ T#4#r#0 ]!]!]!0 Q!1 1 5!1 G M 5!L N%7#1$?$k & n!B&S#N$a!O!:#N${!U#{ E&1$U!+ ) ) ;$T#4#r#]!# # # ]!Q!* $ * $ 9!/ Y 1 ) 8#1$?$w#u#9$n!' S#L%v!a!N$0%5#s#3$c!G%i i e !!                                  ",
"                                  1 0 # ! r#W$W$u$|!|!K%y!_!v#v#z ;$##x!z!o&H%V#I%& ;#.%O!A(@(#(:#/%g n!J A$w#?$N!<#P!K%9!* Q!0 # ! r#u$y!W!y!V!v#L z N#~ % l%x!f!H%P#u#W#5#' 6#p$')X$6!S#.%I 0$} h >$u'j%j)M%! 1 5!Q!0 ]!# ! r#W$W$K%V!Q#!!i e ~ % M%J%-)V#u#M#- 0%O#X$p$6#S#L%{!J A$s#4$`!j%t!W$<$8!;$- T!0%B&p#M#A$<!w#P%k%t!N#y!'',*N [&S%N N R%T%M4x4v486F5F5F5F5F5F5F5F5F5F5F5F5F5F5F5F5F5F5F5F5F5F5F5F5F5F5F5F5F5F5F5F5Y786v4a18! !y G 0 K%_!X ;$t!f!b!!(7#A&E&S#J)[(>!.$H%j)!#P!o&t!) L _!y!W$r#r#K%V!T#;$##N%7#4${ 4$A$@(6J6J6J6J6J6J6J:#E&o$q&H%Q%!#G%l%+ X Q#v#M!X ~ % o&[!7#X!c!4$;#')6J6J6J6J6J#([ , N!.$r$,%&(2%,'3%2%Q%<#{ #!C&6!6J6J6J6J6J6J&)n!, N!`!K o$u'r$A&-*A&r$X!<#1$w!N!>$F%s#R#0%A(q+6J6J6J6J6JO!u#1$<#q&,%8#k%!(!(j)8#A&X!S!k A(6J6J6J6J6J#(7!C&c!X!-*7#!(P!N%##~ L 4#y!W$! # ]!0 0 Q!5!1 * G 9!/ y j  !N [&S%M4a1x476v4v4v4v476x4a1T%R%[&R%8!8![&[&S%8!4!H j 5!K%Q#L _!W$/ $ e f!}!G 8!<$y M ^!1 # r#r#r#! W$W!v#z !!e  #% x!q$,%P#& =$.%n$| =!X$S#.%2$M#} h >$u'j%j)t!0 G * 1 5!Q!0 ! r## ]!! |!_!T#z X N#}!x!f!H%c!s#;#5$t#0%:#=!S#.%5$/$0$A$4$S!j%!(x!! Y 9!$ * 5!0 ! r#! # ]!# W!L X T#z ;$}!z!G%S!s#;#5$t#.%L%a!O!' 9#. R#A$k c!&(U!-%0  !y / /                                   ",
"                                  y!W!V!V!W!|!W$r#! 0 1 W$xIrGKR7#`!s#& I%9$8$' O#Y!N$6!a!T!| .%/$F%<#7#G%% z! #+ ~ T#y!u$K%|!y!|!K%u$r#! # Q!K%e -%[!v$u'h f U#[ 5$n$S#6#O!O!T!n$p#O W#h 1%P!N%M%x!}!~ N#z M!|!u$u$W$r#! # ]!Q!1 $ ! X O%H%X!t$$&I%9#5${!B&S#6!p&')6#B&2$9$G#;!.$G%~ i !!L 4#u$1 M H e f } C&:$u'o&;$) ;$!!_!|!! 1 ^!Y <$4!S%N H [&S%M4x476v4Y7Y7Y7F5)8F5F5F5F5F5F5F5F5F5F5F5F5F5F5F5F5F5F5F5F5F5F5F5)8F5Y7Y786v476M4[&j ^!5!W$R!L ~ % G%3%k%8#u', 5##(IJq+a![ w!v$&(!(J%s$% e :!R!|!W$W$u$W!:!i z!O%,%h <!K 4$8*6J6J6J6J6J6J6J#(( P#u'A&q#j)J%O%% i L :!L !!) l%f!3%q#<#P%C&7!#(6J6J6J6J6JX$A$P%1%<#t$j%k%3%[![!3%k%.$D&} E&a!6J6J6J6J6J6JZ(v!<!>$Y$N!c!1%o$<#S!S!u'o$K P#Y$?$4$C&U#- ')q+IJ6J6J6J6J6J6!h u'S!t$q#Q%!(2%2%!(7#S!1$S!, A(6J6J6J6J6JX$} >$w!X!+'8#,'q$M%}!e M!W!K%r## ]!0 0 0 0 Q!Q!5!1 * G ^!M j  !N [&8!T%M4a1x4v4767676x4M4S%R%4!N 8!8!4!LRtCN <$<$H N y r#R!R!u$9!M Q!W$# 9!M 9!* 1 5!5!1 1 * $ ^!]!T#O%+'t$$&w#6$3!5${!' Y!a!O#g p#u!I <!K f!l%% }!;$N#X T#v#W$r#W$r#r#! ]!Q!1 $ / Q!:!N%j%h(-*o$<!3!5${!' O#6#a!S#Z!g O { K b!% x!##;$!!T#:!4#r#0 ]!# # ]!Q!5!* $ 9!M 5!;$7#q&A&o$E&} 7!8$.%S#N$6#S#u!8$5#R#%&q$)  # #;$!!Q#R!W!0 1 5!5!Z$                                  ",
"                                  R!V!V!W!V!:!i  ###% ##G%@Ru'1$s#J B&Y!v!Y!X$X$O#L%g 7!9$#!G#C&N!!(##T#! 1 0 ]!]!# r#|!y!|!K%K%y!_!L ;$##x!% f!-)1%3$w#9$n$N$6!:#p$:#S#B&- [ A$k :$P%.$7#N%W$Q!# ! ! r#r#r#W$K%u$|!4#MR4#v#X ~ ##z!s$j%P#{ f ( . L%p&8*'):#S# 38$3!U#h W S!q#2%% # Z Y j j Y M 9!^!Z :!P#h(j)b! #0 Z y / / 9!9!^!M y j Z H 8!H  !4!8!M4x476v486Y7Y7F5)8F5F5F5F5F5F5F5F5F5F5F5F5F5F5F5F5F5F5F5F5F5F5F5)8F5Y7Y786v4a1S%N M $ # y!Q#N#z!N%b!v$j%,%V#[ N$3)6J<J7JT!, q&+'7#!(J%N%+ !!Q#V!K%W$u$y!Q#N#}!N%7#F%k 1%:$O#J)6J6J6J6J6J6JB(I 3$.$h(-)v$3%q$-%+ !!z !!i  #M%U!2%H%.$>$<!n![(6J6J6J6J6JO!<!1%$&u'A&q#!([!J%b!!#!(S!<!( E&N$IJ<J6J6J6J6J7Jp$& :$?$3$W P%P#`!1%1%w!c!N!W ?$F%h W#{!a!2)6J6J6J6J6J5J[(g ;!S!h(-*7#k%2%,'2%!(q#.$K S!E&A(6J6J6J6J6J:#I%P#w!S!+'v$3%f!t! #N#v#y!u$! # ]!]!# # # ! ! # # ]!Q!1 $ ^!Y <$H 4!8!T%M4x476767676x4M4S%R%N  !=F8JUGj * x$5!]!V!M!~ s$b![!% # Z j <$Z M 9!G $ * Q!|!:!!!;$+ ) N%7#c!I%A$0$.%a!#(#(O!Y!B&9#} h ~!E&P%,%t!Q!9!* 1 5!Q!Q!0 # W$W$r## r#y!v#T#N#) ) N%7#`!G#f & ;#L%#(#(O!Y!| u!9#} C&~!P%,%t!! Y / G $ 1 1 5!Q!]!# ]!]!]!K%R!:!!!~ ) ;$-%q&G#} #!W#u!6#')p&O#L%g [ & k :$N!<#U!]! !j y / 9!$ $ $ 5!Q!5!0 W$                                  ",
"                                  u$! ]!5!W$% ,%w!4$h <!~LI:t#.%S#6#6!O!6!O#n$I D&;!$&[!x!l%l%x!}!z M!4#|!K%|!K%u$r## # # ]!Q!* r#!!G%X!4$s#>!U#5$n$0%| T!6!6#S#0%t#/$G#P%-*f!x!z!}! #;$e L W!y!W!W!y!|!u$r#! 0 1 W$xIrG) M%8#w!{ I%9$n!' O#N$T!N$N$B&g {!],A*p5!#t!t!%  #i z L 4#r#Q!1 9!/ / ^!9!^!y |!q$!!y!W!|!]!5!Q!Q!* $ 9!M Z H N <$ !4!<$<$N R%T%a1x476v4Y7F5)8)8F5F5F5F5F5F5F5F5F5F5F5F5F5F5F5F5F5F5F5F5F5F5F5)8)8F5Y78676M48! !^!Q!u$4#X ) t!f!2%,%A&A&7$B&3)5J6J6J<Jp$U#>$<#-)8#!(q$% ~ T#_!W!|!K%|!Q#e }!M%3%S!W E&<!3!t*6J6J6J6J6J6J=J6#, .$S!t$q#j)b!G%% ;$i i ) ##N%P!!(H%u'3$6$n$B(6J6J6J6J6JO!{ K 1$S!-*7#,'J%P!J%[!,'A&F%k , O#q+IJ6J6J6J6J<Jt*U#~!E&~!4$?$>$W Y$W >$3$:$7$F%E&} O#@(2)7J6J6J6J6J6J$(8$<!P%<#q&-)8#j)3%,'2%!(j%.$K S!, A(6J6J6J6J6J:##!V#`!u'-*8#,'f!t!+ !!Q#W!K%W$r#r#r#W$u$K%|!|!|!K%u$r## 0 1 ^!y Z  !4!8!T%a176v4v476x4a1T%8!4!H 8!T%S%9!z  #X + +'E&A$M#7!M#Y$M!4!Y Z <$Z Z <$<$ !G ;$7#$&?$k { 6$n!B&T!6!O!:#N$0%8$U#{ Y$J%}! #+  #;$X _!W$r#r#W$r#! ]!Q!Q!Q!1 G / Q!T#N%7#1$;!<!6$n!B&S#N$a!O!a!0%8$U#{ E&K J%}!+  #;$X _!W$]!# # # 0 5!* * 1 * 9!/ G :!-%8#1$?$k { 9$- S#Y!L%v!a!N$0%5#, 7$1$f!~ ~ i N#X 4#]!1 5!5!Q!Q!5!* 9!G ^!Y *GbL                                  ",
"                                  + l%N%O%b!.$u#M#p#' L%T!X$p&6!v!g [ U#W#A$k W t$j)M%W!1 0 # # ! W$K%K%K%K%u$|!4#:!e )  #% t!-%b!+'V#} p#' | N$X$p$6#S#n$7!9$#!G#, V#q#f!i ! 1 0 ]!# ! r#K%W!W!W!y!W!v#T#e ) z!##G%-)<#X!w!s#J /%S#Y!X$=!S#0%0%{!W#w#F%F%V#cCM%|!G 5!]!]!# # ]!]!# ]!0 ! W$r## 1 G 9!u$+ Q! !y 9!|,x$^)]!K%u$|!4#Q#L V!^!N N <$Z H [&S%M4x476v4Y7F5)8)8F5F5F5F5F5F5F5F5F5F5F5F5F5F5F5F5F5F5F5F5F5F5F5)8)8F5Y7v4x4T%R%j * ! W!M!i % o&b!&(t$o$V#& =!6J6J6J6J6J?(u!A$N!q&+'8#[!-%}!N#:!4#y!K%|!_!N#+ % G%Q%K & W##!=!<J6J6J6J6J6J6J?(9$W K X!+'8#2%J%-%}!+ ) }!l%s$J%j)-)S!:$7!T!3)6J6J6J6J6JO!u#$&1$S!+'8#!#U!q$U!J%!#q#1%3$s#' t*J)6J6J6J6J6JB(;#k s#s#w#E&;!F%4$F%E&h >!} U#. p#u(<J6J6J6J6J6J6JIJ')& >$c!.$t$H%v$!(!#3%,'j),%K c!.$C&A(6J6J6J6J6J=!D&N!`!<#t$7#2%q$M% #e M!R!W!y!|!y!y!W!V!4#_!_!4#R!V!y!K%W$# 1 9!M Z H [&S%M4x476v476x4a1M4S%[&N S%M4T%9!xIU!8#1$& B&O!p&p&O!& !!8!M r#y!W!v#z ~ + O%X!G#;#5$t#.%| =!X$L%=$/$0$} h >$u'j%f!W$/ $ 1 5!Q!0 # W$W$W$r#W$W!v#X N#N#}!x!l%q$,%P#G#;#- n$| =!X$S#.%=$5#U#h >$u'j%j)t!W$/ * 5!Q!0 ]!r#r#! # # K%R!L X T#z ) z!-%j%c!s#;#5$t#.%L%O!O#u!9#. R#A$k c!!([!x!]!<$M 9!G $ * 5!Q!Q!Q!5!0 W$W!M!:!L N#rENR                                  ",
"                                  1%h W#/$5$t#S#a!X$p$:#T!B&p#0$w#1$P!##l%l%## #i z M!W!K%|!|!K%u$W$! ]!0 5!$ ! z s$t$`!3$G#6$/$=${!B&T!p$p&:#Y!B&2$6$u#P%b!##% ##z!) z :!4#K%u$K%|!K%W$r#r#W$# 0 1 W$N#G%H%1%E&<!U#5$.%t#B&S#6#6!a!O#n$9#h 3$?$1$s$}!z!## #.+:!V!K%|!y!|!u$r#]!Q!* 9!ORPRQR~ L # $ * 4#M%]!H Z y hDhDe3NJ;RN#% Q%.$3$r$y!S%4!Z Z H [&8!T%a17686Y7F5)8)8F5F5F5F5F5F5F5F5F5F5F5F5F5F5F5F5F5F5F5F5F5F5F5)8F5Y78676M48!N y Q!u$4#X + M%P!!(H%X!Y$A$g ?(6J6J6J6J6J=J?(.%~!u'h(+'2%G%l%) z Q#R!y!|!R!X ~ }!M%U!<#0$3!, Y!7J<J6J6J6J6J6J2)g A$W u'r$H%Q%!#o&x!z!}!% -%f!!#Q%+'S!F%8$X$%(6J6J6J6J6JO!u#1$o$X!-)v$[!G%o&G%U!b!!(,%1%D&8$O#$(6J6J6J6J6J&)7!<!#!#!<!u#h w#, C&u#6$I v!=!p&@(5J6J6J6J6J6J6J6Jq+v!s#V#c!1$A&7#Q%2%[!!#,'k%A&W ?$K w#[(6J6J6J6J6J=!D&P%c!.$r$q#!(P!N%##;$X Q#_!4#4#_!v#Q#:!T#X T#M!v#_!R!W!y!u$# 5!G M Z H [&8!a1x47676x4a1T%S%R%4!a1x4T%j u$b!& 0%O#:#X$=!O!6##!z T%$ M%Q%q#<#~!A$J n!t#S#N$6#S#{!p#u!I 7$b!% x!% }!;$N#X M!u$! r#W$W$r#! # 0 5!* 9!# X O%H%X!<#C&9$3!5${!' O#6#Y!g p#u!I <!K [!x!x!}!;$N#X T#v#u$! W$W$W$r## 0 5!* G 1 L -%q#q&A&o$, f 5#g ' S#N$6#S#{!=$n!{ 1$f!)  # #;$!!v#_!V!# 5!Q!0 ]!0 1 $ 9!/ y j * Q#M%H%-*.$~!9$n!                                  ",
"                                  0$.%O!A(@(p$S#B&g n!J } h :$K 8#t!K%9!* Q!0 # r#r#W$|!y!|!W!v#L z e ;$% t!l%f!H%c!D&[ 8$' 6#')A('):#0%8$9#M#} h >$<#,%U!|!G 1 Q!Q!0 ! r#r#u$u$K%y!_!L e ;$;$x!-%N%b!+'V#u#0$u!| T!X$p$6!Y!| g 0$W#A$k P#8#J%b!l%# Q!]!]!# ! u$y!W!|!K%y!_!:!!!i >'>'##NRX!S!H%G%N#r#K%}!Q#y!v#L T#z e M%RRSR$&h M#g <!N#R%4! ! !H 4!R%S%a1x4v486Y7F5F5F5F5F5F5F5F5F5F5F5F5F5F5F5F5F5F5F5F5F5F5F5F5F5)8F5Y786x4T%R% !^!# y!M!i % o&!#v$A&.$~!=$p$Z(6J6J6J6J6J6J6JO!u#$&.$q&v$b!s$##i L _!W!y!R!L N#) % O%+'#!W#C&5$X$%(6J6J6J6J6J=JX$8$F%.$S!A&7#!(P!N%t!l%t!s$P!2%v$A&1$w#u![(J)6J6J6J6J6J6!G#o$<#q&,%Q%J%O%N%s$f!P!!#j)u'( . p#t*6J6J6J6J6J$(I } f } & & A$f . 0$9#{!T!&)7J<J6J6J6J6J6J6J6JIJ=Jt*p#E&P#`!o$-*8#k%2%[!b!3%k%q&4$E&w!C&A(6J6J6J6J6J=!& Y$P#o$q&,%Q%[!G%t!}!e X T#T#T#X z !!e i ~ i !!X L M!v#4#W!W$]!5!G y <$N [&M4x47676x4a1T%S%R%4!T%a1S%N M O%7!p&0%8$/$[ J [ ?$N#Z ]!,%F%<!0$t#6#p&')6#L%g 3!} h ~!E&P%[!r#y 9!* 1 5!Q!Q!]!W$u$W$W$r#W$W!v#!!)  #+ O%j%P#{ 9$W#.%a!#(#(O!Y!| u!. h ~!E&P%,%t!r#y G 1 5!Q!Q!0 # W$u$W$r#u$V!Q#X e ;$+ l%7#c!u#} #!W#u!a!p&T!| L%g [ & w#F%>$q#% 0  !j y / 9!$ $ 1 0 ]!0 Q!5!]!|!Q#X ~ ) i t!8#`!>!#!R#t#6#p$                                  ",
"                                  t#=$I 9#M#D&c!-*Q%f!+ z z X L v#R!K%W$u$u$K%|!R!M!L z !!z  #J%j%.$Y$w#R#O n!- .%' B&' n$- 5#. 9$9${ S!t!e ~ ~ N#z T#:!_!|!W$u$K%y!W!W!R!Q#z !!X + P!-)N!7$;!R#n!{!n$' 0%' n$g =$5#R#I%F%V#tQNR;$z z T#M!4#R!4#V!u$u$K%y!R!M!L L X e e ##b!+'V#C&( W#[ g B&n$8$9$1$Q# !r#k%`!?$E&7){ U#5#:JB&n$.%' v!& ##Y H 4!4! !H [&S%M4a176v486Y7Y7F5)8F5F5F5F5F5F5F5F5F5F5F5F5F5F5F5F5F5F5F5F5)8F5Y786v4a1S%4!Z $ u$_!!!}!O%b!k%,%<#P##!6#=JIJ6J6J6J6J6J6J6Jp&. 4$N!1$-)j)P!-% #N#M!R!y!W!v#T#i }!t!b!+'>$6$s#f O!5J<J6J6J6J<J=J6#D&N!K S!+'7#2%U!o&O%s$q$!#Q%j%h(P#I%S#2)7J6J6J6J<J7JN$k <#X!-*7#!(q$M%t!M%O%G%J%!(S!{ C&9$p$6J6J6J6J6J%(' I /$3!7!5#- L%A(&)u(2)q+7J<J6J6J6J6J6J6J6J6JZ(p&0%;#E&Y$K S!-*q#Q%2%[!b![!!(q&, h 1%E&A(6J6J6J6J6Jp$9$:$Y$K S!A&q#j)b!G%-%%  #+  #}!z!##% % ####z!}!+ ~ e z L 4#y!u$! 5!9!Y  !4!T%a1x47676x4a1M48!4!4![&R%8!S%R!1$C&u','G%O%o&[!f!e u$u$S!D&/$=$n!3!W#<!W .$v$ #Q#M!L T#:!R!W$! r#r#! r#K%W!_!_!Q#L X X + P!-)3$D&U#R#9#u!/%0%.%p#8$5#;##!F%V#$&7#~ L L T#:!_!W!W$! r#! r#K%W!4#v#_!Q#T#X + P!,%c!E&#!6$J g 0%' g O 3!I 5#& w!q&X!v$) 4#_!_!_!y!r#Q!* 1 1 * 5!! |!y!y!V!_!Q#Q#i ,'w!C&W#7!;#[ - n$u!5#3!I /$.                                   ",
"                                  K !#l%l%l%z!e T#M!4#|!K%|!K%W$! # # ]!0 5!$ r#z!H%w!4$h <!U#5$n$/%O#N$6!O!:#N$B&3!E&?$1$[!x!% % x!z!!!R!y!W!V!V!W!y!K%r#! ]!5!u$e z!+ -%h(s#& I%9$n!' O#N$T!6!N$B&g u!5#{ 1%U!-%t!##+ i !!_ _)f>$RW$r#! ! # ]!0 Q!* r#!!o&,%S!q&1%#!/$=${!B&S#6!p$p&N$.%I 9$s#?$j%V!4!W$u#L%O#N$6#6#a!N$L%g [ w#c!h(J%y!Y <$4!4!<$<$4!8!S%M4v486Y7Y7Y7F5)8F5F5F5F5F5F5F5F5F5F5F5F5F5F5F5F5F5F5F5F5)8Y786v4x4T%[&<$M 0 V!T#) M%U!!(q#t$c!s#5#A(6J6J6J6J6J6J6J6J6J%(X$=$k `!h(7#,'q$M%+ z Q#R!y!R!Q#z ;$z!-%J%o$J w#s#t#[(J)6J6J6J6J6J?(t#f 3$o$X!-*v$,'[!J%J%!#!(v$,%X!$&u#a!IJ<J6J6J6J7J&)B&, u'q&+'8#,'o&x!##% t!N%q$2%<#I%3$u#O!6J6J6J6J6JIJ$(@(t*[([(@(&)%(IJ6J6J6J6J6J6J6J6J6J6J6J6J6J6JB(n$/$R#C&W 1%S!t$H%&(!(3%[!!#2%h(G#<!w!~!A(6J6J6J6J6JA(O <!:$`!1$S!t$j%Q%,'J%f!o&s$o&G%f!f!G%G%G%o&N%t!## #;$e !!T#R!|!K%! 1 ^!Y  !R%M4a1x4x4a1a1M4T%[&<$ ![&R%[&y u$R!u$# 0 Q!# y!|!]!$ 1 X }! #+ ) ~ N#X M!Q#V!r#]!! r#W$r## ]!Q!5!* 9!# X O%+'t$$&w#6$3!5${!' Y!a!O#g p#u!I <!1%G%x!% }!;$N#X T#v#W$r#W$W$r#! # ]!Q!1 9!# X O%H%X!t$$&>!3!5$u!0%O#6#a!S#Z!g O { 1$f!) }!}!i Q#4#_!W!]!5!Q!0 Q!1 * $ 9!^!M j * ;$7#r$-*o$, f [ 8$.%S#6#O!T!g 2$/$W#>$f!;$ # #;$                                  ",
"                                  -%V!1 0 ]!# r#u$K%K%K%K%u$|!v#N#;$)  #% t!-%J%<#u#M#- 0%| T!X$p$Y!L%g [ U#U#& k V#Q%!#M%W!1 ]!! ! r#u$V!R!V!V!W!V!v#T#~ + }!z!G%-)u'h(w!A$B&Y!v!Y!X$=!v!0%.%3!A$k ;!~!P%,%M%! 1 Q!0 ]!# # E%! $R$ROPFL_!4#v#X ~ }!z!o&H%P#{ f & ;#| ')A(#(=!O#.%n![ f , V#r$v$,'x!!  !K%D&Y!v!/%B&p#0$& s#F%w!Q%-%i R!1 y Z 4!4!<$<$4!8!S%M4768686Y7Y7F5)8F5F5F5F5F5F5F5F5F5F5F5F5F5F5F5F5F5F5F5F5F5Y78676M48!N j ^!# _!!!z!s$[!Q%-)X!Y$0$L%u(6J6J6J6J6J6J6J6J6JIJJ)N$I%P#.$,%k%b!s$##i L 4#y!W!_!L N#) x!G%A&#!D&& J .%B(6J6J6J6J6JZ(p$=$E&$&.$h(j%k%2%3%3%2%Q%q#+'u'K { O!6J6J6J6J6J=Jp&=$F%u'r$,%&(!#O%##}!z!x!M%G%3%u'I%%&G#6!6J6J6J6J6J6J6J6J6J6J6J6J6J6J6J6J6J6J6J6J6J6J6J6J6J6J6J6J<JA(5$R#9$, W w!<#q&+'q#&(!(3%3%!(u'D&A$`!F%')<J6J6J6J6J&)' 0$;!V#w!o$X!-*j%&(j)3%[!b![![!!#!#!#!#3%!(8#t$X!r$j%3%O%i v#V!y!W$Q!G y <$R%M4a1x4x4a1a1M4T%[&<$ !R%8!H H [&[& !j Y j / Q!# 0 1 9!G M N R%N  !Z y ^!$ 1 # r#r#r#! W$R!X i )  #+ O%j%P#I%A$0$.%a!#(#(O!Y!B&9#} h ~!E&P%,%t!Q!9!* 1 5!Q!0 ]!# W$W$W$r#W$W!v#X i + + O%j%P#{ 9$A$0$L%#(')N$v!| u!3!A$C&~!N!q#% ]!Z y / ^!$ * $ * Q!]!0 Q!Q!W$W!Q#X e ~ i t!q&G#} #!R#t#a!')p&O#/%{!J ( w#?$V#u'q$0  !j M /                                   ",
"                                  T#V!|!y!y!K%W$r#! ]!0 5!$ ! z!j%.$`!3$G#6$/$=$u!S#6!p&'):#Y!B&2$( E&K J%% t!t!% + !!z L V!|!W!W!y!K%u$K%u$! ]!5!u$e G%r$c!?$s#U#5$t#u!n$Y!6!O!6!Y!B&9#h 3$P#[!x!% #### #e :!|!K%|!K%K%u$r#]!Q!0+Z-TRURVRHG-%q#K ~!{ 6$8$B&S#T!Y!N$6#' g u!5#{ K b!##}!~ X Q#R!W!r#$ j r#P%6$#!k 7$u'o&~ ;$;$!!Q#W!u$# 1 9!Y N N Z Z N R%8!T%x4v486Y7F5)8)8F5F5F5F5F5F5F5F5F5F5F5F5F5F5F5F5F5F5)8F5Y786v4x4T%R% !y $ W$M!i x!G%3%8#t$<#7$0%u(5J6J6J6J6J6J6J6J6J6J<JIJO!( P%$&A&8#,'f!l%) z Q#W!|!V!Q#X i ##s$3%$&3!5#E&>!:#6J6J6J6J6J7JZ(S#s#K $&<#-*7#&(j)!(k%8#,%t$o$P%A$X$6J6J6J6J6Jq+T!3!7$u't$H%Q%[!-%}!+  ###l%o&3%S!{ 3${ O!6J6J6J6J6J6J6J6J6J6J6J6J6J6J6J6J6J6J6J6J6J6J6J6J6J6J6JIJ=Jp$O A$I%, 3$P#1$S!t$-)q#Q%!(!(j)1$R#0$N!4$=!IJ6J6J6J6Jq+#(g C&W V#1%.$X!t$-)j%v$&(Q%k%k%k%Q%&(&(v$h(4$5#0%' I s#S!z!:!v#R!|!# * / Z [&T%a1x476x4x4a1M4R% !H S%S%N  ! !<$Z <$ !4!Z Q!R!!!L * ^!^!M M / 9!$ * $ G $ 1 1 * G / 0  #q#K :$h <!6$8$' T!6!O!:#N$0%8$U#{ Y$J%}! #+  #;$X _!W$r#r#W$r#! # ]!0 Q!1 $ ^!0 T#O%q#K ~!<!6$8$' O#a!6!O!a!/%I u#7$4$K P!+ ;$;$e :!V!# 5!Q!Q!Q!5!* G G $ G / Y / v#t!v$o$3$w#u#9$Z!S#Y!L%v!a!6#/%O C&:$o$G%i i e !!T#R!]!1 5!5!Q!                                  ",
"                                  |!y!W!y!V!M!X !!N#;$% t!l%f!S!u#W#[ 8$' 6#')A(X$S#.%8$3!0$} h >$r$k%-%y!G 1 Q!0 # W$u$K%|!y!W!R!Q#X ;$;$+ l%N%O%b!+'V#( 7!5$0%N$X$p&=!a!B&[ U#W#} h V#7#[!G%W!1 0 # ]!# r#u$|!|!u$W$K%R!:!!!i ;$ #o&HRWR}Qw!s#;#Z!L%T!X$X$T!| L%g . k ;!~!P%,%t!W$y / / M y Y j j y Y ]!,%c!A&k%J%+ 5!<$/ 9!G $ * $ G 9!^!y H H Z Z H [&8!T%x47686Y7F5)8)8F5F5F5F5F5F5F5F5F5F5F5F5F5F5F5F5F5F5)8F5Y786v4a1S%4!Z / 5!|!X + -%P!!(j%h(K h X$6J6J6J6J6J6J6J6J6J6J6J6J6J#([ C&P#h(H%k%J%N%}!e :!V!|!y!4#:!!!+ l%s$q#7!2$?$F%n$u(5J6J6J6J6J6J')M#~!N!o$r$,%q#v$v$8#j%+'q&$&W f X$6J6J6J6J6J%(' W#3$u'A&q#j)J%t!+ ;$) }!l%o&!#A&;!F%& N$q+IJ6J6J6J6J6J6J6J6J6J6J6J6J6J6J6J6J6J6J6J6J6J6J6J6J6JIJ=Jp$/$D&u#E&:$P%w!.$h(t$-)7#&(Q%Q%K M#9#7$~!S#q+6J6J6J6J7J%(Y!G#3$W P#1%1$u'h(t$-),%H%j%j%j%j%H%,%S!w#5#8*<J6JB(.%s#N%T#:!v#W!r#5!^!j [&T%a1x47676x4a1M48!H N T%M4[&<$M G Q!y!v#T#) o&k%r$!(0 M ^!^!^!/ ^!9!* u$M!X T#!!+ ##x!q$u'G#0$=$.%n$| =!X$/%=$/$M#f s#>$u'j%q$u$/ $ 1 5!Q!0 # W$W$W$r#W$W!Q#!!e e  #% x!q$,%P#G#0$Z!n$| =!X$O#n$=$/$W#s#N!q#[!3%t!W$M G G $ * 5!]!# ]!0 0 u$V!M!T#L X ~ + t!q#`!s#;#5$t#.%L%a!S#g 3!R#W#A$k c!!(b!% 0  !y / / ^!$ Q!0 Q!Q!5!                                  ",
"                                  W$r## Q!K% #b!&(+'1%h f W#7!{!S#6#a!O!:#N$B&g n!{ 1%!#t!M%t!%  #e z M!W!u$K%K%u$L4L4W$! # ]!0 |!e G%A&h(1%h W#/$5${!B&Y!6!O!O!T!n$=$5#U#>$P!##l%t!% + !!X L W!K%|!|!K%u$W$W$! 0 1 G ! z o&H%.$P%s#U#I:t#u!n$S#N$6#6!T!B&2$9$G#;!$&G%##z!z!+ !!Q#K%# ]!0 1 G M Z  !<$<$1 o&J%X K%|!u$Q!1 0 Q!5!1 * 9!M j j y <$<$Y j  !4!R%S%a1v486Y7F5)8)8F5F5F5F5F5F5F5F5F5F5F5F5F5F5F5F5F5F5)8)8F58676M48!N j G ]!V!N#z!s$[!Q%-)S!N!f 8*6J6J6J6J6J6J6J6J6J6J6J6J6Ju(L%M#%&u'-*v$3%G%l%;$X R!K%|!V!v#T#i  #t!v$>!. u#<!7!/%&)6J6J6J6J6J2)a!5#F%1$S!A&,%H%H%,%-)A&h(K c!I%:#6J6J6J6J6J3)=$I%P%S!-*7#!(P!l%;$i ~ + % O%P!Q%$&s#M#' ')Z(6J6J6J6J6J6J6J6J6J6J6J6J6J6J6J6J6J6J6J6J6J6J6J6J6J6J<J8*O ( G#~!:$%&N!1%.$h(A&H%q#q#7#1%;#O <!u#5$&)6J6J6J6J<J7J:#<!?$%&Y$V#`!$&.$S!q&r$t$r$r$r$t$+'q&F%t#A(q+6J6J=JB(O U!z T#Q#V!W$Q!9!Y 4!S%a1x476v476x4a18!H 4!M4a1S%<$* u$N#!(o$~!& ;#I .%{ W$j / Y Z H N 4!^!~ 7#q&A&1$C&9$3!5$t#O#6#a!O#g p#u!I :$!#l%t!l%##+ e z :!K%r#W$u$u$u$W$! 0 5!* 9!# X O%H%X!<#w#6$3!5${!' O#6#Y!g p#u!I <!1%!#l%l%z!;$X :!L v#u$# ! ! # 0 5!1 $ G ^!G M!M%7#r$-*o$, f 5#g ' S#N$6#S#{!2$M#h 1$f!;$ # #;$!!_!4#y!0 1 5!5!Z$x#* $ 9!/ y j                                   ",
"                                   ###x!% G%h(3$w#I%M#n$6#=!p$=!v!' ' {!3!} k ;!%&,%M%|!G 1 0 ]!# ! ! W$|!|!K%y!_!M!-$e  #x!t!x!f!,%V##!A$0$.%6!A(@(#(:#/%g 8$J A$k ?$N!<#P!K%9!* Q!0 # W$u$W$|!y!|!W!v#L z N#~ ##x!% f!H%P#{ R#5#' 6#p$')X$a!v!g M#. } h >$u'H%j)M%W$0 # ]!]!! W$u$W$# 5!Q!# u$V!R!y!]!1 t!l%5!4!Z / * 5!]!K%y!|!W!v#L z _!^!<$<$Y Y <$N R%S%a1v486Y7F5)8)8F5F5F5F5F5F5F5F5F5F5F5F5F5F5F5F5F5F5)8)8F5v4a1S%[& !y * ! v#;$l%q$2%7#A&<#3$O B(6J6J6J6J6J6J6J6J6J6J6J6J6Jq+A(u!4$o$q&j%!(P!N%}!N#_!|!K%y!R!M!z ~ % ,'P#G#R#. I%M#')6J6J6J6J6J7J2)| s#1%1$h(A&-*-*A&t$q&<#`!P%( =!6J6J6J6J6J&)[ E&P#S!-)v$,'q$% i !!N#~ z!M%f!!#t$<!7!2$L%u(6J6J6J6J6J6J6J6J6J6J6J6J6J6J6J6J6J6J6J6J6J6J6J6J6J6J6JB(B&5#J 6$>!;!Y$`!1$<#h(-*-)H%j%1%6$2$J 9$. #(6J6J6J6J6J6Jt*[ G#~!3$P%P#w!$&o$u'S!X!S!S!S!o$P#F%[ t*6J6J6J6J2)6!U#q$N#X :!4#u$Q!G y N S%a1x476v476x4a1S%N 4!T%M4T%4!M _!,%w#0$.%a!X$8*&)5#z y 9!! R!X N#X ##r$G#} & ;#t#a!#(#(6#| u!9#} h ~!E&P%[!W$/ G * 5!0 ]!]!# u$K%u$u$W$u$V!Q#!!)  #+ O%j%P#{ 9$W#.%a!#(#(O!Y!| u!. h ~!E&P%H%t!W$/ $ 1 5!0 ]!0 ]!r#W$r## ! |!4#:!z i ;$##8#`!G#} #!R#t#a!p&T!| L%g 7!A$k ?$K v$% 0  !j M / ^!G G $ 5!Q!5!0 W$O.|!v#X ~ ) i                                   ",
"                                  w!4$h { 6$Z!0%| O#N$6!:#=!6#=$h 3$?$1$[!% ##z!}!e :!W!u$K%K%|!|!u$! # # ]!5!u$5EXRt!j%P#G#A$D&6$8$' Y!T!6#O!6!T!| .%/$F%u'8#G%% z! #) i L y!u$K%|!y!y!|!u$! # ]!5!u$e -%[!v$<#k } U#[ 5$n$O#a!O!O!T!B&p#5#U#k $&o&l%l%## #;$e z :!W!y!|!u$W$W$r#]!5!9!Z G _!l%v$+'&(x!r#J%b!# R% !j M M G L HG5El%v$1$:$h(Q!N <$Y Y <$N R%T%x4v486Y7F5)8)8F5F5F5F5F5F5F5F5F5F5F5F5F5F5F5F5F5F5)8F5Y776M48!N j ^!Q!u$:! #-%J%k%H%r$<#;!0%Z(6J6J6J6J6J6J6J6J6J6J6J6J6JIJq+T!E&K S!-)Q%!#o&% ~ M!y!K%K%y!_!L i }!s$j)P#2$=$7$w#a!6J6J6J6J6J<J7Ja!<!c!w!.$X!h(q&h(X!S!1$>$, M#')6J6J6J6J6J@(A$P%1%S!-)Q%[!o&z!N#X z e + l%o&b!A&>!;#9$I A(6J6J6J6J6J6J6J6J6J6J6J6J6J6J6J6J6J6J6J6J6J6J6J6J6J6J6J=JB(A(p&a!- u#Y$c!1%K o$h(A&+'H%1$I%O .%2${ O!6J6J6J6J6J6JJ)O!3!>!4$P%P#`!1%$&o$<#u'S!S!X!W R#t#p$J)6J6J6J6J6!G#-*-%~ z L 4#W$5!9!Y 4!T%x476v4767676x4T%4!4!8!S%S%T%x4L R#v!N$:#X$=!:#a!3!b!$ 5!l%A&~!#!{ A$=$v!N$a!6!O!N$0%8$& E&K J%}! #+  #;$:!u$! r#W$u$u$W$! ]!]!0 5!* 9!]!T#O%q&:$h <!6$8$' O#a!6!:#N$0%8$U#{ E&K s$ #+  #;$X _!u$! r#W$r#! ]!Q!Q!0 Q!$ M 5!L N%7#1$?$w#D&2$n$S#Y!L%v!a!6#- s#3$7$1$G%i i e X Q#y!0 * 1 5!0+5!* 9!9!G ^!Y *GbLfQ85&(K w#D&>!                                  ",
"                                  M#p#B&/%Y!X$O!N$v!g [ U#W#A$:$7#[!!#t!y!* 0 # # r#u$y!y!|!K%u$y!Q#N#;$) + z!f!~?P YRG#7!0%6#S#Y!X$X$Y!| u!3!6$D&G#C&N!!(##L ! 1 0 ]!0 ]!! |!y!|!K%K%y!_!L ~ z!% ##G%,%1%3$w#9$n$N$6!:#p$:#S#B&- [ A$k ?$N!<#8#M%# * 5!0 # ! r#r#W$|!|!W!_!v#_!Q#X e + ) M%v$w!u#( , ,%u$x!s$Q#u$4#:!T#z z!GEh(t$K s#J u!>!y!H <$Z j Z H R%T%x476v486Y7F5F5F5F5F5F5F5F5F5F5F5F5F5F5F5F5F5F5F5F5F5F586x4T%R% !y $ # y!X % o&!#v$+'X!o$k O!5J6J6J6J6J6J6J6J6J6J6J6J6J6J6J6J')D&N!o$t$q#!(P!-% #T#V!|!K%|!V!Q#!!) x!s$r$;#O F%, g [(5J6J6J6J6J6J8*/$s#Y$1%1$<#u'<#.$o$w!?$>!2$[(6J6J6J6J6Jt*<!1%1$X!,%k%J%O% #z L T#!!;$% O%P!-*>!U#G#R#p&6J6J6J6J6J6J6J6J6J6J6J6J6J6J6J6J6J6J6J6J6J6J6J6J6J6J6J6J6J6J<Jq+X$5#( >!C&Y$K <#h(r$-*.$;!0$T!0%<!n$?(=J6J6J6J6J6JZ(v!I U##!>!{ u#G#h w#C&w#w#C&9$L%?(7J6J6J6J=J?(5$S!s$l%~ X :!R!W$5!9!Y 4!T%x476v4767676x4M4[&4![&R%S%x4G5Q#/$| t#8$[ f & 6$h 3%G ]!2%E&Z!N$' 0%6!S#.%5$9#;#A$k >$t$j)t!W$/ $ 1 5!Q!]!r#W$r#r#r#K%R!M!N#!!i z!l%t!U!H%c!& =$.%n$| =!X$Y!n$2$0$} h >$u'j%j)t!0 $ 1 5!Q!0 # r#W$r#! W$W!v#X N#!!i }!% q$,%P#G#;#5$t#' O!=!O#u!9#. R#} ?$&(P![!% 0  !y ^!9!$ * Q!0 Q!5!1 0 K%Q#L :!L N#rENRZRP [RJ B&O#'                                   ",
"                                  B&B&t#=$9#9$u#4$w!7#% X N#N#X M!v#v#4#y!K%K%|!R!v#M!:!T#!!!!z  #Q%N!E&h #!. I .%/%B&B&n$.%g =$/$. I%3$$&j%l%!!N#N#!!X Q#R!W!K%W$u$K%|!V!M!:!T#!!N#e ##b!+':$A$;#J I .%/%B&n$.%=$O 7!0$U#G#c!-*[!;$T#T#L :!Q#4#W!u$u$u$W$K%W!_!M!L z z  #IR)Rh0j%`!w#0$O 5$u!B&' Z!M#c!# j 4#j)1%3$~!, { M#:75,B&n$.%' v!A$:!j  !N N <$ ![&S%a1x476v486Y7Y7F5)8F5F5F5F5F5F5F5F5F5F5F5F5F5F5)8F5Y7Y7v4a1S%4!Z ^!Q!u$4#i -%P!!(j%q&o$`!I%[(<J6J6J6J6JIJ=JJ)=J<J6J6J6J6J6J6J$({!~!K u'-*v$!#f!t!e _!W!K%u$|!R!M!z  #G%&(o$;!U#0$I%M#B(6J6J6J6J6J5Ju(| C&V#c!1%1%w!`!c!N!F%. n$B(6J6J6J6J6Jt*u#$&.$h(H%j)P!-%) T#M!M!T#e  #l%G%-)>!} F%D&=!6J6J6J6J6J6J6J6J6J6J6JIJZ(Z(J)=J7J<J6J6J6J6J6J6J6J6J6J6J6J6J6J<JJ)u(@(t*v!f F%Y$$&u'h(X!.$, t#T!9#U#I p&=JIJ6J6J6JIJZ($(B(t*A(#(')p&p$X$p$8*[(A(?(%(5J<J6JIJq+=!3!7$7#o&l%i T#Q#V!r#1 ^!j [&T%x476v48686v476a18![&H 4!T%7686]!A&<#H%b!}!V!R!l%o&z y ]!J%Y$;#I 9$#!<!P#v$ #Q#L L :!Q#_!4#W!W$! r#r#! r#|!4#Q#:!L :!~ U!-)Y$3$, U#I {!.%t#t#.%=$3!6$A$9$<!P%q#;$X X T#:!v#_!4#W!W$r#r#! r#K%W!4#Q#:!:!~ q$,%V#7$3$, M#- u!g u!n$t#5$3!f f u#P#v$) _!M!M!_!|!u$K%7 x$|,^)Q!Q!# W$|!R!v#v#X#j(b2c!3$Y$F%9$I )+B&{!r gG5$9#9$I%                                ",
"                                  N!u'8#f!x!}!+ ~ !!M!W!u$K%|!|!|!u$r#! # ]!5!u$}![!v$+'1%h f W#7!g S#6#a!O!:#N$B&p#J h 1%,'-%N%-%l%z!;$N#T#4#y!y!y!|!K%u$! ]!0 5!$ ! z s$-*r$K k U#/$=$Z!n$T!p&')=!T!B&2$6$u#N!J%z!##z!}!;$X M!R!u$W$u$W$r## 0 0 # 0 5!$ ! !!G%,%w!E&<!~LI:AB:7B&S#6#a!S#0%t#3!k `!-*s$G T%L s#/%O#N$6#6#6#S#0%t#3!h V#S!b!# Y <$4!4!<$<$4!8!T%76v486Y7Y7Y7F5)8F5F5F5F5F5F5F5F5F5F5F5F5F5F5)8)8F5Y776T%[&<$M * ! W!L }!f!3%&(-)S!P#E&[ &)6J6J6J6J6JZ(')O!A(=J6J6J6J6J6J6J7Jp${ w!1$h(H%k%[!o&+ L 4#|!u$W$K%R!M!~ l%G%3%K 3!2$7$w#')<J6J6J6J6J6J6JA(R#4$W Y$P%Y$Y$W ?$>!g X$%(6J6J6J6J6Jt*u#1$<#q&j%!(q$t!~ M!_!4#Q#X ;$% s$-)( 6$?$u#O!6J6J6J6J6J6J6J6J6J6J6J$(| | a!#(u(5J6J6J6J6J6J6J6J6J6J6J6J6J6J6J6J6J6J6Jq+#(T!n!%&S!X!X!h($&:$9$.%f & {!X$%(6J6J6J6J6J6J6J6J<J<JIJIJIJ7JIJ<J6J6J6J6J6J6J6J3)6#[ c!&([!G%% ;$z v#y!# $ M <$R%M476v486Y7Y786v4a1T%R%N 4!a1v4a1N Q!# 0 1 9!j Y 1 ! r#M 9!R!z N#!!T#L X Q#y!0 5!]!# ! ! ]!0 Q!0 Q!1 $ ^!0  #q#K :$h <!6$8$' T!6!O!:#N$0%5$R#>!W J%}! #+  #;$z v#W$r#r#W$W$r## 0 Q!Q!1 $ ^!0 T#O%q#K ~!<!6$8$' O#a!6!O!a!/%O G#:$4$K U!+ ;$) i L W!]!1 5!Q!Q!5!* G G $ G ^!M 9!M!M%v$K C&#!<!f - S#Y!L%v!a!N$0%5#;!<#v$a2Q-L*H&                                ",
"                                  f!z!L r#1 0 ]!# ! W$|!y!|!K%|!_!L e + z!% ##G%h(3$w#I%M#n$6#=!p$=!v!' ' {!3!} h 7$w!q#O%V!1 0 ! r#W$u$u$K%W!W!y!V!Q#M!M!!!) % x!z!s$j%P#I%& ;#.%6!')A('):#/%8$9#M#} h >$u'H%f!K%9!* 1 5!Q!]!! r#u$u$W$K%R!M!z e i ##t!M%J%-)V#u#M#u!| T!X$p$6!Y!| g R#>!h ;!w!k%M%i R!^!R%N#( Y!v!/%B&p#U#<!k ~!c!v$N%i R!G y Z  H H<$<$4!8!T%x4v486Y7Y7Y7F5)8F5F5F5F5F5F5F5F5F5F5F5F5F5F5)8)8F5Y7x48!N j ^!Q!u$4#z x!P!!(q#A&u'>$} u!2)6J6J6JIJ=J?(T!0%O#@(q+IJ6J6J6J6J6JB(. 7$P#<#-*8#2%U!##!!Q#W!u$W$u$y!_!N#}!t!G%A&#!R#~!h 0%%(6J6J6J6J6J6Ju(- k %&3$?$3$3$?$;!} v!?(=J6J6J6J6J6J[(G#o$u'r$q#2%G%x!e Q#4#R!_!L i z!O%q#k #!4$#!6#=JIJ6J6J6J6J6J5Ju(@(?(p&/%| N$=!8*?(&)@([(@(3)J)IJ6J6J6J6J6J6J6J6J6J6J6J6J6J5JX$6$F%N!1$S!q&r$7$.%/$. /$u!O!&)=J6J6J6J6J6J6J6J6J6J6J6J6J6J6J6J6J6J6J6J5J@(S#[ ;!+'[!P!s$z!i T#4#u$Q!9!Y H 8!a176v486Y7Y786v4a1T%8!4![&x476M4S%T%S%[&H  !<$j M 0 R!^!<$^!M 4!8!4!H j ^!* Q!]!# # ]!r#R!z N#!!e }!x!l%q$u'G#0$=$.%n$| =!X$L%=$/$M#f s#%&<#,%U!u$/ $ 1 5!Q!0 # W$W$W$r#u$W!v#z N#e }!x!l%q$,%P#G#0$Z!n$| =!X$Y!n$=$/$U#s#N!7#b!3%t!r#y 9!$ * 1 5!0 ]!0 0 0 u$V!M!T#L X ~  #M%q#`!h M#n$S#' /%a!S#g H1<,W#A$k P#P-;0N7g!Z#]RiD?*                              ",
"                                  T#M!4#|!K%K%u$r#! # # # ]!Q!]!!!o&H%w!4$h <!U#Z!0%| O#N$6!O!:#N$5$h %&3$1$[!x!% ## #i T#R!y!W!V!V!V!y!u$W$r#P.x$K%i ##N2q#c!s#& I%9$n!' Y!T!N$O!6#' g g /$:$3%t!M%t!%  #i !!:!y!W$W$W$r#! r#! ]!5!* 9!# X s$j%h(<#w#U#9#5${!B&S#6!p&=!T!' n!U#{ E&1$-%) ;$e T#V!W$# 5!/ N :!3$;#( k 7$S!l%) + ) N#M!V!u$# $ M j FDFDZ Z N R%S%a17686Y7Y7Y7F5)8F5F5F5F5F5F5F5F5F5F5F5F5F5F5)8F5Y786a1R%H Y $ # y!Q#e t!J%k%,%q&<#F%8$X$=J6J6J6J=J?(:#| g =$O#8*q+6J6J6J6J6J%(n$U#?$o$q&,%&([!t!i L 4#|!W$r#K%V!L + x!s$2%q&%&& U#U#')6J6J6J6J6J6J5J:##!?$4$;!F%F%;!C&6$a!2)7J6J6J6J6J6J[(s#<#X!-*7#,'o&% !!v#V!W!R!M!N#}!N%!(1$%&C&R#| ?(=J6J6J6J6J6Ju(| Z!{!/%8*&)?(#(O!O#B&- 8$- N$[(J)6J6J6J6J6J6J6J6J6J6J6J6J6J<J%(p$u!D&W <#-*+'P%p#T!n$0$6$3!' &)6J6J6J6J6J6J6J6J6J6J6J6J6J6J6J6J6J6J6J3)- I%c!A&H%Q%P!N% #!!M!W!! 5!^!j N S%x4v486Y78686v476x4M4S%[&R%a176M4S%R%R%R%R%8!M4R%^!4#x!$ 8!Z y Y Y y M 9!$ $ $ $ G ^!/ 0  #j%h(t$1$C&9$3!5$t#O#6#a!O#g p#u!I 7$!#l%t!l%##+ e z :!K%! r#r#W$r#! # 0 5!* G # T#N%j%h(<#C&9$3!5${!' O#6#Y!g p#u!I <!1%b!% x!z!;$X M!:!_!W$*RuEP.E%0 5!1 $ ''F+G M!M%7#r$-*.$E&} /$g ' S#6#O!T!u!n!^R_R`Rc.;$ #;0q-+/VEu4o#aRy$Y?Y?fD                              ",
"                                  u$K%K%K%K%|!4#:!N#;$)  #% t!f!-)P#u#M#- 0%| T!=!6#S#L%g [ U#U#& ?$7#b![!t!y!1 ]!r#W$u$|!V!R!V!V!W!V!:!i +  #}!C's*+'<#$&G#[ B&Y!v!Y!X$=!| /%g 3!A$k ;!~!P%!#y!G 1 Q!0 ]!]!]!! K%K%W$K%R!_!4#v#N#+  #+ N%j%P#u#} U#.%6!')8*#(=!O#.%I M#f s#>$u'j%j)l%5!M / M M M M y M y  !V!,%`!A&Q%b! #G M 9!G $ * * $ G ^!/ Y H FDZ Z H [&S%a176v486Y7Y7F5)8F5F5F5F5F5F5F5F5F5F5F5F5F5F5)8F5Y7v4M4[&<$M 1 r#R!T#) O%3%v$-*<#`!<!| $(IJ6J6J6J3)6#.%Z!2$3!5$S#$(6J6J6J6J6J=Jp&p#, $&u't$q#!(s$+ !!Q#W!u$r#W$|!Q#i z!M%G%[!<#R#7!s#Y!=JIJ6J6J6J6J6J&)7!G#w#, C&C&w#h W#X$=JIJ6J6J6J6J<J')h <#h(+'v$!#O%z!X 4#W!y!V!Q#z  #M%b!H%1%u#[ Z!6#3)6J6J6J6J6J@(- 0$;#=$u(<J=J&)p&Y!B&- 8$p#| O!#([(A(@(2)=J<J6J6J6J6J6J6J6J6J6J6J@({!& W X!-)w!2$[(p&8$R#R#5#L%p$u(7J6J6J6J6J6J6J6J6J6J6J6J6J6J7J%(t*' I%N!-*v$7#k%f!l%) L 4#u$0 $ M <$4!T%76v486Y78686v4v476a1T%R%8!M4x4a1T%4!M * ! y!_!!!x!k%<#+ Q!M Z y M y M 9!# y!Q#z i ;$) N%X!G#} A$0$.%a!#(8*a!v!u!9#} h ~!E&Y$!#u$/ G 1 5!0 ]!]!! u$u$W$r#! W$W!v#!!)  # #O%q#`!G#} R#.%a!#(#(O!Y!v!u!;#h ~!E&P%,%t!r#y G 1 5!0 ]!0 ]!r#PIuE>&P.O.4#:!z i ;$##8#`!G#} #!W#u!a!p&V.| 6P+3[ & k :$K bRcRx$1+iFe3y(?*[*dRh!{*W&{*l&eR                              ",
"                                  r#! ]!0 5!]!z s$j%.$`!3$G#6$I Z!n$S#6!p&'):#Y!- 6$u#E&K J%% t!t!}!!!T#X :!V!y!W!W!|!u$u$K%u$! ]!5!W$% ,%1$c!?$s#vQEQAB.%O#a!6!O!6!Y!B&9#E&:$K [!% ##z!## #X W!u$K%K%|!K%W$! ]!]!Q!$ ! (RfRHG-%r$:$k u#9$n!B&v!Y!T!O!6#' g u!5#{ 1%U!-%t!##+ e z T#v#r#0 0 Q!5!$ / Y Z Z j ]!+ % :!y!W!K%Q!0 ]!# ]!0 1 G M Z Y j H H Z Z H 4!T%x476v486Y7F5)8)8F5F5F5F5F5F5F5F5F5F5F5F5)8)8F5Y78676T%N j 9!0 K%v#!!}!f!j)q#t$1%F%0$X$5J<J6J6J6J@(- 0$;#M#[ W#2$[(6J6J6J6J6JIJZ(S#G#1%1$X!,%Q%U!% ~ L 4#|!W$r#u$R!z ;$z!-%P!u';#/$G#B&?(=J6J6J6J6J6JZ(v!5#D&k s#G#u#u#6$p&<J6J6J6J6J6J5Ja!C&.$h(-)&([!N%}!T#W!K%K%y!4#L ;$x!q$Q%1$D&[ ;#=$t*6J6J6J6J6J?(g ;#A$7![(IJ<J5JZ(3)&)@([(#(6!| {!n!/$p#6#?(7J6J6J6J6J6J6J6J6J6J6J=J?(/%& P%A&o$5#?(2)p$L%5$0$& W#v!%(6J6J6J6J6J6J6J6J6J6J6J6J6J%(:#5$F%c!w!$&h(&(U!l% #e v#|!! 1 ^!j N R%M4v486Y7F5Y7Y78686v4a1T%8!8!S%M4x4x4N W!}!,'S!7$<!A$J I W P!! N <$<$N R%<$R!l%v$1$?$k { 6$Z!S#N$6!O!:#N$0%5$} C&K J%}! # #}!) L K%r#W$W$u$u$W$! ]!0 Q!1 $ ^!0 T#O%q&:$h <!6$n!B&S#N$6!:#N$0%8$U#{ , K s$ #+  #;$X _!u$! r#W$W$r## Q!5!Q!5!g!y(5!L N%7#1$?$w#D&2$n$S#Y!L%v!a!6#gRhRiR7$I;mAQ-~ i 57'4R.T$jR)N)Nm#{*,3-0)#+&N0kR                                  ",
"                                  N#e ;$% t!s$,%P#u#W#[ 8$' 6#')'):#S#.%8$3!0$} F%u'H%k%-%y!G 1 Q!]!W$u$W$u$y!W!y!V!:!~ ) ;$+ l%N%O%b!.${ R#7!8$' N$X$')O!S#u!7!W#R#} h V#Q%3%-%y!* 0 # ]!# W$y!y!|!K%u$|!R!M!N#;$)  #o&HRlR}Qw!& 5$.%/%Y!=!=!T!| n$3!A$k ;!~!]- *a2! 1 Q!0 0 ]!]!]!# r#]!Q!5!Q!# K%R!_!K%^!Q!N#z G H Y 9!Q!]!]!0 # K%V!Q#T#:!5!j  !H  !<$ !4!T%x476v486Y7F5)8)8F5F5F5F5F5F5F5F5F5F5F5F5)8)8F5Y786x4S% !y * ! W!:!~ x!J%v$-)h(P%( {!@(6J6J6J6J6JA(I } 6$R#0$9$5#p&5J<J6J6J6J6J6JX$f >$c!.$A&7#[!M% #z v#y!W$r#r#y!L e + x!G%+'h 9$#!3!L%u(6J6J6J6J6J5J[(/%U#G#<!#!D&#!W##(6J6J6J6J6J6Jq+| E&.$r$H%k%J%-% #:!|!W$W$K%W!M!i z!o&2%<##!. <!;#')6J6J6J6J6JB(n$M##!f 0%=!')A(@($(Z(5JIJ=J[(6#t#n!/$8$/%6!')?(2)7J6J6J6J6J6J6J6J6J6JA(5#E&q&r$& X$Z(%([(S#n!& ( 5$T!:#=!p$#([(t*@(t*8*p&=!a!O#n$I #!.$h(u'o$t$[!M%}!i T#V!W$0 G y  ![&S%a1v486Y7F5F5F5Y786v4a1T%S%8!R%S%x4v4 !-%X!E&;#t#T!N$O!N$( -)K%N 9!W$:!e ##v$w!s#;#5$.%n$| O!S#.%5$/$0$} h >$q&Q%M%u$/ $ 5!Q!0 # u$K%u$u$W$K%R!v#L X e }!x!l%q$,%P#& =$.%n$| =!X$S#.%2$0$} h >$u'H%Q%M%]!$ 1 5!Q!0 # W$u$W$r#u$W!v#z N#z N#}!% f!H%c!s#;#5$t#' :#=!O#)'],e*R#} y4mR?&T4RIE%W%A!4%[*cNY'?,nRoRpR,3eDe/bE6)pP                                      ",
"                                  v$+'1%h f M#p#' O#6#a!O!:#N$.%g /${ 1%!#t!M%t!z!i !!z M!W!u$K%K%u$K%u$W$! # 0 5!u$x!-)u'h(1%h W#/$5$t#O#a!:#:#O!Y!n$=$M#k $&J%% t!t!% + z z :!V!|!y!|!K%u$W$r## 0 5!$ ! z s$t$`!3$s#U#I:t#u!n$Y!N$6#a!Y!n$I f s#N!b!##z!z!##}!e :!|!K%|!K%u$W$! ]!0 5!G M Z G v#t!8#t$[!0 # P!P!# 4!Z y ^!^!/ Y 1 :!-%8#$&c!T#j  !N 4!4!H N S%a176v486Y7F5)8)8F5F5F5F5F5F5F5F5F5F5F5F5)8F5Y786v4a1R%Z ^!Q!u$4#z  #N%3%q#A&X!7$I :#%(6J6J6J6J6Jt*=$. M#;#U#3!g O!&)=J6J6J6J6J6JA(5#G#>$$&X!-)!(s$##e :!R!K%r#! u$_!X ;$##N%[!,%W R#w#& =!6J6J6J6J6J<JJ):#M#<!( } f } J A(6J6J6J6J6J6J2)t#F%.$r$j%j)P!M%+ M!K%r#! r#y!v#!! #O%,'h(h #!:$#!:#6J6J6J6J6Ju(v!5#D&G#D&6$0$5#{!S#p&$(5JIJJ)2)B([(#(:#S#g 5#{!6#3)6J6J6J6J6J6J6J6J6J@(Z!{ X!v$w!g @(Z(Z(t*:#| u!/$} D&( 9$[ 2$p#Z!=$/$. D&C&W N!7$F%Y$S!-)8#!#-%}!) N#Q#K%]!* / Z N R%T%7686Y7Y7Y7Y7Y78686v4x4M4T%8!4!R%x4F5Y <#. .%6#:#=!6!6#.%, k%# j v#[!?$6$9#- n$v!N$a!O#g p#8$<!K b!% x!% }!) N#T#v#u$! r#W$u$W$! ]!Q!5!* 9!# X l%3%-)K C&9$3!5${!' Y!a!O#g p#u!I <!K G%x!% }!) N#X T#v#W$r#W$W$r#! # ]!Q!1 G # T#N%j%h(A&1$<!7!8$g ' O#6#a!S#Z!g O { 1$f!) }!}!LOy0qRH5rR+$(NM(s6M(m#cNa -0}+` aFC*&'FB                                          ",
"                                  w#I%M#n$6#X$')=!v!' 0%g 3!A$C&~!P%,%M%|!G 1 0 ]!! ! ! W$|!|!K%y!v#Q#:!e  #x!t!% f!<#<!9$A$0$.%6!A(@(p$O#' t#5$J A$k ?$K 8#M%|!$ 5!0 ]!# W$W$W$|!y!|!W!v#L z e ;$% l%x!f!H%P#( 7!5$0%6#p$')X$a!B&[ W#R#A$w#Y$X!q#f!K%G Q!]!]!# W$K%|!|!K%u$|!4#:!!!e N#) }!z!s$7#w!u#A$N!W!5!N%q$:!u$R!Q#T#;$}!z!o&q#w!s#J 7!U!# y 4!8!R%N N 8!M4x476v486Y7F5F5F5F5F5F5F5F5F5F5F5F5F5F5F5F5Y78676M4[&Y G ]!y!M!i % o&!(-)q&u', ' u(5J6J6J6JIJJ)#(g 7!M#U#} 2$t#B&a!2)6J6J6J6J6Ju(| J ~!w!.$r$&(U!M%+ z v#W!W$! W$V!M!N# #x!N%f!X!. ?$E&/%2)7J6J6J6J6J6J?(g M#U#9$6$U#/$t*6J6J6J6J6J6Ju(5$7$.$t$q#!(U!t!) Q#W$# ]!# K%4#X ) -%!#q&k { N!h 6!6J6J6J6J6J2)O!p#D&;!3$?$;!h & J 8$n$S#O![($(=JIJIJ2)=!B&/$8$n$6#')A(u(5J6J6J6J6J6J8*9#F%A&,'q#D&g 6!@(3)2)&)p$- } { u#>!} W#;#;#W#( G#;!P%.$.$N!>$c!+'!(q$t! #i !!L W!! 1 ^!j H [&S%a1v486Y7Y7Y7Y7Y78686v4x4M4T%8!4![&x4)8Y o$;#g n$n!M#} #!G#`![!0 y :!H%J O!p&6!O#L%{!7!& w#F%%&H%l%! Y / G 1 Q!0 ]!# W$u$W$r#! W$R!X i )  #+ O%j%$&4$I%M#.%a!#(#(O!Y!B&3!} h ~!E&P%H%l%5!^!$ * 5!Q!0 ]!# W$W$W$r#W$W!v#X i +  #O%q#`!G#} ( ;#L%#(')T!| L%u!7!A$, s<u1q#% 0 ,*s5A!4%*$y$x#)NsR)%X'L2g%&.R.^+=*Q$tRQ$Y-uR                                            ",
"                                  0%' t#=$n!I . u#c!X!S!q#x!X z z T#M!4#y!K%u$u$K%W!4#Q#L T#T#X 85vR<0H%P#s#0$O 7!O yO/%0%' t#=$I 9#J ( P#A&&(q$+ z X X L v#R!|!u$K%K%u$K%4#M!L z !!z  #J%j%.$Y$w#R#O n!- n$0%B&n$g =$/$R#& { F%q&z!:!X X T#:!v#_!R!u$W$u$OP},FEV!4#:!z z T#) P!+'V#:$F%6$O - t#.%n$B&{!k M!H M Q#k%$&P#W ~!6$5#{!n$n$n$.%0%=$t$i $ R%S%8!H H R%T%a1x476v486Y7Y7)8F5F5F5F5F5F5F5F5F5)8F5Y7Y786v4a1S%H / 5!W$4#z  #-%P!&(q&o$w!>!a!7J<J6J6J6J%(=!| n$n!6$I%( /$O . 2$[(6J6J6J6J6J7JZ(T!( Y$w!<#j%,'f!x!~ T#4#K%r#r#K%R!L e + l%f!-)s#>!( M#.%B(6J6J6J6J6J7J2)=!=$J 7!9#p#B(6J6J6J6J6J6J[(;#>$.$A&8#,'f!% i _!! Q!5!Q!r#W!M!N#x!J%t$k <!V#w#T!7J<J6J6J6J5Ju(L%I%W N!w!K $&K 1%K 1$1%4$6$8$v!X$8*?(u(u(@(:#0%O [ I t#O!t*u(%(3)t*Z!P%v$!(!#[!q#$&h 7!v!')[(t*8*=!a!O#0%u!p#2$/$[ J 0$R#9$( { E&P#Q%f!M%}!~ N#T#v#y!]!G M Z N R%T%a1x4v4Y7F5)8)8)8)8F5Y7v476x4a1S%[&8!Y7G5[&+ j)-*H%q$;$y!r#z q$l%5!Z Q!t!4$;#( :$`!.$&(;$R!4#_!_!V!K%! ]!]!]!# r#|!V!4#_!M!T#X X + k%P#, D&W#;#/$u!0%t#p#5$8$5#;##!F%V#A& #Q#M!M!:!Q#R!|!# # # ]!! K%W!V!4#v#T#X T#+ P!-)P#, } . 9#u!0%' t#- 5$I F'U:c!X!wR7# #O-_)H5xRU;7 x$)NY?Y?L2g(f/v'#C#C)*`16)GP82yRzR{RJBc,%C03-(                                            ",
"                                  9$w#$&J%% l%% + !!X z :!V!|!|!K%u$W$W$r## 0 5!]!z s$j%.$`!3$s#vQ- g .%v!6!8*A(=!Y!- 6$u#~!K [!x!l%l%z!e U$*%E5o2u$K%u$r#]!]!! ! 0 5!$ r#z!H%w!4$h { 6$8$n$/%O#N$6!a!O#/%.%/$;!<#7#G%##z! #;$e :!K%! r#r#W$W$r#! 0 0 Q!* W$xIz!+ -%X!s#& I%9$n!' O#N$N$6!N$B&p#5#U#w#<#) 5!Z R%X s#B&/%v!T!a!:#p$6!' 3!w#W 1$i 1 y H R%R% !<$[&T%x476v486Y7Y7Y7)8F5F5F5F5F5F5F5F5F5)8)8F5Y786x4T%R%Z $ # W!:!~ x!f!,',%u'V#C&3!8*6J6J6J6J6Jt*p#/$' t#W#>!D&U#0$3!.%B(6J6J6J6J6J6J6JA(I { 3$K t$&([!s$##e :!V!u$! r#K%R!L i z!-%P!S!/$2$F%s#6!6J6J6J6J6J6J6JZ(p&N$O#Y!p$q+6J6J6J6J6J6Jp$<!V#o$-*v$!#o&z!N#R!]!1 * 1 0 u$4#X ##f!8#P#?$V#s#/%u(7J6J6J6J<J7Ja!<!`!K u'r$-)q#Q%!(3%3%8#<#`!V#:$G#M#| [(=Jq+u(8*a!B&/$>!u#9#n$n!s#$&&(P!U!f!O%-%q$v$h(w!;!6$p#=!&)3)2)3)&)?([(#(:#T!B&I D&c!-*7#3%x!) i z :!_!W!u$# G Y <$N R%T%x476v4Y7F5)8F5F5)8F5Y7Y786v476x4T%R%S%F5G5a1Z 9!1 1 G M <$ !M $ G j <$M 0 v#z L v#4#R!|!Q!* 5!Q!0 Q!Q!5!1 * G / 0 ;$P!Q%-)K C&9$3!5$t#O#6#a!T!L%B&.%O :$b!% x!% }!;$!!T#v#r#0 ]!# ! # ]!Q!1 * G / 0 T#x!P!Q%S!C&9$7!8${!' O#6#6.g p#u!I <!K J%##@*M*h6LPQ#M!4#r#s6>&T$M(-+Y'cNn&(%N0[#1G:+?#YC|R}R $V/{FQ)..~R#36#7P+3                                                ",
"                                  u'v$M%|!G 5!0 # W$u$W$W$|!y!W!v#L z N#e ;$% t!s$,%P#u#W#[ 8$' N$p$'):#S#.%n!3!0$} t-U%H%k%-%y!* 0 # # r#w$L4L4K%K%u$K%_!!!i e ;$##t!-%J%<#u#M#- 0%| T!p$p$T!L%g 7!9$D&u#C&N!!(##L # * Q!0 Q!0 # r#W$W$r#! W$V!M!N#~ )  #o&-)u'h(w!A$B&Y!v!Y!X$=!S#0%t#7!& C&3$V#S!Q%z!/ / / N e D&T!a!N$t#0$f 9$D&C&`!k%f!l%Q!H Z <$[&[& !<$[&T%a1x4v486Y7Y7Y7)8F5F5F5F5F5F5F5F5F5)8)8F5Y7v4a1S%4!Y 5!W$4#z  #-%J%k%-*o$?$6$.%B(6J6J6J6J6J8*9#W#Z!Z!W#I%D&A$. 2$| u(6J6J6J6J6J6J6Ju(v![ E&`!X!q#!(U!M%+ X _!|!! ! W$y!v#!!+ % M%8#M#I 4$E&t#@(J)6J6J6J6J6J7J2)B([(t*3)7J6J6J6J6J6J6J=!k `!.$+'&([!O% #z W!0 * $ $ 5!! W!L  #s$,'A&1%>$>!p#:#J)6J6J6J6J6J6!s#o$u't$,%8#j)!#P!f!f!J%j)Q%!(v$h(3$6$p#T!@(%(7JZ(p&{!{ 7$s##!;!-*!#J%f!s$-%t!##x!s$f!q$Q%K k 9#u!' L%v!S#v!/%' g n!M#I%P%k%N%t!z!i X L Q#R!K%! 0 * y <$N R%T%a176v486F5)8)8F5F5)8F5Y7Y7Y7v476x4T%R%S%v4Y776a1a1M4S%[&H  !Z / * 5!1 $ / j N 4!H j y / G 1 5!5!5!Q!W$V!:!!!;$+ ) -%t$%&C&I%M#.%a!#(8*a!v!u!3!6$D&u#C&N!b!! Y ^!$ * 1 1 5!Q!]!# ]!]!0 # K%R!X ;$+ ) -%q#$&%&C&6$.%a!p&')6!Y!v!u!. h ~!E&P%H%l%# j F+g!D'-+L2(NM(g(=&T$(Ns6f/6( Sv1!S#SV'$SzRn-$!I1j&)+i#p$Y!h5u./CxB%S&S                                                ",
"                                  i !!M!W!u$K%y!y!|!u$r#! # ]!r#e -%[!v$+'1%h f M#p#' O#6#a!O!:#N$.%g /${ 1%!#t!M%V,C'~ N#!!:!W!K%|!|!u$u$W$r## Q!1 $ ! z!,%S!r$K k U#/$=$u!S#6!p&')=!T!' n!( E&K b!% x!% ##+ X Q#R!|!u$K%u$W$! ]!0 Q!1 $ ^!]!X s$t$`!3$s#U#5$t#u!n$Y!6!O!6!Y!B&9#h 3$`!P! #) ~ e X v#K%G $ ^! !L %&9#2$J Y$s$~  #}!) !!v#V!|!* M y Z 4!UG<$Z 4!S%M4a17686Y7Y7Y7)8F5F5F5F5F5F5F5F5F5)8F5Y78676M48!N M ]!|!Q#e % G%3%8#q&K w#- p&Z(6J6J6J6J6J8*9#} 7!7!9$D&( A$W#O L%u(6J6J6J6J6J6J6J5Ju(L%{ P#.$-)Q%[!s$##e M!V!W$! r#K%R!L e + l%k%F%D&( } R#- @(6J6J6J6J6J<J7J=JJ)J)5J<J6J6J6J6J6J6J=!k `!<#-*&(J%-%+ X y!Q!$ G G 1 ]!|!Q#;$M%q$!(X!E&f M#u!2)6J6J6J6J6Ja!C&X!r$j%&(!(!#U!o&s$O%O%s$o&o&P!k%+'1$P%h Z!X$%(7JZ(#(n$M#?$-*j)J%G%o&N%x!####}! # # # #M%3%j%u'K w!c!V#N!P#w!1$S!h(-*8#[!l%;$e !!T#M!4#y!W$]!1 G M <$4!R%T%a1x4v486Y7Y7F5)8F5F5)8F5Y7Y7Y7v4x4a1T%8!R%8!T%a1S%8!S%S%8!S%M4[&]!% O%+ v#1 Y y M / / / / ^!9!^!M Y ^!M!M%v$o$?$k { 9$p#0%S#6#O!:#N$0%5$} C&K P! #}!}! #~ Q#r#]!# ! r#! ]!0 5!1 * 9!/ Y 1 :!-%A&?$k { 9$n!.%0%S#a!:#N$0%8$W#<!, K )7(&;$) i L y#P.x$+)f(f()%M((NY?y$cN-0'SW*/(3*@HvOX3!3R2y. 3@%L.MN6!O!>2p#Q8(SeC)S*S+S                                                  ",
"                                  # ! W$|!y!K%K%y!_!L e + z!% N%,%1%3$w#I%M#n$6#X$')=!v!' ' {!3!} C&~!P%,%M%|!G 5!]!# r#r#r#W$|!y!|!W!v#_!Q#!!) ##x!z!s$S!<!9$& ;#.%6!')A(p$O#.%8$9#M#} h >$r$k%-%y!$ 5!0 ]!# r#u$K%|!K%u$|!4#Q#L X e }!% ##o&j%P#( [ 8$' 6#p$')X$a!B&[ U#W#A$k V#7#[!s$u$/ G $ G G 9!9!G G M <$W!j%Y$W 1$o&5! !y ^!9!G $ G ^!/ M y Z 4!4!<$Z 4!S%M4a176v486Y7Y7)8F5F5F5F5F5F5F5F5F5F5F5Y786x4T%R% !9!! V!T#) M%P!j)H%u'`!{ v!2)7J6J6J6J6J6JA(5#} W#U#A$D&( ( U#5#/%&)6J6J6J6J6J6J6J6J6Jp$6$3$1%A&8#2%U!M%+ X _!K%# # r#|!_!T#i ##[!h(4$J 9#u#6$X$<J6J6J6J6J6J6J6J6J6J6J6J6J6J6J6J6J6J=!k w!<#-*Q%P!t!) T#|!5!G ^!^!$ Q!u$4#e % N%q$-)C&A$u#0$&)6J6J6J6J6J=!D&w!-*Q%,'[!U!s$M%l%x!####% x!-%f!b!3%!(A&u#/$B&:#u(3)#(B&w#-*j),'P!-%z!+ ;$;$~ e !!z z i z!t!N%s$o&G%f!q$G%O%M%% ##z! #;$!!L Q#_!_!W!u$# 5!$ ^!y Z 4!8!T%x47676v486Y7Y7F5)8F5F5)8F5Y7Y7Y7v4x4a1T%S%R%4!R%a1T%N M 1 ! y!_!!!q$w!P%r$G%W$j / ^!9!0 W$|!R!v#T#~ + l%7#`!h . 8$.%' O#:#Y!n$=$/$0$} h >$r$Q%M%r#y ^!G $ * Q!! r#! ! # r#y!R!Q#L !!>'9+('O%q#c!( 8$ 3' O#=!X$Y!yO2$0$} h >$u'j%j)l%|,E'IH''g!x#(Nk$=&+)D%,S-Sz:Z6B+N.</^Eq%`D%2EO.S/S[%.-H(I2:#-E0So81S2S3S4S5S6S7Sn58S9S                                                  ",
"                                  ! ]!]!! ! Q!$ r#!!o&H%w!4$h & 8$n$0%| O#N$6!:#a!' 9#h 3$?$1$[!% #### #e :!W!K%|!y!y!|!u$r#! ! ]!5!u$W>+ -%q#c!s#& I%9$Z!O#N$T!N$O!6#' g 8${ 1%3%t!M%t!%  #e z M!W!K%|!|!|!|!K%r## ]!Q!* r#!!t!,'-)K k } U#[ 5$n$T!O!:#O!T!B&p#5#U#>$J%##l%l%##+ !!T#M!K%! r## Q!* G ^!M y j Z Q!i z!z v#y!0 1 Q!0 ]!0 Q!* M <$<$Z <$N N <$<$N 8!T%x476v486Y7F5)8F5F5F5F5F5F5F5F5)8Y7Y786v4a1S%4!Z $ u$_!!!}!O%[!&(+'1$P##!6!7J<J6J6J6J6J6J[(n!9$9$} ( #!I%I%f /$/%&)6J6J6J6J6J6J6J6J6JA(I { N!h(,%Q%[!s$% i :!|!! # ! u$V!M!N# #O%,'`!2$- , u#a!IJ6J6J6J6J6J6J6J6J6J6J6J6J6J6J6J6J6J=!w#w!u'+'k%U!l%;$L K%1 9!M M 9!1 ! W!X  #l%o&q#7$k N!G#[(6J6J6J6J6J[(8$h -*,'J%q$O%l%z!+ ) ;$) +  ###l%M%-%O%b!t$1%P%I%L%t*@(:#O >!4$K 8#x!!!N#!!X T#L L T#X z N#e e i ~ ;$;$) ) ;$i !!T#T#X T#M!v#R!W!u$# Q!* 9!M j  !4!8!M4x476v4v4v486Y7F5F5F5F5F5)8F5Y7Y786v476x4M4S%R%N [&a1a1Y 4#x!!(u'4$<!W#Z!- . 1%v# !/ / y 4# #o&2%q#o$, & ;#p#B&S#N$6#T!| ' =$<!1%b!% x!## #~ !!T#_!W$]!# ! # # 0 5!1 * G / Q!L % [!H%/+~,n*6$[ p#' 4+6#T!| ' .%O :S1%o&Z&## #~ P(a,y0;Sn#0 dO<SM((Nz0=S8F>S?S{*l#@SASY>M.BSCS03ED- n$-EDSW0S#Z!V:{'@BES#@FS.?GSHSISJSKSLSMSNS                                                  ",
"                                  M!!!i e ;$x!-%J%-)P#u#M#- 0%O#X$p&O!N$v!g [ U#f k V#7#[!!#t!y!* ]!]!# r#u$y!W!y!y!y!_!L e ) + }!z!f!,Rh(w!s#J B&T!S#Y!:#v!0%/%g 3!A$k ;!3$-)-%|!G 1 Q!0 ]!# ! W$|!y!|!K%u$|!Q#e + z!##z!G%,%K 4$>!0$n$6#6!:#p$:#L%u!5$[ A$k ?$N!<#P!K%9!* 5!0 # r#W$r#u$u$r#W$|!W!R!_!v#R!|!! |!N#T#$ <$/ 1 Q!0 0 Q!]!u$W!Q#L V!$ <$N 4!N H 4!8!T%a1x47686Y7F5)8F5F5F5F5F5F5F5F5)8Y786v476M48!H Y 5!y!:!~ x!f!,'7#t$w!?$U#p$6J6J6J6J6J6J6JB(.%9#3!7!7!7!3!3!2$t#a!2)6J6J6J6J6J6J6J6J6Ju(| J %&<#t$7#2%q$M%+ X V!r## # r#K%4#T#~ % G%q&U#/$G#>!{!p&=J6J6J6J6J6J6J6J6J6J6J6J6J6J6J6J6J=!C&1%S!,%j)q$x!~ :!W$$ / Y Y / $ 0 K%:!~ ##N%8#:$~!S!?$#(6J6J6J6J6J@(Z!{ ,%J%f!O%l% #~ N#z X z !!e ~ ) +  #}!l%f!b!3%X!& p#B&n$9#>!?$<#2%) Q#:!:!_!4#4#_!v#Q#Q#Q#Q#v#Q#M!:!:!:!:!:!M!v#R!R!4#R!V!y!u$r#Q!$ 9!M Y <$N [&8!M4a176v486Y7Y7Y7Y7)8F5F5F5F5)8F5Y7Y78686v476a1S%[&H 4!x4769!##A&~!0$.%T!6!#(:#n$~!T#[&j 5!e v$o$W E&{ ;#t#T!6#6#T!| g [ f D&u#?$H%l%! Y ^!$ * 1 5!0 ]!# ! # ]!0 # y!:!z OSPS~ -%q#1$7$<!0$.%L.a.6#6#T!n$[ a7c(A*, N!H%l%Z$y(4%''cNl&y$Y?^)<S+*-+Z$2OQSR.RSV<$EV*KHD5BS%'8(2+}%h5-,p&a!u;SSh.{8TSUSVSWS*(XSYSZS[S]S^S_S,M`SaSbS;Q                                                  ",
"                                  -)N!7$3$, [ {!n$' 0%' n$u!Z!I R#( G#4$w!7#% X N#!!T#M!v#v#4#y!K%|!V!4#v#M!:!T#!!N#;$J%+'N!E&h D&. I .%n$n$B&t#=$2$n!/$( `!h(S!7#% T#X X X :!_!y!u$u$u$W$u$W!v#M!:!T#!!N#N#z!Q%V#w#A$;#J O t#0%B&B&t#=$O 7!;#6$G#.$k%G%;$T#L L :!M!R!u$W$u$u$u$|!V!4#M!T#T#:!~ f!&(A&1$Y$c!+'l% #[!U!L r#r#K%V!_!Q#v#e o&q#W { V#+ $ <$R%S%8!4!8!T%M4x4v486Y7F5)8F5F5F5F5F5F5F5F5)8F5Y7v4a1S%4!Z / ]!4#z  #N%[!&(+'u'>$f g ?(6J6J6J6J6J6J6JZ(')6!O!X$8*@(&)u($(2)q+IJ6J6J6J6J6J6J6J6J6J7JZ(Y!w#1%S!-)Q%!#G%x!~ Q#K%! ]!]!! K%4#L + s$2%q&7$[ 5#>!U#A(IJ6J6J6J6J6J6J6J6J6J6J6J6J6J<J5J6#~!.$r$q#,'o&##!!_!! 9!y Z <$Y / * # R!X ~ % Q%4$~!,%K N$7J6J6J6J<J=!} w!!(s$t!##) !!:!v#R!V!V!R!4#v#M!L z N#i ~ + % s$[!7#X!K <#!#l%+ z 4#y!W!y!W$r#! ! r#W$u$K%|!y!V!V!R!R!R!R!V!W!|!u$W$r## 0 5!* G y j <$N [&8!T%M4a176v486Y7F5F5F5)8)8F5F5F5F5F5F5F5)8)8F586v4x4M4T%8!N [&7686* q$W 5#L%n$g 8$/$0$} 1%T#Z H :!k g ' t#g {!- 8$9#& 4$V#$&8#) 4#Q#M!v#V!K%! ]!# # ]!P.u$u$|!V!v#:!:!M!i 2%c!F%C&cSU#^*-L' t#g Z!sQ=#x?2+?'sCo->'X#O-_)O-X#lGw$s6M(M((NT$>*{+>*{+R.bEbE)*</dS%2!=t-'FV0:9Q)..)+Q)eSA=fSgShS'CiSUDjSkSlS*,xAmSnSoSpSCDqSrSsSB@tSuSvS                                                      ",
"                                  B&S#T!Y!N$6#' g u!5#{ 1%3%t!t!## #) i !!M!W!u$K%y!y!|!u$r#! # ]!r#e -%[!v$+'1%h f 0$=$B&S#a!:#=!:#T!g O W#k $&P!z!x!x!+ X :!L M!W!K%|!K%u$K%u$W$! 0 1 $ ! z!,%S!r$K k U#/$=$u!S#6!p&'):#Y!B&2$( ~!$&P!z!##z!}!;$L _!W!u$r#W$W$r#! # # ]!0 5!$ ! !!o&h(7$k u#9$n!.%' L%Y!S##!}!9!! 4#N#% [!t$c!C&D&f 0$8$t#O#')p#.$+ $ T%a1T%4!R%T%a176v48686Y7F5F5F5F5F5F5F5F5F5)8Y786x4T%R%H Y $ u$:!~ l%q$!(j%q&1$;!t#A(q+6J6J6J6J6J6J6JIJ=Jq+J)=J7J<J6J6J6J6J6J6J6J6J6J6J6J6J6J6J6J6J6J8*6$Y$o$r$j%k%b!O%z!X V!u$# 0 ]!r#y!_!N###O%!#K 3!=$<!I%v!Z(6J6J6J6J6J6J6J6J6J6J6J6J6JZ(')Z!7$u'-*v$[!N%+ X R!]!/ j  ! !<$j ^!5!|!M!!!;$b!N!W Q%j%;#?(6J6JIJJ)0%V#3%f!% + ~ z Q#V!K%r## ]!# ! W$K%y!V!4#Q#:!L X T#M!L i ;$z V!K%K%u$r## ]!Q!* $ G $ $ * 1 5!Q!0 # # # # # # ]!]!Q!1 $ G ^!M Y j <$N [&8!S%M4a1x476v486Y7Y7F5)8F5F5F5F5F5F5F5F5F5F5F5)8)8F58676x4a1T%R%N [&76x4Z y!s$`!>$,%q$) e e N#!!N#4#M X & t#I G#N!u'&(t!~ e L M!Q#V!# 5!Q!0 0 0 Q!5!1 * $ ^!0 N#~ l%v$1%w#A$U#[ {!S#T!Y!S#L%-#9&5#;!<#v$<NQ-Z'r'O0_)R0s6D'B=-+?,W&{*2EX%'!)Gj!2EnML*>,%FwSxSI1R)n%@'n$v!T!T!L%B&t#5#@B~Br:ySzS{S|S}S~S T!T#T$T%T&T'T(T)T*T+T,T-T                                                                ",
"                                  =!T!| L%g . k ;!~!P%,%M%|!G 5!0 ]!]!# ! W$|!y!K%K%y!_!L e + z!% N%,%1%3$w#I%M#n$6#:#p&:#S#B&t#5$J A$~!P%.$8#t!u$^!$ 1 Q!]!# # r#K%|!K%y!_!v#M!!!) ##x!z!s$S!<!9$& ;#.%6!')A(p$O#.%8$3!0$A$k W t$j)t!K%9!* 5!Q!0 # ! r#W$u$W$K%R!M!N#e ~ ##t!M%J%-)V#} p#' L%Y!=!X$N$S#n$5#>$M!8!R%]!o&r$:$A$/$' 6#:#p$p&:#S#v!J r$;$$ S%M4S%4!R%T%a1x476v48686F5F5F5F5F5F5F5F5F5F5Y7v4a1S%[&<$M 1 |!z  #N%b!Q%+'u'1%C&T!q+IJ6J6J6J6J6J6J6J6J6J6J6J6J6J6J6J6J6J6J6J6J6J6J6J6J6J6J6J6J6J6J6J&)8$4$$&X!+'v$3%f!t!e v#y!r#]!0 # u$V!X ) l%f!A&G#;#W#R#n!?(6J6J6J6J6J6J6J6J6J6J6J6J6J2)a!I 3$X!-)Q%J%M%;$L W!Q!y <$N N H <$y G r#_!:!X N%<#w!v$&(3$5$O#N$S#.%} -)N%M% #i !!:!V!u$# Q!* $ * 1 5!0 # r#u$y!V!R!4#V!K%K%W!|!# Q!0 ]!]!0 5!$ 9!/ M y M M / ^!9!9!G * * * * $ $ G G 9!M y Y Z <$H N [&8!S%M4a1x476v48686Y7F5F5)8)8F5F5F5F5F5F5F5F5F5F5F5)8)8F586v476x4T%8!4![&a1T%4!y y!-%o&L Q!H H  !<$* M!Q#$ _!K ~!V#v$N%;$R!9!<$M 9!G $ 1 0 ]!0 Q!0 u$V!:!z !!e Q-N%+'q&1%h M#n$N$6#a!|/A')'.Td2nGG#, sC3%;0N7g!iFy(/T,)i!X*m#-+m#++2E0T<-831T(8CE>,2TH:3To-ZQI1.%T!N$>2L.4+L%Y+m2'7T64TWS5T6T7T8T9T]F:T;T<TiB=T;?>T?T@TATBT  CT                                                                      ",
"                                    f s#;!$&o&z!z!##}!e :!y!u$K%|!K%W$r#! ! r#! Q!$ r#!!o&H%w!4$h & 8$n$0%| O#N$6!a!| .%/$G#P%<#q#f!% }!+ ~ z v#K%r#W$W$W$r#! # ]!]!0 1 $RQRS,-%q#c!s#& I%9$Z!O#N$T!N$O!6#' g 8${ 1%!#l%t!l%##+ N#T#v#|!W$u$u$u$u$r#]!0 Q!1 G # X O%+'q&K k U#9#5${!B&N$p&'):#Y!n$I 9$G#P#o&M!Q!j N v#1%;#t#Y!O!#(8*p$N$n$O I%F%r$!!G j 4!S%8!N [&S%M4a1x4v486Y7Y7F5)8F5F5F5F5)8F5Y78676M48!4!Z 9!0 R!e % o&3%8#A&.$c!h O!IJ<J6J6J6J6J6J6J6J6J6J6J6J6J6J6J6J6J6J6J6J6J6J6J6J6J6J6J6J6J6J6J6J5J6!h $&.$q&j%j)b!O%) :!V!u$# 0 ]!r#|!Q#~ ##N%[!H%?$=$g ( :#6J6J6J6J6J6J6J6J6J6J6J6J6J2)a!O >$q&j%!(q$l%~ M!|!1 Y  !4![&4!H Z / Q!y!4#_!}!H%<#-*8#&(o$>$F%%&u'8#U!M%##~ z :!4#u$]!1 G / M / ^!9!G $ 1 Q!# r#W$u$u$W$r#r#! 0 Q!5!1 $ 9!/ M Y Z <$ !<$<$Z Z j Y y y M / / M y Y Y j <$ !H 4![&R%8!S%M4a1x476v48686Y7Y7F5)8)8F5F5F5F5F5F5F5F5F5F5F5F5F5)8F5Y786v476a1M4S%[&[&8!8![& !/ # W$0 * ^!9!^!/ 9!Q!0 * # L !!T#4#y!u$! 5!1 5!1 * 1 1 * G / y G M!M%7#u'1%>$k 9$=$t#' O#a!}$^'n$=$M#n-/+c.Q->'Q-Z'j(N7v'_,^)Z$|,)NbCDTS0'!)#ETmL#E(!x.)6N19%l!!3a7b%g )'..Y!O!^'}CFT9$u#~!GTHTITQ'JTKTLTMTNTOTPTQTRTL)STTTUTVTWTXT                                                                                ",
"                                    X!q#!(t!r#Q!]!]!# W$K%|!y!K%u$|!R!M!N#~ i ;$x!-%J%-)P#u#M#- 0%O#p$p$6#S#L%g 7!9$>!C&N!j%q$##T#! 1 0 0 ]!# ! u$K%u$u$u$V!Q#!!~ ;$) }!G%A&h(w!s#J B&Y!v!Y!:#v!0%/%g 3!A$k ;!3$,%M%K%9!* Q!0 ]!# ]!! u$K%u$u$W$u$4#X i + }! #s$j%c!I%& 0$.%6!')8*#(=!/%8$3!0$A$w#Y$X!7#O%* H ^!^!H L :$p#T!| g O M#W#( C&N!-)[!+ 1 4! !H 8!8!H 4!8!T%a1x4v486Y7Y7F5)8F5F5F5F5)8F5Y7v4x4T%R%H Y $ # v#) t!q$2%q#q&$&P%#!p&6J6J6J6J6J6J6J6J6J6J6J6J6J6J6J6J6J<J5J3)@(#(#(t*B(3)7J6J6J6J6J6J6J6J@(A$P%1%S!-)&(3%f!z!X _!|!! 0 Q!]!r#R!!!+ % N%f!<#I g <!t#[(J)6J6J6J6J6J6J6J6J6J6J6JB(B&W#V#A&7#,'G%% e v#u$* j H [&8!R%4! !Y $ W$|!|!X q$+'V#P#7#v$j%+'v$s$% t!l%~ z :!4#K%# 1 9!M j Z Z j Y y M / 9!$ 1 5!Q!0 0 0 Q!5!1 $ 9!^!M Y Z <$H 4![&[&[&[&4!N H  !<$ !<$Z Z <$ !H H N [&R%8!S%T%T%M4a176v486Y7Y7Y7Y7F5F5)8)8)8F5F5F5F5F5F5F5F5F5F5F5F5F5)8F5Y7Y78676a1M4S%[&4!4!R%[&H  !H <$Y / 9!5!]!u$K%r#]!Q!* y j Y / 9!G $ 5!Q!Q!W$OPf>y!Q#z ;$+ % 7#`!G#U#0$I B&N$=!T!/%.%5$^RARYT?$$&v$mD>&,*s5y(A!F+X*cNx#Z$)NbC?,<-@,@,0CZTK26D>,Y-[T!=2+}%h$)+F#c%]T4+g4^T_T`TaTbTcTdTeTn5fTgThTiTjTkT{MlTH'vEmTnTH.oTpT                                                                                        ",
"                                      z X M!y!|!K%u$u$K%u$W$! 5!* r#z s$,%S!r$K I%/$=$Z!n$S#6!p&')a!' n!6$u#E&K b!% % ##+ !!L Q#R!|!K%K%W$! # ]!]!0 5!* Q!X s$j%.$`!3$s#U#pQu!n$S#6#6!O!6!Y!5$h 3$:$$&b!##z!z!}!e M!y!W$u$u$K%K%r#]!Q!0 Q!5!* 9!]! #q#K :$k { 9$n!B&Y!T!6#O!6#' g u!5#:$!#x!l%%  #i T#Q#y!* ^!G ^!<$Q#K 6$3!s#.$f!)  # #;$N#Q#W!! G Y Z H R%R%N 4!R%S%M476v486Y7Y7F5)8F5F5F5F5)8)8F5v4a1S%[&<$M 1 r#M!}!N%U!j)-)S!K 3$0$t*6J6J6J6J6J6J6J6J6J6J6J6J6J6J6J6J<J7J&)Y!- 7!7!=$.%N$2)<J6J6J6J6J6J6J&)7!, V#<#t$q#j)J%l%N#M!W!W$0 5!Q!]!y!L N#) l%U!t$s#. . W#5$t*6J6J6J6J6J6J6J6J6J6J6J');#F%K -)Q%b!O%}!z 4#r#G Z N R%S%S%8!4! !/ 0 ! # y!z k%D&/$w#`!S!-*Q%G%t!t!z!X M!4#|!! 5!9!M j  !N N N H  !<$Z Y y / ^!9!9!9!9!9!^!M y j Z  !H 4![&R%8!S%S%S%S%8!R%[&[&[&[&[&4!4![&R%[&[&8!S%T%M4a1x4x476v486Y7Y7F5F5F5F5)8)8F5F5F5F5F5F5F5F5F5F5F5F5F5F5F5F5)8F5Y7Y786v4x4M4S%R%4!H R%R%H <$ !<$Z j Y Q!R! #l%+ L ! $ $ G G 9!9!^!/ ^!A![*:!W>xIx!&(K k D&& n!' O#T!O#Y!6!N$- { Y$.$8#3,4*>'Z'j(*%lG>&D'B=qT|,m#,3hD_$S.*FC!X% Sl  @rTsT_*tTuT~*>Cn$S#O#~Ri6l+.%vTs#sCwTJGxT|SyTzT{T5 |T}T~T U!U#U$U%U&U'U(U                                                                                                  ",
"                                      ]!# r#K%K%y!_!Q#v#M!!!) ##z!s$j%P#{ f & ;#| ')A(#(=!O#.%8$9#U#h >$u'H%k%-%y!$ 5!]!# ! W$u$K%|!|!|!4#Q#:!T#z i z!x!N%H%P#u#R#7!5$0%6#p$X$a!v!g [ U#W#A$?$7#b!!#M%|!$ Q!]!# r#u$|!|!K%u$w$O._!z i ~ + z!x!l%U!S!G#;#5$n$L%T!X$=!| /%u!3!A$k ;!~!P%!#u$/ G $ * * $ 9!^!9!G 9!M j |!!#o$c!v$}!5!H Y / ^!^!^!M y M y Z H [&R%4!4![&S%M4x4v486Y7Y7F5)8F5F5F5F5)8)8F5v4a1S%N j ^!Q!u$T#% o&b!Q%-*1$3$I%t#$(6J6J6J6J6J6J6J6J6J6J6J<J5J2)@(')=!=!Y!{!/$0$0$/$8$g N$A(q+6J6J6J6J6J%(' W#3$<#q&,%Q%[!N%;$T#4#K%# Q!5!Q!W$_!T#e z!G%v$1$h O <!f 6!=JIJ6J6J6J6J6J6J6J6J6J:#I%`!<#j%!(U!M%) T#V!# ^! ![&S%T%M4T%R%N Y $ 5!1 ]!W!q$s#2$[ I%~!Y$S!k%G%x!i v#V!|!! 5!9!M j  !4!R%R%R%R%[&4!N H  !Z Z j j j j j j <$ !N 4![&R%8!S%T%M4a1a1a1a1M4M4T%T%T%S%S%S%S%T%T%T%T%a1x4x47676v486Y7Y7Y7F5F5)8)8)8)8)8)8F5F5F5F5F5F5F5F5F5F5F5F5F5F5F5F5)8F5Y7Y786v476M4S%8!4! !dF=FN y 5!W$V!Q#N#M%2%S!w!o$j)4#9!1 $ * ]!K%_!:!T#z 5*7#h(t$K k J B&Y!/%a!O!O#u!7!W#R#} :$UJG%}!*%|,y(4%''k(x#Z$t5^)|,y$*$Y?e/N7eQJ4(8=6)UuOEG)S)/U'*Uu;{?0%&6a!g5xB+U,U-U.U/UL+0U1UfT2U3U4U5U6U7U8U9U:U;U<U=U>U?U@U                                                                                                      ",
"                                      ! # ]!0 1 $RxIrGS,-%q#c!{ I%9$n!' O#N$T!N$6#' g u!5#{ 1%3%t!t!%  #i !!z M!W!K%|!|!|!K%u$r#! # 0 # !!t!J%Q%-)1%h f 0$5$n$S#a!:#=!:#T!u!5#U#h $&P!z!x!x!+ X :!L M!W!K%|!K%u$u$W$! ]!Q!1 *$>*}!j%.$`!3$G#9$9#5$t#S#N$N$6#6!N$0%5#, 4$1%b!##z!}!z!+ T#|!r#r#r#! # Q!$ / y j Z j M * u$_!L _!K%0 1 5!Q!0 Q!$ M j <$ !H 4![&8!S%[&[&S%M4a17686Y7Y7F5)8F5F5F5F5)8F5Y776M48!H Y $ # y!!!t!q$3%8#A&N!A$- 8*5J6J6J6J6J6J6J6J6J6J6J6J5Ju(O!- 0$A$U#[ n!t#T!a!v!n$I U#O A(6J6J6J6J6J7J&)n$E&u'h(-*v$,'o& #!!v#|!! Q!1 1 ]!y!Q#!!+ l%G%2%V#=$>!>!' ?(=J6J6J6J6J6J6J6J6J6JO!u#1$q&8#3%G%x!i M!|!0 M H R%T%M4a1M4T%R% !/ ^!/ 1 V!% ,%;!=$g 5$/$#!o$!#+ Q#W!u$! 5!9!M j  !4!8!T%T%T%T%S%S%8!R%[&4!4!N N N N N N [&R%8!S%S%T%M4a1x476767676767676x4x4x4a1a1a1a1x4x4x4x4v48686v4v486Y7F5F5F5F5F5F5F5F5F5F5F5F5F5F5F5F5F5F5F5F5F5F5F5F5F5F5F5)8F5Y7Y786v476a1T%S%[&H R%S%R%G X o&v$u'4$D&0$5$.%' >!;$Y $ j 9!_!x!&(X!$&W @+]'u!t#B&S#6#O!T!- 5#R#s#$&s*4*5*5*~ :!N7@$K%# s6m&m&T$|,x#r&D$AUj!UE[#&'}DJHBU>BpEB<CU%% 3B0w&DU8Pg 2$=#,Q>BEUFUGUHUIUJUKULUMUNUOUPUQURUSUTUUUVUWU                                                                                                                  ",
"                                            ;$}!G%@Ru'h(w!s#J /%S#Y!X$=!v!0%/%g . k ;!~!P%,%-%|!G 5!0 ]!# # ! W$|!y!|!u$|!4#L e + z!% N%,%K %&C&>!0$n$6#O!p&:#S#B&u!5$[ A$~!N!<#8#M%u$^!$ 5!Q!]!# # r#K%|!K%y!_!v#M!z ;$##mD5*,1X!u#W#[ 8$' 6#')8*:#S#u!7!W#R#} h V#Q%,'-%y!$ Q!]!0 ]!r#K%K%u$r## ! u$V!Q#_!_!Q#W!* 9!]!0 Y M G 1 Q!0 0 Q!0 u$_!v#4#y!# G H S%M4[&[&S%M4a176v486Y7F5)8F5F5F5F5)8F5Y7x4T%[&<$M 1 r#V!e -%P!j)j%t$?$2$=!J)6J6J6J6J6J6J6J6J5JB(8*p&:#N$n$9#6$( W#/$t#T!#(p$B&I U#C&} N$q+IJ6J6J6J6J6JX$A$N!.$A&q#!(G%##i M!W!W$0 1 * 5!W$V!L i  #x!s$t$. 9$} 7!' &)6J6J6J6J6J6J6J7J2)L%C&u'-*k%b!O%}!!!_!W$5!y 4!8!M4a1x4x4a1S%4!j y Y 9!r#M!##j%& [ 0$W#w#A&O%L K%r#]!1 9!y Z H [&8!M4a1a1x4x4a1a1M4T%S%8!8!8!8!8!8!S%S%S%T%M4a1a1x47676768686868686v4v4v4v4v4v4v4v4v4v4v4868686Y7Y7Y7Y7F5F5)8)8)8F5F5F5F5F5F5F5F5F5F5F5F5F5F5F5F5F5F5F5F5F5F5F5F5)8F5Y7Y786v476x4M4S%[&H 8!T%8!G e &(;!0$g Y!:#')[(B(7!}! !1 4#}!Q%1%h 9$0$I | X$X$Y!| L%g [ & ~!N!U%?#9.E%}*e3E'IHy$-++*s6E%g(m&M(M(f/#C`1(8V*]CXUY-;/R,9$j&FT.G#3]T=!H90S$'_T`TaT@9YUZUQ?SLk>[U]U%5^U_U`UaUSAbUcUdUeUfUgU                                                                                                                        ",
"                                                I t#0%n$n$B&t#8$n!/$. u#c!X!S!7#+ z z z X :!_!y!u$u$u$K%y!R!Q#:!:!T#!!N#z!J%+'V#w#A$;#9#t#0%' B&B&t#=$I J U#u#P#A&Q%f! #z T#L M!_!V!u$r#W$W$W$|!V!v#:!L L T#SFh)h0j%c!k . hU@Gj4.%B&B&' .%p#/$. A$w#`!7#z!:!X z X :!4#4#V!|!u$u$K%W!V!V!v#:!X T#M!e o&q#V#W 3$~!h(W!* z!l%# 0 W$|!V!_!_!4#z !#1%3$?$w!7#}!9!x4x4[&4!8!M4x476v486F5)8)8F5F5F5F5)8F586a1S%4!Z ^!Q!u$v#;$o&!#v$-)q&, S#J)<J6J6J6J6J6J<J5JJ)B(n$5#J [ I - n$| N$Y!O#S#0%g [ k %&:${ W#8$O#$(6J6J6J6J6Ju(L%. >$q&,%Q%q$x!) T#4#u$]!1 $ $ Q!W$R!:!N#}!N%[!$&O 8$C&G#0%&)=J6J6J6J6J6J&)' U#P%t$8#!#G%x!~ :!W!]!G Z R%T%x476v4v476x4T%4! !j Y Z ^!W$L l%O%N%-%}!L |!Q!* * 9!M j  !4!8!T%a1767676v4v47676767676x4x4x4x4x4x4x4x476v4v4v4v486Y78686F5F5F5F5Y786868686Y7Y7Y7Y7Y7Y7Y7F5F5Y7F5)8F5F5)8)8F5F5G5)8)8F5F5F5F5F5F5F5F5F5F5F5F5F5F5F5F5F5F5F5F5F5F5)8F5Y786v476x4a1T%8!4!N S%T%R%j 0 f!6$v!t#- 5$O /$uCy6;0^!u$h(D&p#L%' {!O 9#/$e**'w!q&@KH:8.N7_!N7R!y!(#T$W&-+-++*P.w$#C)*!C@# S'4WGK*2(!=xSU#[ -An%Q)g5Q)w3d% >|BiUjUkUlUmU^5nUoUpUqUrUsUtUvDuUvUwUxUyUUUzU                                                                                                                                      ",
"                                                  n$p#O W#k $&s$x!x!z!;$z L T#M!y!|!K%u$u$K%u$W$! 5!* r#z s$,%S!r$K I%/$=$Z!n$S#6!p&')a!B&2$6$u#E&K J%######+ !!L Q#R!y!K%K%W$! # ]!]!0 5!* Q!X s$j%.$`!3$s#U#pQu!n$S#6#6!O!6!Y!5$k %&?$1$P!}! #+ ~ z Q#K%! r#r#W$W$r## ]!]!0 1 W$xIrGx!8#w!h ( >!f 2$n$O#T!T!N$( N#<$# y!v#N%k%r$w!3$, s#} p#/%Y!6!n$& -*r#v4a14!N R%T%a176v486F5)8)8F5F5)8F5Y7Y7v4M48!H Y G ]!y!:!z!U!!(q#q&`!D&6!7J<J6J6J6J6J6Jq+8*:#:#N$6#=!')A(#(=!v!9#w#%&N!V#Y$V#o$X!1%U#. ;!I%:#6J6J6J6J6J7J%(Y!& P#A&Q%P!t!+ !!v#|!# 1 9!^!$ Q!r#W!M!!!;$x!v$D&3!6$#!u#M#')6J6J6J6J6JO!<!1$q&H%,'G%t!) T#R!r#1 / H S%a176v486Y786v4x4T%8!4!H  !Z y M Y y y y M 9!G 9!/ y <$H 4!R%T%a1x47686Y7Y7Y7Y7Y7Y7868686868686868686v4v4Y7Y7Y7Y7Y7F5F5F5F5)8)8)8)8)8F5F5F5F5Y7Y7Y7Y7Y7Y7Y7F5)8F5F5F5F5F5F5F5F5F5F5F5F5F5F5F5F5F5F5F5F5F5F5F5F5F5F5F5F5F5F5F5F5F5F5F5F5F5Y786v476x4M4S%[&N 4!4!N N H Q#.$?$j)x!) fQ{U|U}UT4) V!+'u#n!n!{ .$O%.+HG~ j(_)4#~U Vg(^)s6X&!V-+Y',3S D$)GS '4v/%233FG'.xSa7{FQ)..D)#3P,u,g 2$0$k )S#V$V{S%V&V'V(V)VTN*V+V,V-V.V/V0V1V2V3V                                                                                                                                                  ",
"                                                  k :$P%.$8#t!]!$ 1 5!0 ! r#! r#K%K%y!_!Q#v#M!!!) ##z!s$j%P#{ f & ;#| ')A(#(=!O#.%8$9#U#h >$u'H%k%M%K%9!5!]!# ! W$u$K%|!|!|!4#Q#:!T#z i z!x!N%H%P#u#R#7!5$0%N$X$=!a!v!g [ U#W#ZG?$8#J%[!l%u$^!1 Q!0 # r#W$W$W$r#! W$_!!!~ ;$) 9+3H@RyQ1$s#J B&T!S#Y!=!:#/%' g 3!Y$L N H Q!o&`!w#} 7!=$.%/%Y!:#6#Y!O#n!;!2%]!x4M44!N R%T%M4x476v4Y7F5F5F5F5)8F5Y7Y7v4M4[&<$M * ! V!T#% J%k%H%X!c!( 6!7J<J6J6J6J6J6J$(S#g .%:#8*#(p$a!L%- M#4$-)2%[!3%8#H%,%,%X!>!D&W ~!{!A(q+6J6J6J6J6Jt*p#G#X!!(P!l%+ !!Q#|!# 1 9!M ^!$ 0 W$R!M!z ) J%`!{ 5#[ ?$~!{![(5J6JIJq+L%7$-)j%Q%P!M%}!!!Q#y!# $ y 4!T%x4v486Y7Y7Y786v4x4M4S%[&H  !H N 8!8!8!R%4!Z Y y Y  !4!R%8!T%M4x476v4Y7F5F5F5F5F5F5Y7Y7Y7Y7Y7Y7Y7Y7Y7Y7Y7F5F5F5Y7Y7F5)8)8)8)8)8)8)8)8)8)8)8F5Y7Y7Y7Y7Y7Y7Y7F5)8)8F5F5F5F5F5F5F5F5F5F5F5F5F5F5F5F5F5F5F5F5F5F5F5F5F5F5F5F5F5F5F5F5F5F5F5)8F5Y786v476a1T%R%N  ! !H N 4!0 a2c.W!M <$ !4V5V6Vu69+O.O%A&W SI7#}!x#EE}*y(F+k(*$,37Vs6k$X'qT!Vf/[$1G(8!S%!z*8VJ(z,$!I1j&)+i#L/4+h5u.9V:V;V<V=VW/:D>V?V,J@VAVBVCVDVEVFVGVHVIVJVKVLVMV                                                                                                                                                        ",
"                                                     #+ ~ z Q#u$W$W$u$u$W$r#]!]!]!1 W$xIrGS,-%q#c!{ I%9$n!' O#N$T!N$6#' g u!5#{ 1%3%t!t!%  #i !!X Q#|!W$K%|!|!K%u$r## ]!Q!# !!t!J%Q%-)1%h f 0$5$n$S#a!:#=!:#T!g 5#U#h $&P!z!x!x!+ X :!L v#K%r#W$W$r#r#! ]!Q!1 $ ^!]!}!H%o$`!3$s#U#I:t#.%S#6#6!O!6!Y!B&3!;!>$u'O%Q#Q!Y H 4#>$=$| Y!6#O!:#O!Y!{!3!9$w#X!+ 0 j 8!T%N H [&S%T%a1x47686Y7Y7F5)8)8)8F5Y776T%4!Z / 1 r#4#z l%[!&(+'X!1${ 6!<J6J6J6J6J6J6Jt*=$6$R#S#N$5$6$C&W `!<#j%P!s$O%s$f!J%,'j)j%1%?$k <!#!5#A(6J6J6J6J6JJ)t*5$K !#U!l%) N#M!y!# * ^!y M ^!$ 0 u$R!:!N###q$1$8$g ;!V#s#I $(6JZ(')=$7$A&&([!o&##~ :!V!W$Q!^!Z R%M47686Y7F5F5F5Y78676x4a1T%8!R%[&[&4!N N H  !<$<$ !N [&8!T%M4a1x476v486Y7F5)8)8)8)8)8F5F5F5F5F5F5F5F5F5F5F5)8)8)8F5F5F5F5F5F5F5F5F5F5F5F5F5F5F5F5F5F5F5F5F5F5F5F5F5F5F5F5F5F5F5F5F5F5F5F5F5F5F5F5F5F5F5F5F5F5F5F5F5F5F5F5F5F5F5F5F5F5F5F5)8F5Y786v476x4M48!N Z Z H N ,*F+{+O.0 1 * $ 5!FIf>L4_,x$O.O-_ T#4#W$* NV4(B=|,Z$*$[*[*k(X*iDmLr&1G[+U,BLX3OVPVy. 3@%L.MN6!O!>23D DQVz5GTRVSVTVUV&3VV)VWV+VPUXVYVZV[V]V^V_V`V                                                                                                                                                                  ",
"                                                    ]!0 ]!# r#u$u$W$r#u$R!:!!!i + }!G%@Ru'h(w!s#[ /%S#Y!X$=!v!0%/%g . k ;!~!Y$-)-%|!G 1 0 ]!# # # r#K%|!|!u$|!4#L e + z!##-%,%K %&C&>!0$n$6#O!p&:#S#B&u!8$J A$~!N!<#8#t!u$F+g!Y?Q!]!# ]!# W$u$W$K%FL4#v#T#i }!% ##o&S!u#R#7!5$0%N$X$p&O!v!g [ U#W#& w#`!3%q$+ $ N / /  !:!{ Y!O!L%.%t#=$M#D&4$c!h(!(+ 9!S%N N S%N  !4!8!T%a1x47686Y7Y7F5)8)8)8F5Y776T%4!Z ^!Q!u$v#N#M%!#v$-*X!<#s#6!6J6J6J6J6J6J6J#(J w#k /$5#{ N!-*!([!U!s$l%####% x!-%G%J%,'q#K I%A$:$G#L%$(IJ6J6J6J6J6JN$F%q#P!% ) N#M!y!# * / j j y ^!* ]!K%_!L N#;$k%D&3!{ ?$P#;!p#0%g 3!<!w!j%!#G%l%;$X _!K%]!$ y  !8!x4v486Y7F5F5F5F5Y786v476x4a1T%S%8!4!N N N N 4![&R%8!S%M4a1x476v4v486Y7Y7F5)8)8)8)8)8)8)8)8)8)8)8)8)8)8)8)8)8)8)8)8)8F5F5F5F5F5F5F5F5F5F5F5F5F5)8)8)8)8)8)8)8F5F5F5F5F5F5F5F5F5F5F5F5F5F5F5F5F5F5F5F5F5F5F5F5F5F5F5F5F5F5F5F5F5F5F5F5F5F5)8F5Y786v476x4M4@!tCiFZ 4!tCiFs5W%.)4%Z$^)x$]!*R! u$7 x#A!e3}*}*s5A!''g!cNgD?,>*R.V%a,Y#v1NNB%Y3y+&#aVbVsQ)+g4(/(/A')+$'r;cVdVeVfVgVhVXSiVj>jVkVlVmVnVoVpVqVrVsVtVuVvV                                                                                                                                                                        ",
"                                                      u$r#! # ]!5!* 9!# z o&H%.$P%s#U#I:t#u!n$O#a!6!6!T!' 5#s#3$:$$&o&z!z!##}!e :!y!u$K%K%K%u$r#]!]!# # Q!$ r#!!o&H%w!4$h & 8$n$0%v!Y!6#O!a!| .%/$G#P%<#7#G%% }!) i X v#K%r#W$w$w$r## 0 0 ]!Q!* r#+RHGM%8#w!k } U#[ {!S#a!:#=!:#T!n$p#J h $&U! #z!}!;$z 4#V!u$$ ^!$ ^!<$v#4$8$/$w#Y$W u'o&~ e X M!R!! / <$Z H 8!H  !4!R%T%x476v4Y7Y7Y7F5)8)8)8F5Y776S%N j 9!0 K%Q#e -%3%8#A&S!.$G#6!6J6J6J6J6J6J6JX$} %&W 4$?$1%A&!(f!N%l%##+ ) ;$)  ###M%O%q$2%<#D&9$%&:$J S#Z(6J6J6J6J6J');#P%b!z!;$!!Q#y!# $ M Z  !<$Y ^!1 # |!4#T# #G%q#Y$. U#$&j%q&X!q&-*q#!(J%G%-%}!!!Q#y!# * / Z 4!T%x4v4Y7F5)8)8)8)8F5Y7Y786v476x4a1M4T%S%S%S%S%T%T%M4M4a1x476v486Y7Y7Y7Y7F5F5F5F5F5F5F5F5F5F5F5F5F5F5F5F5F5F5F5F5F5F5F5F5F5F5F5F5F5F5F5F5F5F5F5F5F5F5F5F5F5F5F5F5F5F5F5F5F5F5F5F5F5F5F5F5F5F5F5F5F5F5F5F5F5F5F5F5F5F5F5F5F5F5F5F5F5F5F5F5F5)8Y7Y786v476a1M4';VG}*<$[&VG}*s5iFiFwVY&4%|,u$M!) O%5*y$i![*i!dE)GAU*F.)k*aF(!^+:+?#;/xVt;A*yVb%r<g5-E>#W0S#Z!+3uC@Bk&zV{V|V}V$V~VE6 W!W#W$W%WXV&W'W(W)WuD*W                                                                                                                                                                                  ",
"                                                      4#Q#L X e z!x!% G%H%P#u#R#O 0%N$X$p&=!a!S#g 0$R#f s#V#7#b!!#M%r#Q!]!]!# W$K%|!y!K%u$|!4#:!!!i e ;$x!-%J%-)P#u#M#- 0%O#X$p$6#O#| g [ f <!C&N!j%q$##L ! 1 0 0 ]!# ! u$K%u$u$u$V!Q#z i ;$+  #o&4R}Qw!s#J B&6#6!=!=!S#B&t#5$[ A$k :$1%8#t!W$y / ^!^!9!9!^!^!9!9!9!/ Y y!H%%&`!k%G%q$}!0 Z M M y(M M y Y <$N R%4!N 4!R%T%a1x4v4Y7Y7Y7F5)8)8)8F5Y776S%N j G ]!y!:!~ O%,'8#A&<#`!D&=!6J6J6J6J6J<J5J6!A$W w!S!A&j%j)q$M%##+ i !!z X z e ;$ ###M%U!H%:$s#~!;!w#;#A(IJ6J6J6J6JA(I 4$J% #i X v#|!]!$ M <$H H  !j ^!1 # K%_!i  #z!j%W#/$:$q&8#&(&(Q%2%P!s$x! #e M!V!r#5!9!Y H R%M47686Y7F5)8)8)8)8)8F5F5Y7Y78686v4v476x4x4x4x4x4x4767676v4v486Y7F5F5Y7Y7)8F5F5F5F5F5F5F5F5F5F5F5F5F5F5F5F5F5F5F5F5F5F5F5F5F5F5F5F5F5F5F5F5F5F5F5F5F5F5F5F5F5F5F5F5F5F5F5F5F5F5F5F5F5F5F5F5F5F5F5F5F5F5F5F5F5F5F5F5F5F5F5F5F5F5F5F5F5F5F5F5)8Y7Y7Y78676a1M4T%[&<$,*EEBGLRe3jR_,y#X#U$Z&J%q#u']->3l#y$i!-0S W&,+#C`1GPwGY-n+!=n-$!I1`&i6-,;5A0u;26Q)+WTSUS,W-W.W/W0W1W2W3W4W5W6W7W8W9W:W;W<W=W>W                                                                                                                                                                                          ",
"                                                      !!t!J%Q%S!h f U#J 5$n$S#a!:#:#N$B&p#O W#k $&s$x!l%##;$X :!L M!y!|!K%u$u$K%u$W$! 5!$ r#!!o&,%S!r$K I%/$=$Z!n$S#6!p&')a!B&2$6$u#E&K J%######+ !!L Q#R!|!K%K%W$r#! ! # 0 5!* Q!X s$j%.$`!3$s#U#pQ:7B&S#6#O!a!O#/%5$G#P%<#7#G%##z! #~ X MR$R]!# # ]!0 * M Y j Z Z Y / 1 y!L L R!W!R!y!]!5!Q!* G 9!M Z H N 4!R%T%S%[&[&S%M4a17686Y7Y7F5)8)8F5Y786x48!H Y $ # W!L ;$O%3%8#A&$&7$;#')6J6J6J6J6J5J$(T!. ~!$&+'8#!(J%s$x!) N#L v#_!4#_!Q#L z i z!-%q$!($&6$9$o$c!| J)6J6J6J6J#([ W f!;$!!L 4#u$Q!G y  ![&[&4! !j / * ]!K%R!M!N#!#~!0$7!. G#h w#;!c!7#o&) X M!W!r#Q!G y <$4!8!x4v4Y7F5)8F5F5F5F5F5F5F5F5F5Y7Y7Y7Y7868686868686868686v486Y7Y7Y7F5)8F5F5F5F5F5F5F5F5F5F5F5F5F5F5F5F5F5F5F5F5F5F5F5F5F5F5F5F5F5F5F5F5F5F5F5F5F5F5F5F5F5F5F5F5F5F5F5F5F5F5F5F5F5F5F5F5F5F5F5F5F5F5F5F5F5F5F5F5F5F5F5F5F5F5F5F5F5F5F5F5F5F5F5)8Y7Y7c=JExEx4a1M4R% !1+BG';BGF+*%a2UJcCU%k . I g 0%03:6v)k*#F-0e(Q+M/?WeC@W~*d- 3@%L.a!T'w&AWBWCW+(?B=BDWEWFWr/GWHWIWJWKWLW)@MWNWOWPWQWRWSWTW                                                                                                                                                                                                ",
"                                                      ,%K %&C&9$.%6#:#p$p&:#S#B&Z!7!} k :$P%.$8#t!]!$ 1 5!0 ]!# # r#K%K%y!_!Q#v#M!!!) ##z!s$j%V#<!9$& ;#| ')A(#(=!O#.%8$9#U#h >$u'H%k%M%|!G 5!]!# ! W$u$K%|!|!|!4#M!T#z !!i z!x!N%H%P#u#W#[ 8$' 6#X$O!T!| g [ f D&u#?$q#f!z!L # * Q!0 Q!]!# r#W$r## 0 ]!K%_!M!:!L :!W!1 9!5!y Z M 9!G * Q!0 0 W$u$! W$W!y!]!^![&x4a1R%4!8!M4a17686Y7Y7F5)8)8F5Y786x48!H Y $ # V!T#) O%3%8#A&1%E&3!8*6J6J6J6J6JZ(p$.%. C&.$q#!(b!G%t! #N#L R!|!u$W$u$y!R!v#T#~ z!% x!8#{ A$w!K R#6!u(5JIJ=JT!u#r$-%e T#M!V!r#1 ^!j N 8!8!R%[&H Z / * # W$|!4#x!h(C&;#5#0$;#} w#w!j)x!X 4#V!r#Q!G M Z N R%T%7686Y7F5)8F5F5F5F5F5F5F5)8)8F5F5F5F5Y7Y7Y7Y7Y7Y7Y7Y7Y7Y7F5F5Y7Y7F5)8)8)8F5F5F5F5F5F5F5F5F5F5F5F5F5F5F5F5F5F5F5F5F5F5F5F5F5F5F5F5F5F5F5F5F5F5F5F5F5F5F5F5F5F5F5F5F5F5F5F5F5F5F5F5F5F5F5F5F5F5F5F5F5F5F5F5F5F5F5F5F5F5F5F5F5F5F5F5F5F5F5F5F5)8Y7Y7c=86v476x4M48!H N ';V;w6g!C'o-j#I%W#.%O!p&62UW}CVW0(j!7%G<WWEOpMV0i%XWv!(/(/-E.-EDCBYWZWBC[We>]W^W_W.@`WaWbWcWdWeWfWgW %hWiWjWkW                                                                                                                                                                                                        ",
"                                                      t#/%B&n$.%=$n!8$5#. u#P#A&!#+ z X T#L M!_!W!W$r#r#r#W$|!V!v#:!L T#SFIR)Rh0j%c!k M#7!O t#0%' B&n$u!2$R#9$6$<!P%j%l%!!N#z T#M!v#_!V!|!u$K%u$K%W!_!M!T#z z ~ P!q#h(K P%C&R#O 5$.%0%' B&n$g =$/$} ;!N!$&7#z!:!L T#:!v#R!W!|!u$W$W$u$y!y#4#_!v#:!:!Q#e ,'1%7$w#s#h S!_!Q! #y!1 ]!W$|!V!R!R!GGn9vRJ%v$c!P#7#}!<$v4x4R%4!8!T%x476v4Y7F5)8)8)8F5Y786a1R% !y * ! V!T#) s$,'v$-)1%h I A(6J6J6J6J6Jt*5$} { :$q&k%b!o&x!;$X _!y!# 5!* $ * 5!]!r#y!M!!!;$##o&k%$&( ( w!h 3!L%N$' 9$-)t!+ T#Q#4#|!]!$ M <$[&T%M4M4T%8!4! !j 9!Q!]!0 W!) U!q#o$F%;!`!k%l%N#_!|!W$# * / Y  !4!8!M4x486Y7F5)8)8F5F5)8G5G5G5G5G5G5)8)8G5)8F5)8)8)8)8)8)8)8)8)8F5F5)8)8F5F5F5F5F5F5F5F5F5F5F5F5F5F5F5F5F5F5F5F5F5F5F5F5F5F5F5F5F5F5F5F5F5F5F5F5F5F5F5F5F5F5F5F5F5F5F5F5F5F5F5F5F5F5F5F5F5F5F5F5F5F5F5F5F5F5F5F5F5F5F5F5F5F5F5F5F5F5F5F5F5F5F5F5F5,>J5J5Y<Y:86v4,GeF@!lWmWnWZ:(<*$qJsC@'.%g {!@&t3],03*'oWO>pWK($&J ' n$Q)@0/,m2y,qW+QrWsWtWuWvW?OwWxWzLyWzW{W|W}W~W X!X#X$X                                                                                                                                                                                                                    ",
"                                                      ' n!U#{ W b!% t!t!%  #N#T#v#y!K%|!K%W$r#! ! ]!5!* 9!# X O%H%o$Y$s#U#I:t#u!n$O#a!6!6!T!' 5#s#3$:$$&o&z!z!##}!e :!y!u$K%K%K%u$r#]!]!! ! Q!$ r#!!o&H%w!4$h A$5$n$0%| O#6#O!a!| .%/$G#P%<#7#f!x! #i !!X Q#K%! r#W$W$W$! # ]!0 5!* r#) J%Q%-)K w#A$9$M#Z!| N$O!=!X$0$q$W$|!W!X O%Q%q&1$1%Y$>!2${!p#t#T!n$D&-)M v4M4[&4!8!T%M4x486Y7F5)8)8)8F5Y786a1R% !y * r#R!T#) O%3%&(j%V#M#Y!$(6J6J6J6J6JO!<!w!1%u'7#[!G%x!~ T#4#u$]!G M Y j Y M 9!* 0 K%v#L X e }!!#c!s#s#q#J%&(7#j)!#U!M%N#v#V!|!! * / Z N 8!M4a1x4a1M4T%8!4!Z / G $ * 1 # V!X ##l%;$R!! 0 Q!0 5!9!Y <$N [&S%a1x4v4Y7Y7Y7F5)8F5F5)8G5)8)8)8)8)8)8)8)8)8)8G5G5G5G5G5G5G5G5G5)8)8F5F5F5F5F5F5F5F5F5F5F5F5F5F5F5F5F5F5F5F5F5F5F5F5F5F5F5F5F5F5F5F5F5F5F5F5F5F5F5F5F5F5F5F5F5F5F5F5F5F5F5F5F5F5F5F5F5F5F5F5F5F5F5F5F5F5F5F5F5F5F5F5F5F5F5F5F5F5F5F5F5F5F5F5F5F5F5F5.>F5Y7Y:X<{4O4x4T%VGOL%XD=6C#F**:+sCQV~0&X'X=4dSY3f*(X)X*X+X,X-X( J:[E.X/XSV|S0X1X2X3X4X)@5X6X7X8X9X:X;X<X=X                                                                                                                                                                                                                                ",
"                                                      s#%&<#,%P!y!$ 5!0 ]!! W$u$K%y!y!|!y!4#M!T#z e z!x!% G%j%c!u#W#5#' N$X$p&=!a!S#g 0$W#} h V#7#b!!#M%! Q!]!]!# W$K%|!y!K%u$|!4#:!!!i e ;$x!-%J%-)P#u#M#- 0%O#p$p$6#S#L%g 7!9$>!C&N!j%q$##L ! * Q!]!# # ! u$u$W$r#W$V!Q#!!;$ #}!}!o&q&%&C&>!0$.%N$a!:#=!| .%g =$O , O%! * ~ !(`!k A$;#J I L%p&8*p&O!Y!8$w#Q%M 76M44!N 8!T%M4x486Y7Y7F5)8)8F5Y786a1R% !y * ! V!L ;$N%!#k%8#P%p#[(J)6J6J6J6J6J6#, r$t$,%!(q$-% #z v#|!]!* M <$ !H  !<$Y / G ]!y!4#_!M!z x!k%P#( S!P!M%% l%o&,'J%!!V!K%r#Q!G y  !4!T%a1x476v476x4M4S%4!Z Y M M j Y 9!1 # W$! * ^!/ ^!G 9!Y  !4!R%S%a1x476v4Y7Y7Y7F5)8F5F5)8)8)8)8)8)8)8)8)8)8)8G5G5G5G5G5G5G5G5G5G5G5)8F5F5F5F5F5F5F5F5F5F5F5F5F5F5F5F5F5F5F5F5F5F5F5F5F5F5F5F5F5F5F5F5F5F5F5F5F5F5F5F5F5F5F5F5F5F5F5F5F5F5F5F5F5F5F5F5F5F5F5F5F5F5F5F5F5F5F5F5F5F5F5F5F5F5F5F5F5F5F5F5F5F5F5F5F5F5F5F5)8,>f=Y7Y:{4O4*4);EEL3Z;,<hK>X&!.'?X@X;.'?Y%AX]+*.yWECBXCX7FD*'B#NDXEXoKFXGXHXIXJXKXLXMXNXOXPXQXRXSX                                                                                                                                                                                                                                        ",
"                                                      x!}!~ N#T#W!K%|!|!y!y!|!u$r#! ]!5!W$!!t!J%Q%S!h f U#J 5$n$S#6#6!O!T!n$p#O W#s#K s$x!x!z!;$X :!L Q#K%K%K%u$u$K%u$W$! 5!$ r#!!o&,%S!r$K I%/$=$Z!n$S#6!')#(a!' n!U#{ E&$&b!% % ##+ !!L Q#R!|!K%K%u$r## ]!]!0 5!* Q!X s$j%K :$k { 6$- 0%v!Y!6#O!a!O#/%5$h P#X!Q%M%z K%* ! j%k n!| O#T!6#a!6#S#0%t#9#s#1$J%L  !x4M4N H R%T%a1768686Y7F5)8)8F5Y786a1R% !M * ! W!:!~ -%b!2%k%Y$/%J)IJ6J6J6J6J6Ja!k h(+'8#[!O%% i M!W!! 1 ^!Z 4![&R%R%[&H Z y $ # u$W!R!4#X l%8#w#. <!X!q#S!1$<#v$!!|!! 0 * / Z N R%M4x476v486v476x4a1S%4!H <$j Y y M ^!G * * 9!/ M M y j H [&8!T%a1x476v486Y7F5F5F5F5F5F5F5F5G5G5G5)8)8)8)8)8)8)8)8)8)8)8)8)8)8)8G5G5)8F5F5F5F5F5F5F5F5F5F5F5F5F5F5F5F5F5F5F5F5F5F5F5F5F5F5F5F5F5F5F5F5F5F5F5F5F5F5F5F5F5F5F5F5F5F5F5F5F5F5F5F5F5F5F5F5F5F5F5F5F5F5F5F5F5F5F5F5F5F5F5F5F5F5F5F5F5F5F5F5F5F5F5F5F5F5F5F5)8F5Y7Y78686{4O4TXN9UX]:~4VX(2WXXXYXZX[X]X0'('N-^X_X`XaXjPbXcXS>dXeXfXgXhXiXjXkXlXmXnXoXpX                                                                                                                                                                                                                                                  ",
"                                                        ! r#r#u$W!V!W!|!K%y!_!T#~ z!% ##G%,%K %&C&9$.%6#:#p$p&}$v!' u!7!A$k :$P%.$7#M%0 G * 1 Q!]!# # ! u$u$y!_!Q#v#M!!!) ##z!s$j%V#<!9$& ;#| ')A(#(=!O#.%5$9#W#s#%&<#,%k%M%|!G Q!]!# ! W$u$K%|!|!|!4#Q#:!T#z i z!x!N%H%P#G#0$p#' L%T!=!6#O#| u!7!9$D&u#%&8#O%;$V!M  !^!9!W$r$} | p$Y!/%' - R#<!w#;!`!&(% R!$ H M4M4[&4!R%S%M4x4v48686Y7F5)8F5Y786a1R% !y $ # y!M!i t!P!!#,'P%O#6J6J6J6J6J7JZ(O#{ 1$,%!(f!l%+ X 4#u$Q!9!Y N 8!T%M4M4S%R%4! !M $ 0 W$|!K%W!L t!o$W#R#7$P#W V#S!,'Q#! 0 * ^!j H [&S%x476v486Y78686v476a1T%8![&N <$Z Z Z j y y Y Y j <$ !N R%S%M4x476v4v486Y7Y7F5)8F5F5F5F5F5F5)8)8)8)8)8)8)8)8)8)8)8)8)8)8)8)8)8)8)8)8)8F5F5F5F5F5F5F5F5F5F5F5F5F5F5F5F5F5F5F5F5F5qXqXqXqXqXF5F5F5F5F5F5F5F5F5F5F5F5F5F5F5F5F5F5F5F5F5F5F5F5F5F5F5F5F5F5F5F5F5F5F5F5F5F5F5F5F5F5F5F5F5F5F5F5F5F5F5F5F5F5F5F5F5F5F5F5F5F5)8F5Y7Y7c=86{4O4W;RErX8C'K=A];sXtXuXvXwXxXyX)2zX{X|X}X~X Y!Y#Y$Y%Y&Y'Y(Y)YdU*Y+Y,Y-Y.Y                                                                                                                                                                                                                                                      ",
"                                                              W$u$W$# 0 1 W$N#G%X!7$h <!6$8$.%' L%T!6!:#=!6#' hU[R%&c!J%z!}! #) i z Q#W$r#r#W$W$r#! 0 Q!Q!* W$xIrGS,-%q#c!{ I%9$n!' O#N$T!N$6#' u!u!5#<!w!3%M%M%x!}!~ N#z M!y!u$|!y!y!|!u$r#! # 0 # !!t!J%Q%-)1%h f 0$=$n$v!6!')#(=!Y!Z!U#{ , K J%z!##z!~ :!R!|!! * G * $ ! [!>$5#Z!6$h F%.$M%) ;$e T#V!r#1 /  !S%T%S%8!R%8!T%a17686Y7Y7Y7F5F5Y786x48!H Y G ]!|!Q#N#x!f!J%b!c!v!6J6J6J6J6JZ(p$g & Y$-)[!N%}!e Q#y!# * M <$R%M4a1x4x4a1T%8!4!<$M G Q!# ! ! r#_!s$t$P%s#k c!,%U!~ # 5!1 ^!Y <$4!8!M476v486Y7F5Y7Y7Y786v4x4M4T%S%8![&4!4!N H H N N 4![&R%8!T%a1x476v48686Y7Y7F5F5F5F5F5F5F5F5F5F5F5F5)8G5G5G5G5G5G5G5G5G5G5G5G5G5)8F5F5F5F5F5F5F5F5F5F5F5F5F5F5F5F5F5F5F5F5F5F5F5F5qXqXqXqXqXF5F5F5F5F5F5F5F5F5F5F5F5F5F5F5F5F5F5F5F5F5F5F5F5F5F5F5F5F5F5F5F5F5F5F5F5F5F5F5F5F5F5F5F5F5F5F5F5F5F5F5F5F5F5F5F5F5F5F5F5F5F5,>F5N4N4Y:Y:86{4*I>X/YP20Yc<1YgI2Y3Y4Y5Y6Y7Y8Y<O4)9Y:Y;Y<Y=Y>Y?Y@YAYBYCYDY                                                                                                                                                                                                                                                                  ",
"                                                                  ) x!-%N%b!+'V#} p#B&| N$X$p$O!N$n$[ 6$U#& k P#8#J%s$K%''|,x$Q!0 # r#W$W$W$r#u$V!M!z i ;$ #o&HRyQ}Qw!s#[ /%S#Y!X$=!v!0%/%g . h ~!E&Y$-)N%y!$ Q!# ! r#r#r#W$|!y!y!|!W!v#T#e ) z!% N%,%K %&C&>!0$n$N$a!p$=!O#.%5$9#0$} F%<#,%Q%-%K%^!$ 1 * 5!5!1 1 * * $ G 0 ;$j)Y$7$S!8#,'% * M / M y Y Y j Z H R%T%x4a1R%[&S%a17686Y7Y7Y7F5F5Y786x48!N j 9!0 K%_!X z!s$f!f!$&/%IJ<J6J6J6J?(u!;##!%&j%U!l%;$X 4#u$Q!^!j N S%x476v4v476x4M4S%4!Z y ^!$ 5!5!* 0 _!}!,'`!P#&(l%T#u$9!9!^!j  !N R%T%x4v486Y7F5F5F5F5F5F5Y7v476x4a1M4M4T%T%S%8!8!S%S%T%T%M4M4x47676v486Y7Y7Y7Y7)8F5F5F5F5F5F5F5F5F5F5F5)8)8)8)8)8)8)8)8)8)8)8)8)8)8)8F5F5F5F5F5F5F5F5F5F5F5F5F5F5F5F5F5F5qXqXqXF5qXqXqXqXqXqXqXqXF5F5F5F5F5F5F5F5F5F5F5F5F5F5F5F5F5F5F5F5F5F5F5F5F5F5F5F5F5F5F5F5F5F5F5F5F5F5F5F5F5F5F5F5F5F5F5F5F5F5F5F5F5F5F5F5F5F5F5F5F5,>F5J5N4Y:Y:86{4[:DIEYWXFYGYHYIYJYKYLYMYNYOYPYQYRYSYTYUYVYWYXYYYZY[Y                                                                                                                                                                                                                                                                        ",
"                                                                  1%h W#/$5${!B&N$p$p&=!N$B&=$/$6$>$P!}!% % }!;$X :!*%83(#G'w$r#! r#! 0 1 $ 9!# X s$j%.$P%s#U#8$t#u!n$O#a!O!O!T!' 5#s#?$7$K G%####% }!~ T#R!|!y!W!y!|!u$r#! r#! 0 * W$N#G%H%1%7$h A$5$n$0%| O#6#O!N$u!u!O { 1%!#t!M%t!z!~ N#z M!|!W$u$u$W$# Q!* 9!M y Y y $ ]!W!!!~ T#Q#v#W!]!0 0 Q!* 9!y  !4!R%8!M486v48![&T%x4v486Y7Y7Y7F5F5Y7v4x4S%4!Z / 5!r#V!:!) t!N%O%<#t#q+IJ6J6J6Jp$6$F%;!P#&(o&##N#M!W!! * M <$[&M476v48686v476x4a18!4! !j M 9!$ * $ * K%:!}!+ V!5!^!M / y j  !4!R%S%a17686Y7Y7F5)8F5F5F5F5F5Y7Y786v47676x4x4a1a1a1a1a1x4x4767686v4v486Y7F5F5F5F5F5F5F5F5F5F5F5F5F5F5F5F5F5F5F5F5F5F5F5F5F5F5F5F5F5F5F5F5F5F5F5F5F5F5F5F5F5F5F5F5F5F5F5F5qXqXqXqXqXqXqXqXqXqXqXqXqXF5F5F5F5F5F5F5F5F5F5F5F5F5F5F5F5F5F5F5F5F5F5F5F5F5F5F5F5F5F5F5F5F5F5F5F5F5F5F5F5F5F5F5F5F5F5F5F5F5F5F5F5F5F5F5F5F5F5F5F5F5NEF5OEOEN4tI]YI5SE^Y_Y/YFY`YaYbYcY  dYeYfYgYhYiYjYkYlYmY                                                                                                                                                                                                                                                                                    ",
"                                                                    .%O!A(@(8*=!L%u!5$7!f k ?$N!<#P!u$/ G * 1 Q!*RuE# w$L4w$K%R!_!4#v#!!}!## #N%j%P#u#W#5#' a.L/7R~%a!S#u!M#R#f s#N!q#[!3%-%W$]!! ! r#K%y!V!R!W!y!V!_!L e ;$~ ) l%-%b!+'V#u#0$- 0%O#p$p$6#S#L%g 3!} w#E&Y$-)-%K%9!* Q!]!! ! r#W$|!|!K%W$W$y!4#:!z e e N#v#5!# r#0 * 9!^!$ 5!]!]!Q!1 5!]!r#y!y!Q!H a1Y7868![&T%a17686Y7Y7Y7F5F5Y7v4x4S%[& !y * # |!v#e z!x!t!-)W#T!@(Z(Z(@(u!4$u'$&q&[!t!) L R!W$Q!^!j N R%a1v486Y7Y78686v476M48![&N  !j y ^!/ j ^!1 0 * Z 4![&H Y Z H [&8!T%a1x4v4Y7Y7Y7F5)8F5F5F5F5)8F5F5Y7Y7Y7Y78686v4v4v4v4v486868686Y7Y7Y7F5F5)8)8)8)8F5F5F5F5F5F5F5F5F5F5F5F5F5F5F5F5F5F5F5F5F5F5F5F5F5F5F5F5F5F5F5F5F5F5F5F5qXF5F5F5F5F5F5F5qXqXqXqXqXqXF5F5qXqXqXqXqXqXF5F5F5F5F5F5F5F5F5F5F5F5F5F5F5F5F5F5F5F5F5F5F5F5F5F5F5F5F5F5F5F5F5F5F5F5F5F5F5F5F5F5F5F5F5F5F5F5F5F5F5F5F5F5F5F5F5F5F5F5NEF5}E}E.>C=tI)<Z;nYoYpYI'qY'97:rY    sYtYuYvYwYxYyY                                                                                                                                                                                                                                                                                        ",
"                                                                    p#2$/$J R#{ 1$v$U!z!N#!!X T#:!4#u$r#! ! # r#|!V!v#M!:!O0) J%k%2%q#?$. 9#J /$u!0%B&B&n$p#/$. & { ;!c!q#;$z z X :!_!4#_!R!|!y!y!|!y!R!Q#T#!!!!!! #J%+'N!7$3$, [ {!n$' 0%' B&t#{!I . I%F%V#1$7#% X z z X :!_!y!K%|!|!|!V!4#_!v#M!L z !!~ q$j%`!, & U#f P#Q#) l%N#4#r#]!r#K%V!Q#Q#4#z N%8#w!P%8#* Y7F5v48![&S%M4x486Y7Y7Y7F5)8F5Y7v4M48!N j ^!1 ! W!L e + l%J%-*3$. Z!{!9$7$q&k%[!s$z!~ X V!r#5!9!Y H R%T%7686Y7F5F5F5F5Y786v4x4M4T%8![&N H  !<$j j Y j <$ !H H N [&8!M4a1x476v486F5)8)8F5F5)8G5G5G5G5G5)8F5F5)8)8)8)8F5F5F5F5F5F5F5Y7Y7)8F5F5)8)8F5F5F5F5F5F5F5F5F5F5F5F5F5F5F5F5F5F5F5F5F5F5qXqXqXqXF5F5F5F5F5F5F5F5F5F5F5qXqXqXqXqXqXF5F5F5F5F5qXqXqXqXqXF5F5F5F5F5qXqXqXqXF5F5F5F5F5F5F5F5F5F5F5F5F5F5F5F5F5F5F5F5F5F5F5F5F5F5F5F5F5F5F5F5F5F5F5F5F5F5F5F5F5F5F5F5F5F5F5F5F5F5F5F5F5F5F5F5F5F5F5F5F5F5,>F5J5[<D=D=*<.;{AzYc<{Y`6{J|Y                                                                                                                                                                                                                                                                                                          ",
"                                                                    !#l%t!t!l%z!N#L v#V!y!y!|!u$r## ]!0 1 G ^!]!X s$t$`!3$s#U#I:t#u!n$Y!6!O!6!Y!B&9#h 3$c!J%z!}! #) i z Q#u$r#W$u$u$W$! ]!]!# # 0 1 W$N#G%,%w!E&>!U#5$0%Y!6#N$6#a!0%u!u!5#<!w!2%-%-%x!}!~ N#z M!y!u$|!y!y!|!K%u$W$r## r#e -%b!v$-*w!k U#O - .%v!6!')8*')3!-%y!y!v#T#!!~ ##f!r$C&& f ;#n!.%S#' w#u$)8Y7x4R%4!8!T%x4v486Y7F5Y7Y7F5Y786a1S%[&H Y 9!5!! V!_!i P!3%N%M%U!3%!(b!!(r$-)O%i T#Q#R!! 5!9!Y H [&S%a1v4Y7F5)8)8)8)8F5F5Y786v476a1M4T%S%8!R%[&[&R%R%[&[&R%8!T%M4x476v48686Y7Y7)8F5F5F5F5)8G5)8)8)8)8)8)8)8G5G5G5G5G5)8)8)8)8)8)8)8)8F5F5F5F5F5F5F5F5F5F5F5F5qXqXF5F5F5F5F5F5F5F5F5F5F5F5F5qXqXqXqXF5F5F5F5F5F5F5F5F5F5qXqXqXqXqXqXqXqXqXF5F5F5F5qXqXqXqXF5F5F5F5F5qXqXqXqXF5F5F5F5F5F5F5F5F5F5F5F5F5F5F5F5F5F5F5F5F5F5F5F5F5F5F5F5F5F5F5F5F5F5F5F5F5F5F5F5F5F5F5F5F5F5F5F5F5F5F5F5F5F5F5F5F5F5F5F5.>.>->.>C=C=+<+<R4}Y>A~Y Z!Zd8]?#Z                                                                                                                                                                                                                                                                                                          ",
"                                                                      5!]!! r#W$|!y!y!W!W!y!W!4#Q#T#z i }!% ##o&j%P#( [ 8$' 6#p$')X$a!B&[ U#W#} h V#7#b!s$K%G 5!0 Q!0 # r#u$W$r#r#u$V!Q#!!i ~ % M%-%b!+'V#u#M#g | N$p$X$S#/%L%u!;#h ~!E&W +'O%V!* 0 # ! r#r#r#W$|!y!y!|!y!_!L i  ###x!O%-)1%3$w#I%M#n$6!#('):#S#t#2$9#9#k ##G Q!~ P!j%X!o$Y$A$' 6!=!X$p$:#N$.%E&u$F586a1R%4!8!T%x47686Y7F5Y7Y7F5Y786x4M48!4!<$M $ 0 u$K%L O%!#b!b!!#3%,'k%-)$&r$M%L _!W!K%Q!G y <$4!8!M47686Y7F5)8)8)8)8)8)8F5Y7Y786v476x4a1a1M4T%T%T%T%T%T%M4M4x476v48686Y7Y7F5F5)8F5F5F5F5)8G5)8)8)8)8)8G5G5G5G5G5G5G5G5G5G5G5G5G5G5)8F5F5F5F5F5F5F5F5F5F5F5qXqXqXqXF5F5F5F5F5F5F5F5F5F5F5F5qXqXqXqXF5F5F5F5F5F5F5F5F5qXqXqXqXqXqXqXqXqXqXF5F5F5F5qXqXqXqXF5F5F5F5qXqXqXqXqXF5F5F5F5F5F5F5F5F5F5F5F5F5F5F5F5F5F5F5F5F5F5F5F5F5F5F5F5F5F5F5F5F5F5F5F5F5F5F5F5F5F5F5F5F5F5F5F5F5F5F5F5F5F5F5F5F5F5F5F5.>j=j=j=i=C=+<+<$Z%Z&Z'Z(Z)Z*Z+Z,Z                                                                                                                                                                                                                                                                                                          ",
"                                                                        W!V!R!V!y!K%W$r## Q!u$!!t!,'-)K k } U#[ 5$n$T!O!:#O!T!B&p#5#U#>$U!}!% x!z!;$X :!M!y!u$K%u$r#! r#! 0 * G 9!# X s$,%S!.$w#6$/$=${!B&S#6!p$:#T!' 5#G#:$4$1%f!% % x!z!~ T#R!|!y!W!y!|!u$r#! r#! 0 * W$N#G%,%w!4$s#A$5$B&/%S#T!a!:#6#n$t#O { 1$U! #z!~ u$/ 4#j%, 3!g u!n$Y!#(A(p$N$B&I } w#q&0 v476M4[&4!8!T%a1v486Y7F5Y7Y7F5F5Y776a1T%R%N j ^!1 # # K%L G%K G#U#;#9$W#( :$A&l%Q#y!W$# $ M Z N R%T%x47686F5)8F5F5F5F5F5F5)8F5F5Y7Y78686v4v476x4x4x4x4x4x4767676v486Y7Y7Y7Y7F5)8F5F5F5F5F5)8G5)8)8)8)8)8)8)8)8)8)8)8)8)8)8)8)8)8)8)8)8)8)8)8)8)8F5F5F5F5F5F5qXqXqXqXF5F5F5F5F5F5F5F5F5F5F5F5qXqXqXqXqXqXqXqXF5F5F5F5qXqXqXqXF5F5qXqXqXqXqXF5F5F5F5qXqXqXqXF5F5F5F5F5qXqXqXqXF5F5F5F5F5F5F5F5F5F5F5F5F5F5F5F5F5F5F5F5F5F5F5F5F5F5F5F5F5F5F5F5F5F5F5F5F5F5F5F5F5F5F5F5F5F5F5F5F5F5F5F5F5F5F5F5F5F5F5.>->.>C=C=j=D=,<,<=A>A-Z.Z/Z0Z1Z2Z3Z                                                                                                                                                                                                                                                                                                          ",
"                                                                        V!W!W!R!:!i  ###% ##G%,%K 4$>!0$n$6#6!=!p&:#L%u!5$[ A$k ?$N!<#J%u$/ G * 1 Q!]!# # u$|!K%|!FL_!4#v#!!}!## #N%j%V#<!9$W#t#a!')A(#(=!O#.%I M#f s#P%j%!#2%N%W$# r#r#W$K%y!V!R!W!y!V!_!L e ;$~ ) l%-%b!+'V#{ J - ' O#p$p&a!Y!v!t#9#} C&~!P%H%x!]! !Z y 9!y Q#t$} Y!@(p&a!B&I J R#D&, V#t$&(-%G a1x4a1R%[&8!T%a176v486Y7Y7Y7F5F5Y7v4x4a1S%[& !Y ^!1 5!0 ! + u's#U#J ;#. { $&3%e |!W$# 1 M Z H [&S%a176v486F5)8F5F5F5F5F5F5)8)8)8F5F5Y7Y7Y7Y7Y7868686868686Y7Y786Y7Y7F5F5Y7Y7F5)8F5F5F5F5F5)8)8)8)8)8)8)8)8)8)8)8)8)8)8)8)8)8)8)8)8)8)8G5G5G5)8)8F5F5F5F5F5F5qXqXqXqXF5F5F5F5F5F5F5F5F5F5F5qXqXqXqXqXqXqXqXqXF5F5F5qXqXqXqXF5F5F5F5qXqXqXqXF5F5F5F5F5qXqXqXF5F5F5F5F5qXqXqXqXF5F5F5F5F5F5F5F5F5F5F5F5F5F5F5F5F5F5F5F5F5F5F5F5F5F5F5F5F5F5F5F5F5F5F5F5F5F5F5F5F5F5F5F5F5F5F5F5F5F5F5F5F5F5F5F5F5F5F5j=->.>C=C=j=D=4Z-<LD5Z6Z7Z<;k:8Z9Z:Z                                                                                                                                                                                                                                                                                                          ",
"                                                                          ]!Q!K%x!,%w!4$h { 6$8$n$/%O#6#O!a!O#/%.%/$;!<#7#G%## #) ;$e :!K%! r#r#W$W$r#! 0 ]!0 1 PIg085HGM%q&h ( <!} n!' O#N$T!6!N$B&g u!5#{ 1%U!-%M%x! #N#X !!T#W!W!V!V!V!W!y!|!u$! Q!K%N#o&,%S!q&1%#!/$=${!B&O#O!')#(a!' 8$W#<!C&w![!##z!z!) X R!# 1 5!5!1 ^!V![!?${!a!n$3!%&q$+  #+ e T#_!y!]!Z 8!M4a1M4S%8!S%a17676v486Y7F5Y7Y7Y78676x4T%R%4! !j 9!1 1 * |!##J%,'8#A&8#[!M%!!W$1 Q!5!^!Z H [&S%a176v486Y7F5)8F5F5F5F5F5F5F5F5F5F5F5F5F5F5F5F5F5F5F5F5F5F5F5F5F5F5F5F5F5F5F5F5F5F5F5F5F5F5F5F5)8G5G5G5G5)8)8)8)8)8)8)8)8)8)8)8)8)8)8)8G5G5)8F5F5F5F5F5F5F5F5qXqXqXqXF5F5F5F5F5F5F5F5qXF5F5qXqXqXqXqXqXqXqXF5F5F5F5qXqXqXqXF5F5F5F5F5qXqXqXqXF5F5F5qXqXqXqXF5F5F5F5F5qXqXqXqXF5F5F5F5F5F5F5F5F5F5F5F5F5F5F5F5F5F5F5F5F5F5F5F5F5F5F5F5F5F5F5F5F5F5F5F5F5F5F5F5F5F5F5F5F5F5F5F5F5F5F5F5F5F5F5F5F5F5F5j=->.>D=D=(=l=-<$J;Z<Z=Z>Z:<=;?Z@ZAZ                                                                                                                                                                                                                                                                                                          ",
"                                                                          N%O%[!.${ M#p#' L%T!p$p&T!| g 7!9$D&u#C&N!2%z!L # G 1 5!Q!0 ! W$u$W$W$r#u$V!Q#N#~ )  #o&HRyQ}Qw!A$B&Y!v!Y!X$=!v!0%.%3!A$k ;!~!P%,%N%W$Q!]!# ! r#W$u$K%W!V!V!W!V!Q#X i  #% % G%H%P#{ f & ;#v!#(A(#(=!O#n$=$/$R#G#3$.$-)&(N%lGx#Q!0 0 0 ]!# ]!0 5!* G W$;$v$, & , w!U!Q! !j y Y Y j <$N N [&T%a1x4a1S%8!a17676v486Y7F5Y7Y7F586v476a1S%R%4! !Y G $ ^!* W$y!y!Q#~ :!V!|!# G / G 9!j H [&S%a1x4v486Y7Y7F5)8F5F5F5F5F5F5F5F5F5F5F5)8)8)8)8)8)8)8)8)8)8)8)8)8)8)8)8F5F5)8)8F5F5F5F5F5F5F5F5F5)8)8)8)8)8)8)8)8)8)8)8)8)8)8)8)8)8)8)8)8)8)8)8F5F5F5F5F5F5F5F5F5qXqXqXqXF5F5F5qXqXqXqXF5F5F5qXqXqXqXqXF5F5F5F5F5F5F5qXqXqXqXF5F5F5F5F5qXqXqXqXF5F5F5qXqXqXqXF5F5F5F5qXqXqXqXF5F5F5F5F5F5F5F5F5F5F5F5F5F5F5F5F5F5F5F5F5F5F5F5F5F5F5F5F5F5F5F5F5F5F5F5F5F5F5F5F5F5F5F5F5F5F5F5F5F5F5F5F5F5F5F5F5F5F5F5j=.>.>D=D=l=l=-<BJBZ'ZCZbJe8f8/IDZEZ                                                                                                                                                                                                                                                                                                          ",
"                                                                            /$5$u!S#6!')#(=!T!' 8$A$, K J%z!##z!}!;$T#_!W!u$W$u$u$r#! ! # 0 1 $ 9!# X O%t$`!3$s#U#I:t#u!n$Y!6!O!6!T!' 5#s#3$P#b!##z!z!## #e :!W!y!y!y!y!|!u$r#r#W$! ]!5!u$e f!,%w!, >!U#8$B&S#T!T!6#a!' u!t#I <!w!2%N%N%l%z!;$e N#L @$O.|!|!u$r## Q!* 9!/ M G 5!# 4# #x!~ T#R!0 * 1 >H*GG / Y bF[&8!S%a1Y786S%R%a176v486Y7Y7Y7F5F5Y78686v476a1T%8![& !y / ^!^!/ / ^!G 1 G ^!9!9!^!M y j N R%S%a1x47686Y7F5F5F5F5F5F5F5F5F5F5)8)8)8)8)8G5G5G5G5G5G5G5G5G5G5G5G5G5G5G5G5)8)8F5F5F5F5F5F5F5F5F5F5F5F5F5F5F5F5)8G5G5G5G5G5G5G5G5G5G5G5G5G5)8F5F5F5F5F5F5F5F5F5F5F5F5qXqXqXqXF5F5F5qXqXqXqXF5F5qXqXqXqXqXqXqXF5F5F5F5F5F5qXqXqXqXF5F5F5F5F5qXqXqXqXF5F5F5qXqXqXqXF5F5F5F5qXqXqXqXF5F5F5F5F5F5F5F5F5F5F5F5F5F5F5F5F5F5F5F5F5F5F5F5F5F5F5F5F5F5F5F5F5F5F5F5F5F5F5F5F5F5F5F5F5F5F5F5F5F5F5F5F5F5F5F5F5F5->->->D=D=(=l=-<-<+80<FZGZXIHZf8g8i8IZJZ                                                                                                                                                                                                                                                                                                          ",
"                                                                            8*t*p$O#n$=$5#[ 9$s#%&r$k%t!K%^!$ 1 5!Q!# ! r#W$u$u$|!FL_!MRz ;$z!% ##G%j%c!D&7!5$0%6#p$')X$a!B&[ U#W#} h V#7#b!o&|!$ Q!]!]!# W$K%y!y!y!|!y!_!L e ;$;$x!-%N%[!-*N!{ M#t#v!N$X$p$6#S#| t#;#h ~!, W +'O%V!1 ]!r#r#W$W$W$L4lG@$o2W$u$V!v#L !!i i T#]!9!9!1 W$! ^!Y G 5!Q!Q!5!Z-*G>&]!1 $ M 4!x4F5Y7T%R%M476v486Y7Y7Y7F5F5Y7868686v476x4M4S%[&<$j Y j  !H  !<$H H  !<$j Y Y <$N R%T%a176v48686Y7F5)8F5F5F5F5F5F5F5F5G5G5G5G5G5G5G5G5G5G5G5G5G5G5G5G5G5G5G5G5G5G5)8F5F5F5F5F5F5F5F5F5F5F5F5F5F5F5F5)8)8)8)8)8)8)8)8)8)8)8)8)8)8)8F5F5F5F5F5F5F5F5F5F5F5F5qXqXqXF5F5F5F5qXqXqXF5F5F5F5F5F5qXqXqXqXF5F5F5F5F5F5qXqXqXqXF5F5F5F5F5qXqXqXqXF5F5F5F5qXqXqXqXF5F5F5qXqXqXqXF5F5F5F5F5F5F5F5F5F5F5F5F5F5F5F5F5F5F5F5F5F5F5F5F5F5F5F5F5F5F5F5F5F5F5F5F5F5F5F5F5F5F5F5F5F5F5F5F5F5F5F5F5F5F5F5F5F5.>j=.>D=l=(=l=-<$J`<1<KZeIWIVIg8g8LZ'J                                                                                                                                                                                                                                                                                                            ",
"                                                                            /$[ & Y$,%M%e i i N#z M!4#W!u$r#! ! # r#W!v#M!:!:!L S,MZNZ8#`!w#R#O n!- .%' B&n$u!p#5#. & { F%q&}!:!X X T#M!_!R!R!|!u$u$|!V!R!R!_!:!!!N#X + P!-)N!7$;!R#n!{!n$' 0%' B&u!=$5#;##!F%N!K H%}!N#N#e !!T#Q#V!y!W!y!W!4#Q#L T#L X N#N# #U!H%`!, & U#~!~ Q!u$_!N#T## * ! y!W!W!W!W!X OZ!#b!J%+ / 86F5v48![&T%76v486Y7Y7Y7F5)8)8Y7Y7868686v476x4T%8![&4!H  ! ! ! !<$<$<$ !H N [&R%S%a1x47686Y7F5F5)8)8F5F5F5F5F5F5F5F5F5G5G5G5)8)8)8)8)8)8)8)8)8)8)8)8)8)8)8)8)8)8)8)8)8)8F5F5F5F5F5F5F5F5F5F5F5F5F5F5F5F5F5F5F5F5F5F5F5F5F5F5F5F5F5F5F5F5F5F5F5F5qXF5F5F5qXqXqXqXqXF5F5F5qXqXqXF5F5F5F5F5F5qXqXqXqXF5F5F5F5F5F5qXqXqXqXF5F5F5F5F5qXqXqXqXF5F5F5F5qXqXqXqXqXqXqXqXqXqXF5F5F5F5F5F5F5F5F5F5F5F5F5F5F5F5F5F5F5F5F5F5F5F5F5F5F5F5F5F5F5F5F5F5F5F5F5F5F5F5F5F5F5F5F5F5F5F5F5F5F5F5,>,>,>,>,>,>CFi=;Ai=4J4J(=*=$J0<1<.=PZ^JQZ{Ih8RZSZTZ                                                                                                                                                                                                                                                                                                            ",
"                                                                            t!t!% ~ T#R!y!W!W!y!|!u$! # ]!0 1 G ^!]!}!j%.$`!3$s#U#I:t#.%S#6#6!:#=!6#' /$;!<#q#f!% z! #) i :!K%! r#r#r#r#r#! # # 0 1 W$xIUZSFN%X!s#& I%9$n!B&S#N$N$:#a!0%u!u!5#<!w!P!N%-%l%z!) i N#T#R!V!V!V!V!W!y!|!u$r#0 |!e f!-)S!q&K >!9#5$- .%| a!p&#(t#-)) z R!0 1 # 4#-%q#X!$&Y$, } I g p#W#.$r#G5F576R%4!S%x476v486Y7F5)8)8F5F5F5Y7Y7Y7Y786v4x4a1M4T%S%8!R%R%R%[&R%R%8!S%T%M4a1x4v48686Y7Y7F5)8F5F5F5F5F5F5F5F5F5F5F5F5F5F5)8G5G5G5G5G5)8)8)8)8)8)8)8)8)8G5G5G5G5)8F5F5F5F5F5F5F5F5F5F5F5F5F5F5F5F5F5F5F5F5F5F5F5F5F5F5F5F5F5F5F5F5F5F5F5qXqXqXqXqXF5F5F5qXqXqXqXF5F5qXqXqXF5F5F5F5F5F5F5qXqXqXF5F5F5F5F5F5F5F5qXqXqXqXF5F5F5F5qXqXqXqXF5F5F5F5qXqXqXqXqXqXqXqXqXF5F5F5F5F5F5F5F5F5F5F5F5F5F5F5F5F5F5F5F5F5F5F5F5F5F5F5F5F5F5F5F5F5F5F5F5F5F5F5F5F5F5F5F5F5)8)8)8)8)8)8)8.>J5J5J5J5J5N4N4h='='=<A<A-<$JqI1;VZWZXZ=;g8g8YZZZ[Z                                                                                                                                                                                                                                                                                                              ",
"                                                                            ]!! W$K%y!V!R!V!W!y!W!v#L X z i }!% ##o&S!u#R#7!5$0%N$X$p&O!v!g [ U#W#A$k V#2%##T#! * Q!0 Q!0 ! W$W$W$W$r#u$V!M!N#N#i  #n9@R]Z%J`!} B&T!S#Y!X$=!v!0%n$9#} h ~!E&W +'O%u$0 ! r#W$u$u$u$|!V!V!V!W!R!M!z ~ }!x!x!f!-)N!{ f & ;#L%')A('):#S#t#2$9#( &() M!W!K%Q#M%Q%w!u#9$0$2$n$T!=!')a!/$w!u$G5Y7x4R%4!S%a1x47686Y7F5F5F5F5)8F5Y7Y7F5F5Y786v4v476x4a1M4M4M4M4T%M4M4a1a1x476767686Y7Y7Y7Y7F5)8F5F5F5F5F5F5F5F5F5F5F5F5F5F5)8)8)8)8)8)8)8)8)8)8)8)8)8)8)8)8)8)8)8)8F5F5F5F5F5F5F5F5F5F5F5F5F5F5F5F5F5F5F5F5F5F5F5F5F5F5F5F5F5F5F5F5F5qXqXqXqXqXqXqXF5F5F5qXqXqXqXF5qXqXqXqXF5F5F5F5F5F5qXqXqXqXqXF5F5F5F5F5F5F5qXqXqXqXF5F5F5F5qXqXqXqXF5F5F5F5qXqXqXqXqXqXqXqXF5F5F5F5F5F5F5F5F5F5F5F5F5F5F5F5F5F5F5F5F5F5F5F5F5F5F5F5F5F5F5F5F5F5F5F5F5F5F5F5F5F5F5F5F5F5F5F5F5F5)8)8)8.>J5J5J5N4N4N4N4h=h=^Z<A<AY8^;1?#J_Z`Z*Jg8h8aZbZcZ                                                                                                                                                                                                                                                                                                                ",
"                                                                            V!V!V!W!y!|!u$r## Q!u$ #J%Q%-)K k } U#[ {!S#a!:#=!:#T!n$p#M#k $&P!z!x!x!z!;$L _!V!K%u$K%u$r#! ! ]!Q!1 $ 9!# X s$+'t$$&w#R#5$u!g n$T!O!:#O!N$0%5#s#?$N!!#x!% % x!z!~ T#V!W!V!V!V!W!|!u$u$u$! ]!Q!K%i f!,%w!E&<!6$8$B&S#T!T!6#a!' u!t#O { 1$U! #;$4#! * W!G%<#>!/$g | O#N$a!6!Y!.%Z!I , &(0 86v4a1R%[&T%M4x4v486Y7F5Y7Y7)8F5F5F5F5)8F5Y7Y7Y786v4767676767676x47676v4v48686Y7Y7Y7F5F5F5F5F5F5F5F5F5F5F5F5F5F5F5F5F5F5F5F5F5F5F5F5F5F5G5G5G5G5G5G5G5G5)8F5F5F5F5F5F5F5F5F5F5F5F5F5F5F5F5F5F5F5F5F5F5F5F5F5F5F5F5F5F5F5F5F5F5F5F5F5qXqXqXqXqXqXqXF5F5F5F5qXqXqXqXF5qXqXqXF5F5F5F5F5F5F5F5qXqXqXqXF5F5F5F5F5F5F5qXqXqXqXF5F5F5qXqXqXqXF5F5F5F5F5qXqXqXqXF5F5F5F5F5F5F5F5F5F5F5F5F5F5F5F5F5F5F5F5F5F5F5F5F5F5F5F5F5F5F5F5F5F5F5F5F5F5F5F5F5F5F5)8)8)8)8)8)8)8Y7Y7Y7Y7F5F5F5N4Y<N4N4Y7Y7N4J5&=&=D=M5=AdZeZi>fZgZhZ{Ig81JiZjZkZ                                                                                                                                                                                                                                                                                                                ",
"                                                                            V!W!W!Q#X i  ###% ##G%h(%&C&>!0$n$6#6!=!=!S#B&t#5$[ A$k :$1%8#t!u$^!$ 5!Q!0 # r#u$K%|!K%|!FL_!_!T#i }!## #N%j%P#>!( . .%a!L/7R~%a!' 7!W#. 9$G#P%j%!#f!W!1 # r#r#W$K%y!V!V!V!W!R!Q#X ~ ) + l%N%s$!#-*N!{ M#t#| T!X$p$6#S#v!t#;#h ~!E&P%H%x!]! !j / / j |!!#7${!p&:#O#L%' - M##!~!3$V#v$ #9!a1x4a18!R%S%M4x476v486Y7Y7Y7)8F5F5)8)8)8F5Y7Y7F5Y7Y78686Y786v4v4v486Y7Y7Y7Y7Y7F5F5Y7F5)8)8)8F5F5F5F5F5F5F5F5F5F5F5F5F5F5F5F5F5F5F5F5F5F5)8)8)8)8)8)8)8)8)8F5F5F5F5F5F5F5F5F5F5F5F5F5F5F5F5F5F5F5F5F5F5F5F5F5F5F5F5qXqXF5F5F5F5F5F5qXqXqXqXF5F5F5F5F5F5F5F5qXqXqXqXqXqXqXqXF5F5F5F5F5F5F5F5qXqXqXqXF5F5F5F5F5F5F5qXqXqXqXqXqXqXqXqXqXqXF5F5F5F5F5qXqXqXqXF5F5F5F5F5F5F5F5F5F5F5F5F5F5F5F5F5F5F5F5F5F5F5F5F5F5F5F5F5F5F5F5F5F5F5F5F5F5F5F5F5F5F5F5F5F5F5)8)8)8Y7Y7Y7Y7Y7Y7Y7Y7Y:Y:Y:8686Y:Y<Y<Y<*<lZmZnZoZPZpZ0Ig8-91JqZrZsZ                                                                                                                                                                                                                                                                                                                  ",
"                                                                            ! ]!! N#G%,%w!4$h { 6$- 0%v!Y!6#O!a!O#/%5$G#P%<#7#G%##z! #;$z v#K%r#W$u$u$W$! # # ]!0 1 PIg085+I8#w!h ( <!} n!' Y!T!N$O!6#' - I R#3$b!% t!M%x! #N#X T#R!y!W!V!V!V!W!y!K%W$! 0 |!e G%-)u'1$h W#5#p#{!n$S#6!')=!T!' n!U#{ C&w!G%##z!z!) X R!! 1 * * G M # + S!5$:#- f s#F%<#s$!!z X M!K%1 <$8!M4a1T%S%S%a1x47676v486Y7Y7)8F5F5F5F5F5F5F5F5)8F5F5F5F5F5Y7868686Y7F5F5F5F5F5F5F5F5F5F5F5F5F5F5F5F5F5F5F5F5F5F5F5F5F5F5F5F5F5F5F5F5F5F5F5F5F5F5F5F5F5F5F5F5F5F5F5F5F5F5F5F5qXqXqXqXqXqXqXF5F5F5F5F5F5F5F5F5qXqXqXqXqXqXF5F5F5F5F5qXqXqXqXF5F5F5F5F5F5F5F5F5qXqXqXqXqXqXqXqXF5F5F5F5F5F5F5qXqXqXqXF5F5F5F5F5F5F5F5qXqXqXqXqXqXqXqXF5F5F5F5F5F5F5qXqXqXqXF5F5F5F5F5F5F5F5F5F5F5F5F5F5F5F5F5F5F5F5F5F5F5F5F5F5F5F5F5F5F5F5F5F5F5F5F5F5)8)8)8)8F5Y7Y7Y7Y7F5F5F58686Y7Y78686868686{4{4v4v4{4X<tZtZ~4uZnZvZwZXZ0I=;g8<IxZrZyZ                                                                                                                                                                                                                                                                                                                    ",
"                                                                                q$+'V#{ M#p#B&L%T!=!6#O#| u!7!9$D&u#3$q#G%z!L # * Q!0 0 # r#u$K%u$u$W$u$_!!!~ ;$)  #o&HRyQ1$s#J B&Y!v!Y!X$=!| /%g 3!} h 7$Y$1$[!|!G 1 Q!0 # W$u$u$W!V!V!W!y!V!Q#z ) % l%x!f!,%V#<!9$W#.%6!')A('):#O#n$2$J 9$G#3$.$-)&(N%W$Q!]!0 0 0 ]!# ]!* G 9!^!1 W!q$C&W#?$r$v$3%z!5!N <$Z H 4![&[&R%T%a1x4M4S%M4x47676v486Y7Y7)8F5F5F5F5F5F5)8)8)8)8)8)8)8)8)8F5F5F5)8)8)8)8)8)8F5F5F5F5F5F5F5F5F5F5F5F5F5F5F5F5F5F5F5F5F5F5F5F5F5F5F5F5F5F5F5F5F5F5F5F5F5F5F5F5F5F5F5qXqXqXqXqXqXqXqXqXqXqXqXqXF5F5F5F5F5F5F5qXqXqXqXqXqXqXF5F5F5F5qXqXqXqXqXF5F5F5F5F5F5F5F5qXqXqXqXqXqXqXqXF5F5F5F5F5F5F5qXqXqXqXqXqXqXqXF5F5F5F5F5qXqXqXqXqXqXF5F5F5F5F5F5F5F5qXqXqXqXqXF5F5F5F5F5F5F5F5F5F5F5F5F5F5F5F5F5F5F5F5F5F5F5F5F5F5F5F5F5F5F5F5F5F5F5F5F5F5F5F5)8F5Y7Y7Y7Y7Y7Y7Y7JEJE8686v4v4v4v4v4X;X;7676X;zZSE~4{Z|Z}Z~Za9r=g8g8h8 [![#[                                                                                                                                                                                                                                                                                                                      ",
"                                                                                  {!B&O#6!p$p&=!T!Z!U#<!, K J%z!####+ z M!_!W!K%u$K%u$r#r#! # 0 5!* 9!# }!H%o$`!3$s#U#I:t#.%S#6#6!O!6!T!' 5#, :$$&b!##z!}! #;$X y!u$K%|!y!y!|!u$W$u$W$! ]!5!u$e f!X!4$s#<!6$8$' O#N$N$O!6#' u!t#O >!`!J%O%-%l%z!+ ~ N#L W!|!|!K%u$! 0 1 G y Z j ^!G 9!|!t!o&!!v#_!4#|!Q!G $ G / <$4!8!S%T%x4Y786S%T%x476v486Y7Y7Y7)8F5F5F5F5F5F5F5F5F5)8G5G5G5G5G5)8)8)8G5G5G5G5G5G5)8)8)8F5F5F5F5F5F5F5F5F5F5F5F5F5F5F5F5F5F5F5F5F5F5F5F5F5F5F5F5F5F5F5F5F5F5F5F5F5F5F5F5qXqXqXqXqXqXqXqXqXqXqXqXqXF5F5F5F5F5qXqXqXqXqXqXqXqXqXqXF5F5F5qXqXqXqXqXqXF5F5F5F5F5F5qXqXqXqXF5qXqXqXqXqXqXF5F5F5F5F5F5qXqXqXqXqXqXqXF5F5F5F5F5F5F5qXF5F5F5F5F5F5F5F5F5F5F5F5qXqXqXqXF5F5F5F5F5F5F5F5F5F5F5F5F5F5F5F5F5F5F5F5F5F5F5F5F5F5F5F5F5F5)8)8)8)8)8)8F5Y7Y7Y7F5Y78686Y7Y7868686xExEO4O47676x4x4,GV;V;TXTX$[+;zZ;6%[&['[([r={Ig8g81J)[*[                                                                                                                                                                                                                                                                                                                        ",
"                                                                                  8*=!O#' u!8$[ } F%<#,%k%M%u$^!$ 1 Q!]!# ! r#K%|!K%|!4#4#v#X ~ z!x!% G%X!u#W#[ 8$' 6#p$')O!S#g [ U#W#} h V#k%!#M%|!$ Q!# ! r#W$|!y!|!|!|!W!_!L ~ ;$+ l%N%O%[!-*N!} Z!0%| T!X$p$6#S#B&/$f h ~!, >$-*s$u$0 # ! W$u$u$u$K%y!y!K%u$K%W!4#:!X N#i M!Q!^!* ! R!K%Y Y / G * 1 1 * G ^!$ * $ M R%76)8Y7S%T%a1x4v486Y7Y7Y7)8F5F5F5F5F5F5F5F5F5)8G5G5G5G5G5G5G5G5G5G5G5G5G5G5G5G5G5F5F5F5F5F5F5F5F5F5F5F5F5F5F5F5F5F5F5F5F5F5F5F5F5F5F5F5F5F5F5F5F5F5F5F5F5F5F5F5F5qXqXqXqXF5F5F5qXqXqXqXqXqXF5F5F5F5F5qXqXqXF5F5F5qXqXqXqXF5F5F5qXqXqXqXqXqXqXF5F5F5F5F5qXqXqXqXqXF5qXqXqXqXqXF5F5F5F5F5F5qXqXqXqXqXqXqXF5F5F5F5F5F5F5F5F5F5F5F5F5F5F5F5F5F5F5F5qXqXqXqXF5F5F5F5F5F5F5F5F5F5F5F5F5F5F5F5F5F5F5F5F5F5F5F5F5F5F5F5F5F5F5F5F5)8)8)8F5Y7Y7Y7Y7Y786868686v4v4v4,Gx4W;W;x4a1M4M4M4););TXW;zZtZl=+[,[VIf8f8f8g8h8aZ-[.[                                                                                                                                                                                                                                                                                                                          ",
"                                                                                    { V#t$&(q$ #!!X :!v#_!V!u$r#! ! W$y!R!v#M!:!L L S,/[h0j%`!w#R#O n!p#n$B&B&' .%p#/$. & w#`!7#}!:!X 57_ -$4#4#V!|!u$u$u$K%y!4#:!T#z !!z  #J%-*W ?$C&W#2${!n$' 0%B&t#{!=$5#;##!;!N!r$t!!!N#e i N#X M!V!y!y!y!W!4#v#Q#:!L !!N#!!}!P!H%`!~!} J 7$;$# !!+ e v#5!>H0 ]!! K%W!R!R!v#N%3%j)l%^!Y7F5v48!S%M4a17686Y7Y7Y7)8F5F5F5F5F5F5F5F5)8)8)8)8)8)8)8)8)8)8)8)8)8)8)8)8)8)8G5)8)8F5F5F5F5F5F5F5F5F5F5F5F5F5F5F5F5F5F5F5F5F5F5F5F5F5F5F5F5F5F5F5F5F5F5F5F5F5F5qXqXqXqXF5F5F5F5F5qXqXqXqXqXF5F5F5qXqXqXqXF5F5F5qXqXqXqXF5F5F5F5qXqXqXqXqXqXqXqXqXF5F5F5qXqXqXqXF5F5qXqXqXqXqXF5F5F5F5F5qXqXqXqXqXqXF5F5F5F5F5F5F5F5F5F5F5F5F5F5F5F5F5F5F5F5F5qXqXqXqXF5F5F5F5F5F5F5F5F5F5F5F5F5F5F5F5F5F5F5F5F5F5)8)8)8)8)8)8)8F5Y7Y7Y7F5F5F5Y78686Y7v4v48686v476x4x4x4eFM4T%T%T%T%';';(;0[1[6C<A2[zH3[4[5[vHuHc86[7[8[9[:[                                                                                                                                                                                                                                                                                                                            ",
"                                                                                     #N#T#M!_!y!K%K%u$r## ]!# 0 1 G 5!X O%j%.$`!3$s#U#pQu!n$S#6#6!:#=!6#=$h 3$?$1$J%z!}! #~ z Q#K%! r#W$u$W$! # # ! ! ]!Q!* r#% H%1%7$h <!U#8$' Y!N$6#O!6#' u!t#O 4$,'-%N%-%l%z!) i z 4#W!V!V!V!V!W!y!K%W$! 0 |!i N%!#8#<#k U#9#8$- .%v!a!')8*8$q&x! #L ]!$ u$;[>RRF% Q%$&, D&U#n!{!{!~!W!87)8v48!8!T%x476v486Y7F5)8F5F5F5F5F5F5F5F5F5)8G5G5G5G5G5G5G5G5G5G5G5G5G5G5G5)8F5F5F5F5F5F5F5F5F5F5F5F5F5F5F5F5F5F5F5F5F5F5F5F5F5F5F5F5F5F5F5F5F5F5F5F5F5F5F5F5F5F5qXqXqXqXF5F5F5F5F5qXqXqXqXF5F5F5qXqXqXF5F5F5F5qXqXqXqXF5F5F5F5F5F5qXqXqXqXqXqXqXF5F5F5qXqXqXqXF5F5qXqXqXqXqXqXF5F5F5F5F5F5qXF5F5F5F5F5F5F5F5F5F5F5F5F5F5F5F5F5F5F5F5F5F5F5F5qXqXqXqXF5F5F5F5F5F5F5F5F5F5F5F5)8)8)8)8)8)8)8)8)8)8Y7Y7Y7Y7Y7Y7F5Y786Y7Y7868686v47676v476767676x4a1M4S%8!R%R%8!8!S%';FFW;%X'=<[=[>[?[&L@[A[B[(9`81@C[D[E[F[                                                                                                                                                                                                                                                                                                                              ",
"                                                                                    ! W$u$K%K%|!|!|!4#Q#:!T#!!~ }!% N%j%c!u#R#7!5$0%6#p$X$a!S#g [ U#W#A$:$7#b![!t!K%G 5!0 0 # r#W$u$W$r#W$K%_!!!i e ;$% M%-%b!<#u#0$p#' | N$p$X$v!L%t#/$f h ~!, >$2%W!* 0 ! r#W$u$u$|!V!R!V!W!y!V!Q#X ;$##x!% q$+'w!?$w#6$n$6!')8*'):#S#t#5#[ s#q#% T#y!# 4#U!HR,R-*1$w#M#B&6!=!p&=!T!u#4#87)8v4T%8!S%a176v4v486Y7F5F5F5F5F5F5F5F5F5F5)8)8)8)8)8)8)8)8)8)8)8)8)8)8)8)8)8F5F5F5F5F5F5F5F5F5F5F5F5F5F5F5F5F5F5F5F5F5F5F5F5F5F5F5F5F5F5F5F5F5F5F5F5F5F5F5F5F5F5qXqXqXqXF5F5F5F5F5qXqXqXqXF5F5qXqXqXqXqXqXqXqXqXqXqXqXqXF5F5F5F5F5F5F5F5qXqXqXqXF5F5F5qXqXqXqXF5F5F5qXqXqXqXqXqXF5F5F5F5F5F5F5F5F5F5F5F5F5F5F5F5F5F5F5F5F5F5F5F5F5F5F5F5F5F5F5F5F5F5F5F5F5F5F5F5F5F5F5F5F5F5F5F5F5F5F5)8)8)8)8)8Y7Y7Y7Y7Y7Y7Y786v48686v4v4v476x4x476a1a1M4M4M4T%S%S%8!8!8!S%T%M4w6V;O4tIY<X<[:DIG[H[;ZI[J[K[L[M[N[O[P[                                                                                                                                                                                                                                                                                                                                ",
"                                                                                    y!|!u$! # ]!0 # !!t!J%Q%-)K k } ;#5$n$S#a!:#=!:#N$u!5#W#s#K P!z!x!x!+ X :!L Q#y!u$K%u$r#r#! # 0 5!* $ ! }!H%X!r$$&w#6$/$=$t#S#6!')#(=!T!0%O w#F%w!3%l%x!x!l%##N#R!|!W!V!V!V!W!y!K%K%u$! ]!5!W$N#G%X!4$s#>!U#5$B&/%S#N$:#6#' g u!5#{ 1$M%+ e R!! * W$;$q#f 5$- p#u!| a!')8*O!n$2$. K u$)886v4x4S%8!M476v4868686Y7F5)8F5F5F5F5F5F5F5F5F5F5F5F5F5F5F5F5F5F5F5F5F5F5F5F5F5F5F5F5F5F5F5F5F5F5F5F5F5F5F5F5F5F5F5F5F5F5F5F5F5F5F5F5F5F5F5F5F5F5F5F5F5F5F5F5F5qXqXqXqXqXF5F5F5F5F5qXqXqXqXqXF5F5qXqXqXqXqXqXqXqXqXqXqXF5F5F5F5F5F5F5F5F5qXqXqXqXF5F5F5F5qXqXqXqXF5F5F5qXqXqXqXF5F5F5F5F5F5F5F5F5F5F5F5F5F5F5F5F5F5F5F5F5F5F5F5F5F5F5F5F5F5F5F5F5F5F5F5)8)8)8)8)8)8)8)8)8)8F5Y7Y7Y7Y7Y7F5F5F5F5F58686Y7Y7Y7Y786v476v4v47676x4x4a1a1M4S%S%8!8!8!8!S%T%M4a1x476v4(<wC1[Q[R[S[KLhDL2T[dDU[#JIYV[W[X[Y[                                                                                                                                                                                                                                                                                                                                    ",
"                                                                                    |!4#:!!!;$}!##-%H%K %&C&>!0$.%6#=!p&:#S#B&t#=$7!} E&P%.$7#M%u$^!$ 1 Q!]!# ]!! u$|!K%|!FL4#v#z ;$##x!z!s$S!u#f & ;#t#a!')A(p$O#n$=$/$M#f u#Y$v$2%O%V!5!# r#W$u$y!V!R!V!V!W!R!Q#T#N#~  #l%N%O%b!+'V#} - ' | N$X$p$a!Y!' 3!A$w#F%;!N!H%x!^!H Z y y Y 0 e t$' 8*')p$6!| g O M#A$~!u1}(s*1 76x476v4S%8!M476v4868686Y7F5)8F5F5F5F5F5F5F5F5F5F5F5F5F5F5F5F5F5F5F5F5F5F5F5F5F5F5F5F5F5F5F5F5F5F5F5F5F5F5F5F5F5F5F5F5F5F5F5F5F5F5F5F5F5F5F5F5F5F5F5F5F5F5F5F5F5qXqXqXqXF5F5F5F5F5F5F5qXqXqXqXF5F5qXqXqXqXqXqXqXqXF5F5F5F5F5F5F5F5F5F5F5F5qXqXqXqXF5F5F5F5qXqXqXqXF5F5F5F5F5F5F5F5F5F5F5F5F5F5F5F5F5F5F5F5F5F5F5F5F5F5F5F5F5F5F5F5F5F5F5F5F5F5F5F5F5F5F5F5F5F5F5F5)8)8)8)8F5F5Y7Y7Y7Y7Y7Y7Y7Y7Y7Y7v4v486868686v476x476x4a1a1M4M4M4M4T%S%S%T%T%T%T%M4a176v4v4x4M4T%';Z[DLy)T:v1Y*RI#=(8[[(:][^[_[`[                                                                                                                                                                                                                                                                                                                                      ",
"                                                                                    ! z s$j%K :$k ( 8$.%' L%O#N$6!:#a!' /$G#P%<#q#f!% }!) i X v#K%r#W$W$u$W$! 0 0 # ]!1 PI+RHGM%7#`!s#& I%9$Z!O#N$T!6#O!6#' u!8$<!w!2%N%O%N%t!z!e N#T#4#W!V!V!V!V!W!|!u$W$! 0 |!i N%j)A&`!h W#/$=${!B&N$')#(=!T!' n!U#{ W b!z!}! #+ i L W!5!G G 9!9!^!^!/ -%Z!N$0%u!3!G#o$G%~ i X Q#V!E%iF8!M47686S%R%T%x476v486Y7Y7F5)8F5F5F5F5F5F5F5F5F5F5F5F5F5F5F5F5F5F5F5F5F5F5F5F5F5F5F5F5F5F5F5F5F5F5F5F5F5F5F5F5F5F5F5F5F5F5F5F5F5F5F5F5F5F5F5F5F5F5F5F5F5F5F5F5F5F5qXqXqXqXF5F5F5F5F5qXqXqXqXqXF5F5qXqXqXqXF5F5F5F5F5F5F5F5F5F5F5qXqXF5F5qXqXqXqXqXF5F5F5qXqXqXqXF5F5F5F5F5F5F5F5F5F5F5F5F5F5F5F5F5F5F5F5F5F5F5F5F5F5F5F5F5F5F5F5F5F5F5)8)8)8)8)8)8)8)8F5Y7Y7Y7Y7Y7F5F5F5F5Y7Y7Y7Y7Y7Y7Y786868686867676v4v47676x4x4a1M4T%S%S%S%S%T%T%M4a1x4v486Y786v4768686a1H Y / / Y IHO02%a[b[c[TJd[e[f[g[h[i[                                                                                                                                                                                                                                                                                                                                        ",
"                                                                                    f!H%c!u#M#p#B&O#X$p$:#N$v!g [ 6$} k V#q#f!##T#! * Q!0 ]!# ! u$K%u$u$K%R!M!z e N#i  #G%4R}Qw!s#J B&T!S#T!=!S#0%/%u!9#} h ~!?$+'O%V!1 0 ! r#W$K%K%|!V!R!V!W!y!V!:!i  ###x!% q$+'w!;!#!M#n$6!')A(#(=!L%5$/$J f s#%&<#,%P!|!9!* 5!1 1 1 5!5!* G ^!^!9!y 8!M!<!D&, F%c!7#z!5!4!H H N EEEEN 4!S%x486S%R%T%a1x4v486Y7Y7F5)8F5F5F5F5F5F5F5F5F5F5F5F5F5F5F5F5F5F5F5F5F5F5F5F5F5F5F5F5F5F5F5F5F5F5F5F5F5F5F5F5F5F5F5F5F5F5F5F5F5F5F5F5F5F5F5F5F5F5F5F5F5F5F5F5F5F5qXqXqXqXF5F5F5F5F5qXqXqXqXF5F5F5qXqXqXqXqXF5F5F5F5F5F5F5F5F5F5qXqXqXqXqXqXqXqXF5F5F5F5F5F5F5F5F5F5F5F5F5F5F5F5F5F5F5F5F5F5F5F5F5F5F5F5F5F5F5F5F5F5F5F5F5F5F5F5F5F5F5F5F5F5F5F5)8)8F5F5Y7Y7Y7Y7Y7Y7Y7Y7Y786868686868686v4v4v4v4v4x4x4x4x4a1a1M4M4M4M4M4T%T%M4M4a1a1a1x4v486Y786v476T%H N j 5!K%MRV!* x#r'F8;!j[k[:Nl[m[n[o[                                                                                                                                                                                                                                                                                                                                            ",
"                                                                                    [ 5$n$S#6!p$p&a!B&=$5#U#k $&P!}!##}!;$X M!_!V!K%u$u$W$r#! ! # 0 5!* 0 z s$j%h(t$1$C&W#pQ{!.%S#6#O!:#O!N$- G#?$4$1%!#x!% % ##~ T#R!y!W!V!V!V!y!u$u$K%u$! ]!5!W$% ,%w!4$s#>!U#5$B&L%Y!a!:#6#' t#.%I 7$3%M%-%M%x!}!~ N#T#y!r#W$W$r#! 0 1 9!Y <$H <$/ /  !W$,'% X !!X v#|!Q!$ $ 9!M <$H H 4!8!a186S%[&S%M4a17686Y7Y7F5)8F5F5F5F5F5F5F5F5F5F5F5F5F5F5F5F5F5F5F5F5F5F5F5F5F5F5F5F5F5F5F5F5F5F5F5F5F5F5F5F5F5F5F5F5F5F5F5F5F5F5F5F5F5F5F5F5F5F5F5F5F5F5F5F5F5F5qXqXqXqXF5F5F5F5F5qXqXqXqXqXF5F5F5qXqXqXqXF5F5F5F5qXqXF5F5F5F5qXqXqXqXqXqXqXF5F5F5F5F5F5F5F5F5F5F5F5F5F5F5F5F5F5F5F5F5F5F5F5F5F5F5F5F5F5F5F5F5F5F5F5F5F5)8)8)8)8)8F5Y7Y7Y7Y7Y7F5F5Y7Y7Y7Y7Y7Y7Y7868686868686v4v4v476767676x4x4x4a1M4T%T%T%T%T%T%M4a1x476v48686Y786v4v4v476a1S%S%M4<$y!u$K%M! #U!t!E%}*_,UH4$g :JZ*p[q[r[s[                                                                                                                                                                                                                                                                                                                                            ",
"                                                                                    =!p&:#S#B&g 8$R#k :$P%.$8#t!u$/ $ 5!0 ]!! r#w$K%|!|!4#_!4#v#X ~ ##x!M%j%P#u#} ( . .%a!p$p&:#O#u!7!W#. 9$4$q#[!,'N%W!1 ]!r#W$K%y!V!R!V!V!W!R!L ~ ) ;$+ l%N%O%b!.${ J - ' | N$X$p$T!v!t#9#} h ~!, W ,'y!$ 5!]!# # ! ! r#K%K%W$r#! r#K%V!M!X N#~ :!Q!/ $ |!e $ N j M 9!$ 5!5!* ^!^!1 G H S%8!M4v48!4!8!M4a176v486Y7F5F5F5F5F5F5F5F5F5F5F5F5F5F5F5F5F5F5F5F5F5F5F5F5F5F5F5F5F5F5F5F5F5F5F5F5F5F5F5F5F5F5F5F5F5F5F5F5F5F5F5F5F5F5F5F5F5F5F5F5F5F5F5F5F5F5F5F5qXqXqXqXF5F5F5F5F5F5qXqXqXqXF5F5F5qXqXqXqXqXF5F5qXqXqXF5F5F5F5qXqXqXqXqXF5F5F5F5F5F5F5F5F5F5F5F5F5F5F5F5F5F5F5F5F5F5F5F5F5F5F5F5F5F5F5F5F5F5F5F5F5F5F5F5F5F5F5F5)8F5Y7Y7Y7Y7Y7Y7Y786868686868686v4v4v4v4v476x476x4a1a1a1a1M4M4M4M4M4M4M4a1a1a1a176v4v48686Y7Y7Y7v4M4a1a1M4N G G N y z l%U!q#h(.$aHO.LR4%4*o$n$O!<,g.f+t[9U                                                                                                                                                                                                                                                                                                                                            ",
"                                                                                    0$W#{ P#-*Q%f!i X T#L M!_!V!u$r#r#r#$RNPFEv#-$O0L 5EMZNZh0j%`!k . /$/$t#0%' B&n$u!p#5#W#6${ N!q###T#!!N#X Q#_!v#4#W!|!|!|!W!4#Q#T#!!N#e N#}!Q%N!4$?$C&W#2${!n$' ' B&t#{!=$5#;##!?$1%H%x!X z z !!X Q#y!K%|!|!K%|!V!4#_!Q#M!T#T#:!~ f!j%>$I%. O w#+ 0 :!i L 5!M ^!$ 0 r#K%y!|!K%E+u[v[4#9!N M4x4R%4!8!T%x476v486Y7Y7Y7F5)8F5F5F5F5F5F5F5F5F5F5F5F5F5F5F5F5F5F5F5F5F5F5F5F5F5F5F5F5F5F5F5F5F5F5F5F5F5F5F5F5F5F5F5F5F5F5F5F5F5F5F5F5F5F5F5F5F5F5F5F5F5F5F5F5F5qXqXqXqXF5F5F5F5qXqXqXqXF5F5F5F5qXqXqXqXqXqXqXqXqXqXqXF5F5F5F5F5F5F5F5F5F5F5F5F5F5F5F5F5F5F5F5F5F5F5F5F5F5F5F5F5F5F5F5F5F5F5F5F5F5F5F5F5)8)8)8)8)8)8)8Y7Y7Y7Y7F5Y78686Y7Y786v4v486v47676v4x4x4x4x4a1a1x4a1M4M4M4M4M4T%T%T%T%M4a1x47686Y7F5F5Y7v4x4x476a1[&4!S%4!$ ]!W$W!z O%##1 j Q#7#;!5$u!A$%J!R&RG i(V,|??7)'w[x[BXy[                                                                                                                                                                                                                                                                                                                                            ",
"                                                                                    ##z!) z M!_!V!K%K%u$W$r#r#! # 0 1 $ ! X O%cC'.`!3$D&I:t#u!n$S#6#O!:#a!0%O G#?$7$K b!##}!z!+ N#M!y!u$K%K%|!K%u$r#r#W$W$# 0 ! N#G%,%w!4$s#>!U#Z!S#T!T!6#O!6#' t#5$<!w!3%M%-%M%x!}!~ !!:!y!u$|!y!y!y!K%W$r#! ]!5!W$N#M%,'-)K w#A$U#[ 5$.%Y!p&A([(=$q&x!}!X 1 Z H N ^!_!l%v$X!`!E&A$2$=$7!P#K%)8v4S%R%8!S%a1x4767686Y7Y7F5)8F5F5F5F5F5F5F5F5F5F5F5F5F5F5F5F5F5F5F5F5F5F5F5F5F5F5F5F5F5F5F5F5F5F5F5F5F5F5F5F5F5F5F5F5F5F5F5F5F5F5F5F5F5F5F5F5F5F5F5F5F5F5F5F5qXqXqXqXqXF5F5F5F5qXqXqXqXF5F5F5F5qXqXqXqXqXqXqXqXqXF5F5F5F5F5F5F5F5F5F5F5F5F5F5F5F5F5F5F5F5F5F5F5F5F5F5F5F5F5F5F5F5F5F5F5F5F5F5F5F5)8)8F5Y7Y7Y7Y7Y7Y7F58686Y7Y786v47676v4v476x4x476x4a1a1M4M4M4T%S%8!8!8!8!8!S%S%T%M4a17686Y7F5F5F5F5F5)8F5Y7T%^!0 / v4M4r#|!y Z M!r$~!A$f k t$R!<$* ! [!=$X$[ $&T#^!1 j ('z['){[_BFM|[}[                                                                                                                                                                                                                                                                                                                                            ",
"                                                                                    5!Q!0 ]!! r#u$K%K%NP RMR4#v#X ~ ##z!s$j%c!u#W#[ 8$v!p$')X$a!O#u!7!W#6$G#N!q#[!3%M%|!G 0 ]!# r#u$y!W!y!|!|!_!L e ;$~ ) x!-%q$+'V#{ J - ' | N$=!6#S#v!t#9#} h ~!?$+'N%y!$ 5!]!# # ! W$u$K%|!|!|!K%|!v#N#;$) + }!G%,%K 4$>!0$.%N$6!=!p$O!' I 7!M#k 7#% !!4#K%T#i e l%v$1%h 6$9#n$N$p&62#(f Q#w4v4a1T%8!8!M4x4767686Y7Y7F5)8F5F5F5F5F5F5F5F5F5F5F5F5F5F5F5F5F5F5F5F5F5F5F5F5F5F5F5F5F5F5F5F5F5F5F5F5F5F5F5F5F5F5F5F5F5F5F5F5F5F5F5F5F5F5F5F5F5F5F5F5F5F5F5F5qXqXqXqXF5F5F5F5qXqXqXqXqXF5F5F5F5F5F5qXqXqXqXqXF5F5F5F5F5F5F5F5F5F5F5F5F5F5F5F5F5F5F5F5F5F5F5F5F5F5F5F5F5F5F5F5F5F5F5F5F5F5F5F5F5F5F5)8F5Y7Y7Y7Y7Y7Y7Y7v4v48686v4v4767676x4a1M4M4M4M4M4T%S%T%T%S%S%8!8!S%S%S%T%M4a1x47686Y7F5F5v476v4a1[&4!T%H V!}! #Q#:!l%+ 5!Y :!P#M#Y!T!7!w!:!j M T%e [ p$=$%&N#^!x$^!('~[#3K6 ]!]#]$]%]                                                                                                                                                                                                                                                                                                                                          ",
"                                                                                    u$u$W$r#! # # 0 1 PI>R?RHGM%8#w!{ I%9$n!B&S#6#a!O!6#B&- I R#G#1%J%##l%##) !!T#X M!y!u$|!y!y!|!K%u$r#! ]!# z s$,%S!q&1%h W#2${!B&O#O!')#(=!T!{!U#{ C&w![!% ####z!e :!W!K%|!y!y!|!u$W$r#! ]!0 5!$ ! z!H%.$`!3$s#U#n!.%L%Y!6#O!a!O#/%.%/$%&G%~ ;$!!V!# 1 W$o&3$#!( W#2$t#L%Y!6#6!6#F#@%_#G#_!)876x4a18!R%T%x476v4Y7Y7Y7F5)8F5F5F5F5F5F5F5F5F5F5F5F5F5F5F5F5F5F5F5F5F5F5F5F5F5F5F5F5F5F5F5F5F5F5F5F5F5F5F5F5F5F5F5F5F5F5F5F5F5F5F5F5F5F5F5F5F5F5F5F5F5F5F5F5qXqXqXqXqXF5F5F5qXqXqXqXqXF5F5F5F5F5F5F5qXF5F5F5F5F5F5F5F5F5F5F5F5F5F5F5F5F5F5F5F5F5F5F5F5F5F5F5F5F5F5F5F5F5F5F5F5F5F5F5)8)8)8)8)8F5Y7F5Y78686Y7Y7Y7Y7867676v4v47676x4a1M4T%T%S%S%8!8!8!R%[&R%R%8!S%T%M4a1x476v486868686v47676x4[&N [&Y K%u$<$y z!q&Y$~!7$o$b!K%j W$Q%w#0%6#9#c!T#M $ <$+ R#X$T!#!) M >&* Q-QV&]sPe2I6'](])]                                                                                                                                                                                                                                                                                                                                          ",
"                                                                                    u$W$u$V!Q#!!~ ;$ #o&HRyQ}Qw!s#J /%S#Y!X$=!v!' 0%g . h 7$Y$1$j%N%|!9!* Q!]!r#W$r#W$|!y!y!|!y!_!L e + z!% -%H%P#{ f & ;#n$O!#(#(=!O#n$5$/$J f ;!.$-)&(N%y!$ 0 # ! W$K%y!W!y!y!|!y!v#T#z !!~ ##l%x!f!u'u#R#7!5$0%6#p$p$T!| u!7!f #!G#E&V#P!1 R%4! !j Y j 5!P!9#O!6!:#p$:#Y!L%u!M#( u#k w#r$W$76a176x48![&S%a176v486Y7Y7F5F5F5F5F5F5F5F5F5F5F5F5F5F5F5F5F5F5F5F5F5F5F5F5F5F5F5F5F5F5F5F5F5F5F5F5F5F5F5F5F5F5F5F5F5F5F5F5F5F5F5F5F5F5F5F5F5F5F5F5F5F5F5F5F5F5F5qXqXqXqXqXqXqXqXqXqXqXF5F5F5F5F5F5F5F5F5F5F5F5F5F5F5F5F5F5F5F5F5F5F5F5F5F5F5F5F5F5F5F5F5F5F5F5F5F5F5F5F5F5F5F5F5F5F5F5F5F5F5F5)8F5Y7Y7Y7868686868686v4x4x47676x4a1M4T%S%8!8!R%R%R%R%8!8!R%8!8!S%T%a1x47676v4x4M4T%R%N N R%R%j u$v#T#~ t!i 9!y  #$&D&g - h q#_!y Q!+ <#g X$5$%&N#^!Q!/ }!( N$p&[ s$Q!! Q!]$-O%C6#9&J(_P*]+],]                                                                                                                                                                                                                                                                                                                                        ",
"                                                                                    * 9!# X s$j%.$P%s#U#8$t#u!n$S#6#O!O!T!' /$s#?$:$$&o&z!}! #;$N#:!y!u$K%|!|!K%W$! ! r#! 0 * r#!!o&H%w!4$h & 8$B&S#T!T!6#:#a!B&.%I <!w!3%M%-%M%##;$e !!:!y!u$|!y!y!|!u$W$r#! ]!5!W$ #J%Q%-)K k } U#[ {!S#a!:#=!:#N$0%8$A$, K U! #}! #;$N#4#5!9!^!/ ^!^!/ / X /$?(p&N$B&2$f s#V#s$!!z X T#y!M R%T%v476R%4!8!M4x476v4Y7F5Y7Y7F5)8F5F5F5F5F5F5F5F5F5F5F5F5F5F5F5F5F5F5F5F5F5F5F5F5F5F5F5F5F5F5F5F5F5F5F5F5F5F5F5F5F5F5F5F5F5F5F5F5F5F5F5F5F5F5F5F5F5F5F5F5F5F5F5qXqXqXqXqXqXqXqXqXF5F5F5F5F5F5F5F5F5F5F5F5F5F5F5F5F5F5F5F5F5F5F5F5F5F5F5F5F5F5F5F5F5F5F5F5F5F5F5F5F5F5F5F5F5F5F5)8)8F5Y7Y7Y7Y7F5F5Y786868686v4v47676x4a1a1M4M4T%S%8!R%[&[&[&[&[&R%8!S%T%a1x4x4a1a1x4x4a1a1a1N j ^!5!K%! Y Z W!f!+'P#V#t$s$# <$K%Q%, ' v!( A&M!^!5!Q!q$2$A(/%k ) 9!]!G ) , n$p&=$q#L w)dO|QMQ~,| H9Q8.*-].]/]                                                                                                                                                                                                                                                                                                                                        ",
"                                                                                    x!% G%H%P#u#W#5#' a.L/7R~%a!O#u!M#R#f s#N!q#[!3%M%! Q!# ! r#W$u$y!W!|!K%y!4#:!N#~ i ) l%-%J%-)P#u#M#- 0%O#p$p$6#S#v!t#9#} w#, W +'N%y!$ 5!]!# _,r#W$f>|!y!|!K%|!4#:!N#;$) + }!G%h(%&C&>!M#n$N$6!=!=!S#B&t#=$7!f s#3$q&Q%M%W$M 9!G 9!G $ 1 * G ^!/ / ^!j r#I%.%J I%, P%h(7#s$1 [&4!4![&4! !H 8!v4x4[&N R%T%x476v486Y7Y7Y7F5)8F5F5F5F5F5F5F5F5F5F5F5F5F5F5F5F5F5F5F5F5F5F5F5F5F5F5F5F5F5F5F5F5F5F5F5F5F5F5F5F5F5F5F5F5F5F5F5F5F5F5F5F5F5F5F5F5F5F5F5F5F5F5F5qXqXqXqXqXqXqXqXF5F5F5F5F5F5F5F5F5F5F5F5F5F5F5F5F5F5F5F5F5F5F5F5F5F5F5F5F5F5F5F5F5F5F5F5F5F5F5F5F5F5F5F5F5F5F5F5F5)8F5Y7Y7Y7Y7Y7Y786v4v4v4v476x4a1a1M4T%T%S%S%S%8!R%R%[&R%R%8!8!8!8!S%M4x476x4T%R%N N R%4!9!y!L i }!x!N#* Y Q#A&C&7!M#:$j)y! !G  #1$n$6!W#S!X * 0 j  #R#p$6!} z!9!! 1 ;$3$r2#.9&c!O%W!nLzAmDs'u!c-y?BS0]1]2]                                                                                                                                                                                                                                                                                                                                        ",
"                                                                                    } 6$J 5$n$S#6#6!:#N$B&- I R#G#1%o&l%l%##) !!T#X M!|!|!y!W!y!|!K%u$r#0 1 W$z s$,%S!q&K >!/$=$Z!n$S#6!')#(a!' n!U#{ C&w![!% ##% }!e :!W!K%|!|!o2O.L4f>u$W$! 0 1 0 z o&H%.$`!3$s#U#- ' | Y!6#6!a!O#L%=$G#P%<#q#f!% ## #N#T#v#u$# ! # ]!Q!* ^!y j <$N  !y y 0 t$$&O%z !!z L Q#V!Q!G 9!^!y Y j <$[&x4a14!H [&S%a176868686Y7Y7F5)8F5F5F5F5F5F5F5F5F5F5F5F5F5F5F5F5F5F5F5F5F5F5F5F5F5F5F5F5F5F5F5F5F5F5F5F5F5F5F5F5F5F5F5F5F5F5F5F5F5F5F5F5F5F5F5F5F5F5F5F5F5F5F5qXqXqXqXqXF5F5F5F5F5F5F5F5F5F5F5F5F5F5F5F5F5F5F5F5F5F5F5F5F5F5F5F5F5)8)8)8)8)8)8)8)8)8)8)8)8)8)8)8)8)8)8)8)8)8F5Y7F5Y78686Y7Y78686v47676x4x4a1a1M4M4T%8!8!R%R%8!8!S%S%S%T%M4a1a1M4T%S%T%a1x4T%H ^!! # y $ ;$,',%S!S!,%s$!  !u$$&. /%n$I%+'4#Y $ 5!U!8$=!M#$&e 5!! $ + h 0%')7!##M ! 5!~ Y$O P,26G#D+E5_,7 =&3]b%#(rC%-T14]5]                                                                                                                                                                                                                                                                                                                                        ",
"                                                                                    6#:#p$p&:#v!' t#3!} h 7$Y$1$j%N%# * 5!Q!]!r#W$r#W$|!y!y!|!y!_!L e + z!z!o&H%P#{ f & ;#L%')A(#(=!O#.%5$/$W#s#%&<#,%&(N%y!$ 0 ]!# W$K%y!W!y!y!y!O-Q#MRwQ!!) ##x!O%H%P#u#R#7!5$0%6#X$6#S#v!u!7!R)I13(?$j%f!z!L # * Q!0 ]!]!# r#W$r## 0 ]!K%_!Q#M!T#e :!0 / # f!s$5!R%<$M 9!G $ 1 1 $ 9!M y Y <$[&M4T%4!N R%S%a1*4{48686Y7Y7F5)8F5F5F5F5F5F5F5F5F5F5F5F5F5F5F5F5F5F5F5F5F5F5F5F5F5F5F5F5F5F5F5F5F5F5F5F5F5F5F5F5F5F5F5F5F5F5F5F5F5F5F5F5F5F5F5F5F5F5F5F5F5F5F5qXF5F5F5F5F5F5F5F5F5F5F5F5F5F5F5F5F5F5F5F5F5F5F5F5F5F5F5F5F5F5F5F5F5F5F5F5F5F5F5F5F5F5)8)8)8)8)8)8)8)8)8)8)8)8F5Y7Y786v4v48686v4v476a1a1M4M4T%T%T%T%T%S%S%8!8!S%T%T%T%M4a1M48!R%[&[&[& !/ M G W$v#e L * 1 ##.$E&A$<!1%J%K% !0 -*A$Y!N$R#u':!/ * <$}!7!p$- 7$+ 5!W$0 + ?$p##(=$[!W$W$0 T#q#Z*H9(7U#<#O-_,T$ETS+M#~OA,6]7]8]TO                                                                                                                                                                                                                                                                                                                                        ",
"                                                                                    n!8$O . u#c!X!+'% X z z X L M!_!|!u$u$u$|!V!_!M!:!L !!e e ##b!+'V#w#6$J I .%L%/%/%0%.%8$. 6$U#>!P%j%l%!!e N#z L M!Q#_!y!u$u$W$K%W!_!:!T#X X fQ{N)Rh0j%c!k R#5#5$.%0%' B&n$u!p#5#f F%N!K j%z!:!U$_ L _!V!y!K%u$W$W$u$y!y!W!4#v#:!:!v#N#,'w!7$E&#!9#s#l%]!y!~ z Q!y ^!G $ 1 # K%y!W!y!K%W!L 4#Z T%M4S%8!R%8!M4V;O486Y7Y7Y7F5)8F5F5F5F5F5F5F5F5F5F5F5F5F5F5F5F5F5F5F5F5F5F5F5F5F5F5F5F5F5F5F5F5F5F5F5F5F5F5F5F5F5F5F5F5F5F5F5F5F5F5F5F5F5F5F5F5F5F5F5F5F5F5F5F5F5F5F5F5F5F5F5F5F5F5F5F5F5F5F5F5F5F5F5F5F5F5F5F5)8)8)8)8)8)8)8)8F5Y7Y7Y7Y7Y7Y7Y7Y7Y7F5F5F5F5F5F5F5F5F5F5F5F5F5Y7v4v47676x4x4a1a1a1T%T%T%T%T%T%M4a176v476x4a1M4S%8!R%[&[&<$5!u$y!r#/ 1 e t!J%-)A&j)% ! Y |!o$R#v!{!W q$W!^!0 !!A&- O!/$V#N#G ]!9!% 9$=!8*7!o&]!K%# ;$1%M#a!0%?$[!R!W$r#]!q$b-b/O N!N7>&M(B*v;$!=!t*M0rK9]:];]                                                                                                                                                                                                                                                                                                                                      ",
"                                                                                    % t!t!% + !!T#:!W!K%|!y!W!y!|!K%W$]!Q!1 W$z s$,%S!o$w#6$/$=$Z!n$S#6!')=!T!' n!U#{ C&w!G%####% }!e :!W!K%y!y!y!|!K%u$u$W$! Q!$ ! z s$H%o$c!?$D&8$t#u!B&S#a!:#6!v!n$5#G#P%<#q#f!% }!i z X Q#K%! r#PIW$r#! ]!0 ]!0 1 PI+RHGM%7#`!h D&<!} p#v!N$6!X$A(p#S!+ # 5!$ j H H H N ^!i v$o$%&E&k ( /$k v#EEV;v4,G8![&S%M4<]86Y7Y7Y7F5)8F5F5F5F5F5F5F5F5F5F5F5F5F5F5F5F5F5F5F5F5F5F5F5F5F5F5F5F5F5F5F5F5F5F5F5F5F5F5F5F5F5F5F5F5F5F5F5F5F5F5F5F5F5F5F5F5F5F5F5F5F5F5F5F5F5F5F5F5F5F5F5F5F5F5F5F5F5F5F5)8)8)8)8)8)8)8)8F5Y7Y7Y7Y7Y7F5F5F5Y78686Y7Y7Y7Y7Y7Y7Y786868686868686868686868686v4x4x4a1a1M4M4M4a17676v486Y7F5Y786v4v476a1M4R%Y / y ^!Q!G r#+ J%q#J%u$y M!P#. .%7!r$+ W$^!W$&(s#S#O#u#7#M!* 0 $ -%J :#' h  #$ ! 5!##h /%A({!-)N#R!u$N#8#w#L%6#. 1$v#r#]!Y  #U#:#Y!I%X#Z$Z$.)DE2+a.52r<tN=]>]?]                                                                                                                                                                                                                                                                                                                                      ",
"                                                                                    G 1 Q!0 # ! r#W$y!W!y!y!|!y!_!L ~ z!##z!o&H%P#{ f U#t#a!')A(#(=!O#.%I J f s#%&<#,%&(N%W$Q!]!# ! W$K%y!W!W!y!W!v#Q#v#M!!!) x!l%f!H%c!u#R#7!5$v!p$p&O!T!S#t#3!9$I%w#P%j%f!##T#! $ Q!]!# ! r#W$W$PIPIW$V!M!z i ~ )  #o&4R}Qw!s#J n$Y!v!Y!O!| .%g 8$7!w#7#;$* Z 9!W!T#e ;$) -%q&s#;#5$.%/%6#[(I ;$N *4f=JE8!VG@!M4,GJEc=Y7Y7F5)8F5F5F5F5F5F5F5F5F5F5F5F5F5F5F5F5F5F5F5F5F5F5F5F5F5F5F5F5F5F5F5F5F5F5F5F5F5F5F5F5F5F5F5F5F5F5F5F5F5F5F5F5F5F5F5F5F5F5F5F5F5F5F5F5F5F5F5F5F5F5F5F5F5F5F5F5F5F5F5F5F5F5F5F5)8)8F5F5Y7Y7Y7Y7Y7Y7Y7Y786v4v486868686868686v4v4v4v47676767676767676767676767676x4x476v486v486Y7F5Y786x4T%R%T%M4T%H 1 ]!G 5!L z!b!u'`!X!b!|!j V!F%.%[(0%c!M%W!$ r###1$t#a!R#.$z * ]!M + & N$6#f ##9!r#]!+ P%O =!B&V#G%v#K%M!l%1$u!=!5$3$v## 0 y( #} O!')J !!Z$'',*R=y4@'H9y?@]A]B]C]                                                                                                                                                                                                                                                                                                                                      ",
"                                                                                    u$K%K%|!|!K%W$r#W$r#]!Q!* r#!!o&h(4$h { 6$8$B&S#T!N$O!6#' t#.%I <!w!U!-%M%x!}!~ N#!!:!W!|!|!y!y!|!K%u$W$# Q!u$e z!+ N%q#c!>!W#7!=$n$S#a!:#=!a!0%5$R#>!C&1%J%z!##z!) z M!_!V!K%W$u$W$r#r#! ]!Q!*GORQ!X s$j%.$`!3$s#U#pQu!n$v!N$6!O!6!T!=$h P#X!k%x!T#y!]!/ H |!q#7$I%W#J 5#Z!| N$O!:#O!6#S#f  #sEx486xE=FUG8JqMx4JEc=Y7N4.>)8F5F5F5F5F5F5F5F5F5F5F5F5F5F5F5F5F5F5F5F5F5F5F5F5F5F5F5F5F5F5F5F5F5F5F5F5F5F5F5F5F5F5F5F5F5F5F5F5F5F5F5F5F5F5F5F5F5F5F5F5F5F5F5F5F5F5F5F5F5F5F5F5F5F5)8)8)8)8F5Y7Y7Y7Y7Y7F5F5Y7Y7Y7Y7Y7Y7Y7868686v47676v4v4v47676v4v476767676x4x4x4x4x4x4x4x4x4v4Y7)8G5w4G5G5G5G5)8v476v4x4T%R%N y 1 H M4T%<$r#u$^!Q!o&:$R#g W#Q%:!! 9!W!Y$2$:#| s#8#M!* ]!# P!n!p&5$>$~ * # G + w#' ')3!% M r#! !!,%<!Y!O#{ ,%:!y!y!u$b!2$#(/%k Q#Q!|,B*q*( 6![(D]E]x$wPF]R.G]H]n(I]J]k'K]L]                                                                                                                                                                                                                                                                                                                                      ",
"                                                                                    y!|!|!K%|!4#:!i ~ ) % M%-%J%-)P#} - 0%| T!p$p$6#S#B&9#} h ~!, W +'N%! 5!]!# ! r#r#W$u$y!|!K%K%y!_!L e )  #z!f!-),I%J`!G#[ L%O!=!p&:#S#B&t#=$R#s#%&.$-)&(-%K%^!* Q!0 ]!! r#W$K%K%u$R!_!4#v#T#i }!##t!j%P#u#W#[ 8$' 6#p$X$a!v!g [ U#W#A$?$8#O%;$W!Y [&<$Y Y EE:!F%g T!p&t*@(=!L%n$.%=$0$D&[R?KX>tEeFxE,G=FUG8JqMx4v4JEc=Y7F5,>F5F5F5F5F5F5F5F5F5F5F5F5F5F5F5F5F5F5F5F5F5F5F5F5F5F5F5F5F5F5F5F5F5F5F5F5F5F5F5F5F5F5F5F5F5F5F5F5F5F5F5F5F5F5F5F5F5F5F5F5F5F5F5F5F5F5F5F5F5F5F5F5F5F5F5F5F5)8F5Y7Y7Y7Y7Y7Y7Y786868686868686v4v4v476x4x4767676a1a1a1a1a1a1x4x4a1x4767676v486Y7Y7)8G5w487|8|8w4F576a186v4T% !$ * j $ X N#N#;$N#4## ^!Q!G%& | ?(Z!j)|!! 5!y!A&( S#Y!6$u'z 1 ]!Y ##7!8*v!u# #$ ! 5!) :$- 8*=$[!W$K%u$Q#M%1%n$6!W#.$L y!r#/ % [ [(:#A$Q#* x#iF.+w#n$6#9#c.>&n&Y?N(_+.*M]N]}MO]P]Q]                                                                                                                                                                                                                                                                                                                                      ",
"                                                                                    ! # 0 1 W$z s$-*q&K w#6$/$=$Z!n$N$')#(=!T!' n!U#{ >$[!% ####% }!e :!y!|!y!y!y!|!K%u$W$! 0 5!$ r#!!G%,%1$Y$s#U#5$t#g n$O#a!6!O#/%B&O u#Y$.$q#N%z!+ i !!X Q#K%r#u$u$u$W$! # ]!]!Q!9F(RfRHGM%8#w!h ( & n!' O#6#a!O!:#N$u!I R#s#K U!}!% ##~ Q#W!u$0 9!y M M j S%j(& O!:#=!p$6!4O[R^ 3$U%N/RFwJ RR]S]8JT]?FdFmWU]V]f[v486c=GDW]W]F5.>F5F5F5F5F5F5F5F5F5F5F5F5F5F5F5F5F5F5F5F5F5F5F5F5F5F5F5F5F5F5F5F5F5F5F5F5F5F5F5F5F5F5F5F5F5F5F5F5F5F5F5F5F5F5F5F5F5F5F5F5F5F5F5F5F5F5)8)8)8)8)8F5Y7Y7Y7F5F5F5Y78686Y786868686v4v4v4v476767676x4a1a1x4a1M4M4T%S%S%S%S%T%T%M47686F5G5|8M9R8R8}9M9|8w4G5w486[&y ^!v4F54!0 i !!^!* [!4$& 0$:$!!Y 9!* L ?$5$p&{!-*!!|!0 K%M%w!.%6!J 1%e 5!! G l%;##(8*0$x!9!! Q!;$P%O =!n$`!N%R!K%K%u$[!5$:#J 1%:!K%r#9!x!0$[(?([ M!$ $ Z M!w!U# M[Rr'|,O.('92C+dDX]Y]!;O]Z][]                                                                                                                                                                                                                                                                                                                                      ",
"                                                                                    ) z!% ##o&H%P#I%& ;#t#a!')A(#(=!/%5$/$J f s#%&<#,%J%W!* 0 # # ! W$K%y!W!W!y!W!v#Q#v#M!i % t!l%q$,%V#{ R#O ' N$X$p&=!a!O#t#0$D&{ k Y$H%q$% X ]!5!0 # ! # ! u$K%W$r#K%R!M!!!e !!e t!HRlR}Qw!s#J B&Y!O#X$X$S#' 0%g 3!} E&Y$o$q#M%u$M 9!G G $ $ G G 9!/ y Y Z S%U$*'r<. A$} ]]9J^];LJ%z!_]`]wEiGa]b]c]d]e]>Ff]U]g]f[v486c=GDW]W]F5.>F5F5F5F5F5F5F5F5F5F5F5F5F5F5F5F5F5F5F5F5F5F5F5F5F5F5F5F5F5F5F5F5F5F5F5F5F5F5F5F5F5F5F5F5F5F5F5F5F5F5F5F5F5F5F5F5F5F5F5F5F5F5F5F5F5F5F5F5F5F5)8F5Y7Y7Y7Y7Y7Y7Y7868686v4v4v476x4x476x4a1x4x4a1M4T%T%T%T%S%T%T%S%S%T%T%M4x4v4Y7)8w4|8R8}9S8}987)8F5)886S%H Z Q!T#R!v#}!M%l%z 9!$ [!R#Y!t*9#+ N G 1 |!u'R#6#n$P#O%v## u$v#v$5$=!8$%&;$5!r#1 % #!6#B(8$U!]!W$Q!N#u'6$T!v!u#j%_!u$! M x!/$'){!4$L W$! 9!z!} :#[(J v#^!$ ^!V![!S!h]j%K4{+_ '6mDX'i]j]k]bWl]m]n]                                                                                                                                                                                                                                                                                                                                      ",
"                                                                                    1%7$h { 6$8$B&O#T!6#O!6#' t#.%I 7$3%t!-%M%x!}!~ N#T#V!|!y!y!y!y!|!K%W$r## Q!u$e z!+ N%X!s#f W#7!=$B&S#a!:#:#N$B&p#O R#G#1%G%% x!%  #N#L Q#R!|!|!|!|!K%r#! # ]!* 9!# X s$H%X!t$1$I%I:t#u!n$S#6#O!:#6#0%O G#?$:$$&b!##z! #;$!!Q#K%! r#r## Q!* 9!M Y <$4!4!H [&lGF8o$M%X>5E~ (Ro]'RELp]q]r]s]t]u]v]w]x]y]z]{]|]|]AFxEJEc=f=,>,>.>.>F5F5F5F5F5F5F5F5F5F5F5F5F5F5F5F5F5F5F5F5F5F5F5F5F5F5F5F5F5F5F5F5F5F5F5F5F5F5F5F5F5F5F5F5F5F5F5F5F5F5F5F5F5F5F5F5F5F5F5)8)8)8)8)8)8F5Y7Y7Y7Y7F5Y786Y7Y786868686v4v476767676x4a1a1M4M4T%T%T%S%S%8!8!R%R%R%8!T%M4x47686F5G587|8|8M9M9|8|8|8)8S%N 8!F5M4Q!r#y ! &(>$s#U#:$~ / M / :!C&B&A(/$z!<$* 0 y!v$s#S#S#G#q#z # W$]!o&[ :#B&h }!1 W$0  #:$p#p&Z!,%X K%0 :!!(~!0%N$. 1$v#W$! ^!x!7!@(#(. X # ]!^!;$w#u!v!& V!y * ! u$W$K%R!O.Z$_ 5*5*Z' S}]~] ^!^#^$^                                                                                                                                                                                                                                                                                                                                        ",
"                                                                                    0$- 0%| T!p$p$T!v!t#9#} h ~!, W ,'|!G 5!]!# ! r#r#u$y!W!y!y!|!y!_!L ~ + }!z!f!-),I%J`!} n$6#=!p&')=!S#B&Z!7!} h 7$Y$o$q#N%! 1 0 ]!# ! W$u$K%|!|!K%u$K%V!Q#z ;$z! #N%j%P#u#} ( . L%p$')X$a!O#u!7!W#6$s#N!q#[!3%M%|!G 0 # # ! r#K%|!K%W$r#K%V!Q#Q#4#v#z L 0 sE9FO%-%%^?FUG+G&^'^(^)^*^+^,^-^.^/^0^1^2^3^4^5^6^7^d]<]JEc=f=W]W]F5F5F5F5F5F5F5F5F5F5F5F5F5F5F5F5F5F5F5F5F5F5F5F5F5F5F5F5F5F5F5F5F5F5F5F5F5F5F5F5F5F5F5F5F5F5F5F5F5F5F5F5F5F5F5F5F5F5F5F5F5F5F5F5F5F5)8F5Y7Y7Y7Y7Y7Y7868686v4v4v4v476x4a1x4x4a1a1M4T%S%S%8!8!8!8!8!8!8!R%R%8!T%a1x4v486F5)8G5)8Y7Y786v476v4F5R%V!N#X V!|!V!r#y 0 v$M#O#');#N#S%M / ! >$- p&5$!(y!r#]!y!t!1%n$6!0$K ;$# W$G ##} N$6#f ##G W$]!i .$W#a!B&c!O%y!0 4#t!K u!:#5$3$Q## ]!^!% . A(u(5#z Q!0 $ L A&F%h o$K%5!W!e z ! y N [&A!nMq-Q-?!P(6(8^9^:^;^                                                                                                                                                                                                                                                                                                                                          ",
"                                                                                    B&t#{!=$5#;##!3$K H%x!X z z !!X Q#y!K%|!|!K%NPFEFLR!Q#T#!!!!z  #J%+'3$h D&. I .%/%B&B&n$=$n!8$O 0$<!V#t$3% #!!z z X T#M!_!|!u$u$u$K%W!4#Q#:!L !!N#!!}!P!,%c!k 0$[ 5#u!0%' B&B&t#n!R#& <!~!c!q#z!L z X :!v#4#_!R!|!u$u$u$|!V!_!M!L T#U$!!G%q#`!%&N!;!;#D&4Q<^=^RFlA>^?^@^&0*^A^B^C^D^E^7>F^G^H^I^J^K^L^M^N^O^P^Q^R^S^T^GDU^U^f=f=.>F5F5F5F5F5F5F5F5F5F5F5F5F5F5F5F5F5F5F5F5F5F5F5F5F5F5F5F5F5F5F5F5F5F5F5F5F5F5F5F5F5F5F5F5F5F5F5F5F5F5F5)8)8)8)8)8)8F5Y7Y7Y7Y7Y7F5Y78686Y786v4v486v4v47676x4x4a1M4T%S%S%8!8!8!8!R%R%R%R%R%8!8!S%T%M4a1x4a1M48!8!T%M4a1N 0 r#W$y!W$G  !M4$ &(~!>!<!o$4#N j y Q#& O!@(9#x!Y $ $ K%<#R#N$| u#j%L Q!r#0 f!I ').%, z!0 u$Q!}!E&t#p&I U!# W$! :![!?$0%Y!( A&V!Q!W$R!j)I p&S#{ v#Q!Q!/ i ;!2$n!C&:!0 r#|!V!4#4#W!r#5!M!% [!3%s$r'Z$,*s5s5q5u6>9V^8+Q>|MW^                                                                                                                                                                                                                                                                                                                                            ",
"                                                                                    w!3%t!-%M%x!}!i !!:!V!|!y!y!y!y!K%u$W$r## Q!f>5EZ7N2q#c!s#f U#[ =$B&T!:#=!:#N$B&p#O R#3$b!% t!t!%  #N#L v#y!|!y!y!y!y!|!u$r#]!Q!1 W$z s$,%S!.$k U#9#8$Z!n$S#6#O!O!N$0%O G#?$4$1%o&}!+ ) i X v#K%r#W$K%K%u$W$r#! r#! 0 * r#!!o&H%!=T,E<I12$n$v!Y!O#N$uQAB<#X^Y^6R>RcFZ^[^]^^^_^`^a^b^c^d^e^f^g^h^i^j^k^l^m^n^o^p^q^r^s^t^u^v^f=NE.>F5F5F5F5F5F5F5F5F5F5F5F5F5F5F5F5F5F5F5F5F5F5F5F5F5F5F5F5F5F5F5F5F5F5F5F5F5F5F5F5)8)8)8)8)8)8)8)8)8)8F5Y7Y7Y7F5F5F5Y78686Y7Y7Y786v47676v4v4767676a1a1M4T%S%S%8!R%[&[&[&[&[&R%8!S%T%M4a1a1M4T%S%S%S%T%M44!9!V!R!$ Z <$W!,%A&t$$&v$W$8![&<$T#9$Y!L%G#X [&/ ^!|!, 0%#(=$8#v#r#5!W$M%w!.%6![ w!i Q!W$$ l%;##(8*M#:+$ w$]!) P%5#O!/%;!2%V!]!W!i t$- =!8$W R!5!5!^!l%0$#(p$6$_!$ 1 9!r# #-% #L ! y!L  #x!z!T#5!Y ^!1 W$M!|Qw^=/''e3e3BGO07)5$[ a-<Cx^y^                                                                                                                                                                                                                                                                                                                                            ",
"                                                                                    N%|!G 5!]!# ! r#W$u$y!W!y!y!|!y!Q#e ) +  #z!f!~?,I`Rs#J n$6#=!p&')=!L%t#=$7!} h 7$Y$o$[!|!G 1 Q!0 # ! W$K%y!W!y!|!K%y!_!L ~ % l%##o&H%P#{ f W#.%6!')8*'):#O#u!M#R#f s#N!q#[!3%M%# * Q!0 ]!# ! u$K%u$u$|!4#M!T#z e ) KR-%{N~?V#u#M#p#' S#X$=!v!' 0%r z^{^|^}^~^ _!_#_$_%_&_'_(_)_*_+_,_-_._/_:/z^0_1_2_3_4_5_6_7_8_5^9_:_;_<_f=NEF5F5F5F5F5F5F5F5F5F5F5F5F5F5F5F5F5F5F5F5F5F5F5F5F5F5F5F5F5F5F5F5F5F5F5F5F5F5F5F5F5F5F5F5F5F5F5F5)8)8F5F5Y7Y7Y7Y7Y7Y786v4v4868686v476x4x47676x4a1M4T%T%S%S%8!8!8!8!R%R%R%R%R%8!T%M4a1a1T%S%[&4![&N Y ^!$ r#L O%l%r#Y y R!-*k ( } w!W!T% !N Q!D&6!O!} i H G * W!P#/$O!t#w!M%V!5!! 4#Q%8$=!8$%&;$5!W$5!l%A$O!&)8$t1# u$]!e S!9$Y!T!R#o$_!0 u$4#k%n!')/%k 4#1 * j z 7$/$9#?$y!9!5!]!W$W!W$M Z * |!:!+ % }!T#]!^!/ <$5! #G%)7mIx$e3e3EEe 9$X$L/=_-8>_?_@_                                                                                                                                                                                                                                                                                                                                          ",
"                                                                                    :!W!K%|!y!y!y!K%u$W$r## ]!Q!* r###,%1$`!3$s#vQEQ.%n$S#6#6!:#=!a!0%5#~!.$j%q$x!##}! #;$X W!u$K%|!y!y!|!u$W$W$r#]!Q!* r#!!s$X!s#( I%9$n!' O#6#N$O!6#' )')+h${ $&s$x!l%##) z L T#Q#K%u$u$K%u$W$! # ]!Q!* r#!!t!b!v$-*w!I%hUEQ{!B&S#6!')#(|/g4w3n-b.:$?KA_B_C_D_}[^@E_F_G_H_I_J_K_L_M_N_O_P_#([(a![ Q_R_S_T_U_V_W_X_Y_Z_[_]_^_T^GDW]f=F5.>F5F5F5F5F5F5F5F5F5F5F5F5F5F5F5F5F5F5F5F5F5F5F5F5F5F5F5)8)8)8)8)8)8)8)8)8)8F5Y7Y7Y7Y7Y7Y7Y7F5F5Y7Y7Y7Y7Y7868686v47676v4v4v476x4a1a1M4M4T%S%8!8!8!8!8!S%S%T%T%a1a1a1a1M4S%S%a1a1S% !y ^!^!j ^!y!X z!O%2%X!v$y! !Y ^!N#. v!I P%_!R%Y Y r#~!' p&J ) H * 0 y!q#u#v!v!G#7#:!1 ]!1 N%J :#' h  #* r#Q!##h /%A(=);7X>|!]!:!!(;!0%a![ 1%R!Q!# r#J%5#[(X$f _!>H0+Y ! o&&(2%l%Q!^!]!Q#i  #!!0 / $ 5!! V!y!1 ^!9!G ^!H L 3$J U#c!__`__$QGX C&/%#(l*a_2<b_c_                                                                                                                                                                                                                                                                                                                                          ",
"                                                                                    K%y!W!W!W!y!W!v#v#M!!!) % l%x!f!<#{ R#[ 8$' N$p$#(:#S#u!7!W#R#} G#Y$j)% X r#5!]!# ! r#u$y!W!y!|!|!W!_!L i ~ ) % M%-%J%-)P#} 0%6#S#T!p$p$O#/%n$3!A$k ;!~!SIH%t!]!$ 1 5!0 ]!# # ! u$u$u$W$u$V!Q#X i  #}!o&H%K 3$w#I%0$L%')A(K3=!O#.%I:9#vQ_Rd_RQ4Q4CZ7=Ge_]^f_g_h_i_j_-_k_M_U(l_m_n_o_p_q_r_s_t_u_v_w_x_x_y_z_{_5_|_}_~_[_s^^_ `U^f=F5F5F5F5F5F5F5F5F5F5F5F5F5F5F5F5F5F5F5F5F5F5F5F5F5F5F5F5F5F5F5F5F5F5F5F5)8)8)8F5Y7Y7Y7Y7Y7Y7Y7Y7Y78686868686v4v4v476x4x476x4a1M4M4T%T%S%S%S%S%S%S%S%T%T%T%T%M4a1x4x4M48![&[&H Y M / ]!V!z M!* G W!) k%c!:$~!h(4# !y <$! 3![(.%7$:!4!M ^!|!>$p##(2$O%G Q!]!u$x!$&t#6#W#<#!!1 ]!M + A$N$6#} z!9!r#Q!;$V#/$O!.%c!O%W!]!_!OZ!`t#:#5$%&R!1 Q!1 x!>!t#- E&W!Z-]!# V!;$) R!0 9!/ ! ;$l%) M!]!G G / ! }!-%~ 4#Q!9!^!N ~ } O!:#f mIm%F+}*O0u1n!p&b%#`$`%`&`                                                                                                                                                                                                                                                                                                                                          ",
"                                                                                    K%u$W$r## Q!f>gQSFN%q#c!s#f U#[ g S#a!:#=!:#T!' - J G#1%b!% t!t!%  #z M!4#y!|!y!y!W!y!K%u$r## 0 5!u$N#G%A&q&K w#6$/$=$Z!n$N$8*A(X$N$/%I u#:$N!b!z!}!}!}!) z v#u$W$W$u$u$W$! # ]!0 5!* 9!# X O%q#K ;!{ l$J3'`(`U(dGa!a!' )+.%] >!h]vR:L)`*`+`,`}^-`.`/`M>0`7A1`2`3`4`5`6`7`P_8`9`:`;`<`=`>`?`@`A`B`C`D`E`F`G`H`I`J`K`L`~_9_s^t^M`f=f=f=F5.>F5F5F5F5F5F5F5F5F5F5F5F5F5F5)8)8)8)8)8)8)8)8)8)8F5Y7Y7Y7Y7Y7Y7Y7F5F5F5F5F5Y78686Y7Y7Y786868686v4v476767676x4a1a1M4T%S%8!8!8!8!8!8!S%T%a1x476v4v476x476x4M4M4[&M ^!Z G Q#N#:!i O%H%2%y!Y 9!v#q&I {!f u'Q#j 9!M W!. X$/%w#T#4!^!$ y!N!I X$- q#M!u$# ! # J%5$=!J K N#* ]!9!;$w#' p&[ z!Y # ]!T#8#h v!S#u#q#R!Q!V!+ItQg #(v!G#4#$ 1 ^!:!r$W .$[!]!/ r#~ o&,'s$|!/ ^!y W$M%M%r#Y 9!$ G Z L N!9$D&$&M!Y 9!<$!!C&0%#(J mI8!9!M l#($8=a!t#N`O`P`Q`                                                                                                                                                                                                                                                                                                                                          ",
"                                                                                    L e ) +  #z!f!,R%Jw!s#J n$6#=!p&X$S#' .%=$[ } h 7$w!j%O%y!G 1 Q!0 # W$K%|!y!W!y!y!|!y!Q#N#) z!% ##G%,%V#I%& ;#t#a!')A(#(=!/%8$9#M#9$u#Y$j%!#f!|!9!5!0 Q!0 ]!! u$u$u$W$K%R!v#:!T#N#z!x!% G%j%`!G#0$g | N$t'uQv6#,v!t#;#h ~!R`S`oQv[!/cF+^/`T`U`T`V`W`X`Y`Z`[`]`^`_```@-a`b`c`d`e`f`g`h`i`j`k`l`m`n`o`p`q`r`s`t`u`v`w`x`y`z`9_{` `f=f=f=F5F5F5F5F5F5F5F5F5F5F5F5F5F5F5F5F5F5F5F5F5F5)8)8)8)8F5Y7Y7Y7Y7Y7Y7Y7Y7Y7Y7Y7Y786v4v48686v47676v4v476x4a1a1a1M4M4T%T%T%T%S%S%S%T%T%T%T%M4a1x4v486v476x4S% ! !R%N / u$u$/ 5!e N%[!t$w!3$q&Q#j Y r#j%| ')/$w!T#y * G R!( T!Y!A$##^!1 1 y!<#R#a!n$`!-%4#]!# Y ##9#p$=$%&e 9!9FG i 3$p##(5$J%! ! 0 v#q$W l+w&<,<#R!1 u$X NR0$/%5$7$V!$ $ M W$N%J%z!v#G y ! + G%f! #]!Y / j W!k%j% #|!5!G G  !i >!O#a!} i H G y X P%8$')5$b!# Q!g!y#t1EB0%S#I/|`}`~` a                                                                                                                                                                                                                                                                                                                                        ",
"                                                                                    G%,%1$`!3$s#vQ=)t#B&S#6#6!:#=!a!- u#Y$o$j%q$x!% z!+ e L W!K%|!|!y!y!K%W$r#W$r#]!Q!* r#z!H%1%7$h { 6$8$' O#T!6#O!6#' t#.%I 7$3%M%-%M%x!}!e X L y!W$u$K%u$u$W$! ]!Q!1 $ ! z l%J%Q%S!k } U#[ 5$n$v!6!')X$N$g48$W#<!C&w!!a#aXR$a?R%a&a'a(a)a(a*a+a,a-a.a/a0a1a2a3a4a5a6a7a8a9a:a;a<a=a>a?a@aAaBaCaDaEaFaGaHaIaJaKaLaMaNaw`x`OaPa9_^_U^GDGDf=f=F5.>F5F5F5F5F5)8)8)8)8)8)8)8Y7Y7Y7Y7Y7Y7F5F5F5F5Y78686Y7Y7Y7Y7Y78686868686v47676v47676x4x476x4a1a1M4S%S%8!8!S%S%T%T%a1x476v486v4v4v476x4x4a18!R%T%Z |!|! !9!K%N#T#1 $ _!O%W I 2$>!q&:!^!1 Q!+ 5$#(p#%&N#/ 5!5!R!, n$=!I Q%_!! 1 |!&(h v!v!h 8#:!Q!# / % ;#p$T!#!;$2HQ!G N#V#5#:#t#K l%u$1 4#o&2Ql+(/7!w!R!1 0 ]!z!>$>!>$&(r#G G y 1 :!X u$1 9!/ 1 W!R!]!G 9!9!^!<$:!c!D&k q&Q#y G j N#, B&')J i R%$ 9!T#u'W#6#/%F%3%|!x$E%g*c2?%O!;#P+QaRaSa                                                                                                                                                                                                                                                                                                                                        ",
"                                                                                    V#{ R#J n!' 6#p&p$6!S#u!7!W#R#} 4$H%U!x!z W$5!]!! r#u$K%y!W!y!y!|!W!M!e ;$~ ) % M%-%J%<#G#0$- 0%| T!p$p$T!v!t#9#} h ~!, W ,'y!$ 5!0 ]!! W$u$W$K%K%K%u$r#u$V!Q#N#+ }! #s$j%$&%&C&9$n$N$6!=!p&=!O#.%I ^R9$G#3$.$-)^]A_TaUaVaWaXaYaZa[a]a^a_aH^`aaabacadaeafagahaiajakalamanaoapaqarasatauavawaxayaza{a|a}a~a b!b#b$b%bV_&b'b(b)bs^ `GDGDf=f=F5F5F5F5F5F5F5F5F5F5F5)8)8)8Y7Y7Y7Y7Y7Y7Y7Y7Y7Y7Y7868686868686867676v4v4v476x4x476a1a1M4M4M4M4T%T%T%S%S%S%S%T%M4a1x4v48686Y786v4x4T%T%x4T% !Q!Q! !M :!) i o&[!b!### ^!r#% E&O!6!W#S!X $ # 5!v#[ #(| s#;$/ 0 0 4#%&=$X$t#1%t!V!1 u$x!$&t#6!J K N#1 # 9!z!& 6#p&J N%* 0+9!T#.$R#N$| s#7#|!* y!rGS!n!@%}%K W!Q!Q!^!W!!#j%P!;$Q!9!1 r#|!y!r#9!y ^!M 0 !!;$Q#u$1 9!^!<$z F%p#B&>!i <$G y z Y$8$')5$[!! Q!1 _!J%?$0%a!;#o$N7P.^)1+N-.TL/@':N*b+b,b                                                                                                                                                                                                                                                                                                                                        ",
"                                                                                    0%' ' 0%n$- 5#U#>!E&P#j%% X N#e z :!v#4#V!|!|!y!y!y!4#Q#L X z !!z  #&(N!7$3$, U#I {!n$' ' B&t#{!=$5#;##!?$1%H%x!X z z !!X Q#y!K%|!|!K%|!V!R!R!Q#L z z X ) U!,%3$( R#M#O t#0%N&B&n$p#2$9#M#2G:S-b.b/b0b1b5G2bB_3b4b#_5b6b7b8b9b:b;b<b=b>b?b@bAbBbCbDbEbFbGbHbIbJbKbLbMbNbObPbQbRbSbTbUbVbWbXbYb  Zb[b]b^b_b`babbbcbdbebfbgbhbOaibs^ `U^W]W]W]W],>,>,>,>F5Y7Y7Y7Y7F5F5F58686Y7Y78686v4v4v4868686v47676v4v4v4x4x4x4x4a1a1M4M4a1M4M4T%T%T%T%T%T%a1x4x476v486v476x4a1T%8!4!4!8! !Q!! 5!R!i N% #* y |!s$s#g 5#%&3%V!^!$ _!t$' =!O N!~ 5!W$r#X 9$X$[(7!-%$ # # 4#.$R#T!v!I%+'L * 0 * O%9#')v!u#+ 9!]!9!~ F%g X$- q&~ E%^!_!k%, B&Y!;#1$W!* # y!-%W s#P%Q%u$# W$# r#y!|!! Q!G M K%s$J%~ W!1 / ^!Z v#u'G#<!1$Q#Z 9!j z 3$- p$5#O%$ 5!G Q#8#s#v!S#u#q#V!! ! Q!f!I X$I P%M!7 P.F+Q+6$a!v!uTn.jbkb                                                                                                                                                                                                                                                                                                                                        ",
"                                                                                    5#s#?$7$K [!% ##}!) e L W!K%|!|!y!|!u$W$r#W$r## 0 # N#G%H%1%7$h { 6${!S#T!T!6#O!6#' t#5$<!w!3%t!-%M%x!}!~ !!:!y!u$K%|!y!y!K%u$W$r## Q!f>lbUZl%7#`!h } U#[ 5$n$Y!X$p&=!N$g48$W#:SS`4C$ambmb$a/blbnbobC_7>[apbqb8b^arbsbtbubtMvbwbxbybzb{b|b}b~bq_ c!c#c$c%c&c'c(c)c*c+c,c-c.c/c0c                    1c2c3c4c5c6cm`7c8cu`9c:c;c<cibs^^_T^T^c=Y7Y7Y7Y7f=Y7Y:Y:Y7Y78686867676v4v47676767676x4x476x4a1a1x4a1M4M4T%S%S%S%S%S%S%M4a1x476v48686Y7Y786x4a1x4x4a18!<$y ^!1 r#4#K%Y $ ;$!(P%W#s#!#v#1 Y y i D&:#v!>!,%M!$ 0 ! z!8$[(L%s###Q!K%K%z s#/%8*- H%L |!]!|!M%w!.%6!J K z G Q!M + ( a!A([ z!j 5!^!N#>$8$O!/%s#8#W$^!W$) t$7!t#U#o$y!Q!]!5!# 4#:!v#y!5!$ y!x!q$O%;$! ^!G y 4#j%c!$&j)V!y ^!Z z 4$g :#;#~ 4!$ 9!T#<#R#6#/%4$3%y!]!r#W$!#=$X$7!w!Q#u$r#9!x!0$=!0%*'_ w$w$Z$Y*E<l+')n%E0=c>c?c                                                                                                                                                                                                                                                                                                                                      ",
"                                                                                    P%j%!#3%-%y!$ ]!r#W$u$K%W!V!W!y!y!_!L i ;$~ ) x!-%q$+'V#u#0$- 0%| T!X$6#S#v!t#9#} h ~!?$+'N%|!G 5!0 ]!# ! W$K%|!y!|!K%K%y!Q#e ) + 9+z!f!~?,I`Rs#J n$V$Q0=!p&:#L%V:I:[ f s#3$@c<RMZob)^:FAcBcCcTaDcF^EcFcGc`aHcIcJcKcLcMcNcOcPcQcRcScTcUcVcWcXcYcZc[c]c^c_c`cacbcccdcecfcgchcic                      jckclcmcncocpcqcrcscu`tcuc;cvc)b9_s^^_T^c=c=c=c=GDc=86868686v4v4v4x4x476x4a1a1x4x4x4M4M4a1M4T%T%M4T%S%T%T%S%S%T%T%M4M4x4v4868686Y78676a1M4M4S%H <$N M W!!!}!o&-%N#|!/ 1 N#8#. p&=$&(V!Q!/ Z W!`!| O#f X!z 5!W$# L 0$')O!9$t!Q!|!y!X Y$O :#.%c!N%_!]!r#4#k%8$:#n!W N#9!Q!^!) k L%t*2$s$G 1 / T#1%J O#L%& t$u$^!0 V!N%P#E&`!!(W$5!# ! ]!5!G / / $ / y!J%-)j%f!y!^!G Y M!<#<!6$W T#Z 9!Y z %&Z!A(=$U!Q!0 1 _!J%?$0%6#. o$_!W$]!Z }!9#p$8$%&L K%K%5!l%} N$6#9$57w$L4+*h*i$?%(1sQ])cXwcxc                                                                                                                                                                                                                                                                                                                                      ",
"                                                                                     #N#X z :!W!K%W!V!W!y!|!K%W$r## ! !!o&,%S!q&1%h U#O Z!n$S#6!')#(=!T!{!U#{ C&w![!% ####z!e :!W!K%|!y!|!|!u$K%u$W$! 0 5!$ r###,%o$(4=-s#vQEQABycS#w&(/6!#,zcB&O  P?KGMH)mb$a?R{c1b|c}c~c d[a!d!d#drb$d%d&d'd(d)d*d+d,d-d.d/d0d1d~bVc2d3d4d5d6d7d8d9d:d;d<d=d>d?d@dAdBdCdDdEdFdGd                        HdIdJdKdLdMdNdOdPddbebtc:cQdRd4^Sd{`t^ ` `T^JET^T^JEJExExE7676*4a1a1x4a1M4M4T%T%T%S%S%S%8!R%R%8!8!8!T%M4a1x476v486Y7F5)8F586v476T% !y Y 8!N ]!r#9!|!P!X!%&D&P%z Y / 9!G }!U#')Z!t$N#r#$ * 0 l%=$:#J K e Q!u$W$X G#L%#(/$N%1 |!V!:!+'>!O#S#u#q#T#Q!]!$ M%M#:#' k ~ M 5!/ i F%u!')p#7#v#Q!M v#+'I%' ' I%-)W$9!$ $ # v#T#M!V!5!* ! M!i ) X # G * / W!b!t$r$3%V!^!$ Y z %&n!T!U#i 4!G ^!T#.$;#O!B&w!t!K%# r#W$!#=$X$7!w!Q#u$r#9!x!0$=!0%G#z |!|!0 ##h ' #(9#_ 7 o2E%L*s'. 6!9&T5$7TdUd                                                                                                                                                                                                                                                                                                                                      ",
"                                                                                    # W$u$W$u$y!W!W!y!W!v#T#e + ##x!N%H%P#{ f & ;#.%O![(#(:#O#n$5$/$J 9$;!.$-)&(N%y!$ 0 # ! W$K%y!W!y!|!K%y!_!v#M!!!) % l%x!f!,IW)R#C<8$' V$t'Vd}$F#)+3!6$WdU:[RfGNZXdYdZd:F[dXa*a]dE^]a^d_d`dadbdcdddedfdgdhdidjdkdldmdGbndodpdqdrdsdtdudvdwdxdydzd{d|d}d~d e!e#e$e%e&e'e(e)e*e+e                        ,e-e.e/e0e1e2e3e4e5e6e7etc8e9evcz`)b9_s^t^^_S^S^S^xE<]T]T]x4V;w6T%T%T%T%S%S%8!8!8!8!8!S%S%8!8!S%S%M4a1x476v486Y7F5F5764!H 4!R%8!y _!e T#_!V!V!u$1 W!f!1$;#O#f i 4!^!^!H Q#u#:#.%P#N%W!* ]!* 4#3!p&5$%&) Q!K%|!z 4$Z!A(=$b!W$W!V!v#N%w!n$a!W#<#!!5!0 j ) } a!6#A$;$<$$ M !!>$8$=!t#1%x!]!/ |!s$X!h G#1$U!# * ]!r#! Q!$ M M $ G W$;$N%f!##K%$ * / _!j%%&E&<#M!y * y N#4$.%@(p#U!Q!Q!* _!b!7$L%O#{ j%4#W$]!Z }!9#p$8$%&L K%K%5!l%} N$6#9$!!K%y!#  #%&5$#(Z!N%@$O.7 U$P-7$L%O#bH:e;e<e=e                                                                                                                                                                                                                                                                                                                                    ",
"                                                                                    y!|!u$W$r#W$r#]!1 W$N#G%H%1%7$s#A$8$B&S#T!Y!N$O!O!Y!B&O >!`!,'M%N%-%##;$e !!:!y!u$|!y!y!|!u$W$r#! 0 1 W$QRS,-%GE[7_Rf U#_'r xFa!:#=!tPV$N&- [ *'1%4C$amb>eXd/b2b4b?eF^7>F^Fc@e`aAeBeCeDeEeFeGeHeIeJeKeLeMeNeOePeQeReSeTeUeTeWcVeWeXeYeZe[e]e^e_e`eaebecedeeefegeheiejekeleme                          neoepeqeresete2euevewedbxeyeK`zey`Z_~_5^)b9_{e<]|e}e?FeFeFqMqM?G8!8!R%R%[&[&[&[&[&R%8!S%M4a1x476v4Y7Y78676x47686Y7v4<$R!v## ^!<$y!v$1$A&o$8#_!/ G 1 0 -%[ #(7!##j * 1 ^!v#V#S#v!G#7#M!* ]!Q!:!M#X$' h z!Q!|!y!X %&n!p&g +'N#_!y!y!u$!#=$=!J $&!!$ Q!Y i u#S##(M#~ [&9!y T#P#/$a!0%C&k%r#9!1 r#4#N#i M!|!5!! Q#% o&s$+ ! ^!* G u$z!f!q$##K%* 1 y X P%/$/%} ;$Z 1 ^!e >$8$p$n$1%t!K%# r#u$3%=$:#0$1$Q#u$r#9!x!M#=!0%G#z |!|!0 ##h ' #(9#!!K%W!r#) $&. 6!v!$&!!w$O.o2lG2%p#:#s<(H~e f!f                                                                                                                                                                                                                                                                                                                                    ",
"                                                                                    W!v#:!X !!i + l%N%b!+'V#u#0$- 0%Y!p$p$6#S#| u!9#U#I%k W +'O%y!$ Q!]!# _,r#W$u$|!y!|!K%|!4#:!N#;$) + }!G%4R}Qw!s#_'n$6#tPuQt'xFN&AB4Oz^%R_R$,[7O/N/#f)^:F[dWaXa]d$f%fFc@e`a02&f'f(f)f*f+fMc,f-f.f/f0f/d1f2f3f4f5f6f7f8fwd9f:f;f<f=f>f?f@fAfBfCfDfEfFfGfHfIfJfKfLfMfNfOfPfQf                              RfSfTfUfVfWfXfYfZf[f]f^f_f`fafbfcfdfefZ_~_q^ffQ^x]gfhf?G8J8J=FR%R%[&[&R%R%R%R%R%S%T%M4a176v48686v4M4T%S%8!R%N j 9!W!-%l%W!G y V!j)P#u#. %&:! !9!^!4!T#. [(n!U!0 ]!0 5!W!8#.%a!U#S!X * ! # L } N$6#f % * K%y!T#K 0$6!' N!G%L |!K%M % 9#p$=$%&N#/ 1 Y e C&/%[(2$G%$ G y R!7#;!. f w!U!# G * 1 0 u$! ^!y * r#M!-%[!3%-%y!$ 1 G 4#3%S!1$v$_!9!1 M e F%.%@(5$o&$ Q!1 :!q#u#S#S#u#j%4#W$]!Z }!9#p&p#?$L K%K%5!l%f 6#a!9$!!K%y!# }!3$=$8*- M%V!W!K%z ,'4$/%6!C&4*7 lG7 y(Z&{F*>=.G<ifjfkf                                                                                                                                                                                                                                                                                                                                    ",
"                                                                                    K%e -%b!&(+'1%#!9#8$Z!n$S#O!#(8*O!0%8$W#<!w#`!!#l%l%l%z!~ T#V!K%y!W!y!O.L4u$u$W$! 0 1 ]!!!o&H%.$`!3$n-%Cp#)'n$xFv66!:#~%|/- W)fG@clfmf>eXdnfofpf _qfrf7>F^]asftfufvfwfCeDexfyfzf{f|f}f~f|b g!g#g$gSe%g&gTe'g(g)g*g+g,g-g.g/g0g1g2g3g4g5g6g7g8g9g:g;g<g=g>g?g@g                                          AgBgCgDgqeEgFgGgHgIgJgKg6eLgMgNgOgPgQgRgSgTgUg6^e_Vgc]c]IEIEdFdFdF=F8!S%T%M4M4a1x4x4a1x476v486x4N M / Z j ^!r#X ##f!7#P!u$j M $ 0 f!2$/%G#i j * 1 M !!#!p$p#j%L |!! r#!  #8$=![ K !!* ! ! :!k 0%')3!% / r#y!:!H%u#O#O#{ H%N#r#u$9!% ;#X$T!I%i <$9!Z !!;!n$#(t#1$z!5!/ 0 L l%3%J%!!W$* 9!# X -%!(q$|!M * Q!u$L ;$ #!!W$1 5!^!!!P#M#g I%~ j 1 9!e Y$n!p&Z!7#Q#r## W$W!j)p#:#0$1$Q#u$r#9!x!M#X$/%G#z |!|!0 % s#/%#(9#z u$W!W$+ K ;#O!' +'L |!W!R!4#k%- X$G#('_,lGL4g!l%M#=!mQ&'WgXgYg                                                                                                                                                                                                                                                                                                                                    ",
"                                                                                    f!-)1%3$C&>!0$v!A(@(#(:#O#n$=$5#. u#?$o$+'8#s$R!5!]!r#W$L4o2W!V!V!W![-_!Q#v#M!!!) ##x!M%j%P#u#W#[ 8$' a.L/~%a!O#:7z^3O2Gf Zg[g;L>e!_]g^gWaD^*aE^qbFcaa`aFc_g`gag)fbgcgdgegfggghgigjgkglgmgngWcogpg]cqgrgsgtgugvgwgxgygzg{g|gua}g~g h!h#h$h%h&h'h(h)h*h+h                                                  ,h-h.h/h0hEgFgXf1h2h3h4h5h6h7h8h9h:h;cx`cf;h<h=h6^>h>h7^7^8J=F=F8JS%T%M4a1a1a1S%8!S%R%Z Y <$Y # T#M!* Y $ W!% Q%P#>$j%y! !^!M S%N#Y+-,B' #Y Q!]!* !!~!6#.%w!-%_!! u$]!M!/$p$8$W i $ ! ! M!:$Z!8*=$!#u$K%|!_!N%w!B&O!0$$&~ ]!r#9!##6$=!#(J -%G G j M!1$f 2$6$q&##5!/ G 1 u$!!L G Z 9!^!# N#s$j)q$W!G 1 $ K%##[!&(U!V!$ Q!^!~ ;!n$?(=$G%* 0 1 X r$A$N$' N!o&W!W$0 Z }!9#p&p#?$L K%K%5!l%f 6#a!9$!!K%y!# }!?$=$8*- M%W!y!K%!!2%F%| T!P%i K%R!K%G t!5#p$( z!P.lGO.|,9.} N$ >{/?h@hAhBh                                                                                                                                                                                                                                                                                                                                  ",
"                                                                                    2$t#0%' B&' .%5$5#[ . >!Y$,%M%e ~ i N#X T#L Q#V!y!W!y!W!X#_)L T#L L ~ b!)Rh0j%c!k . /$/$)+0%' ' 0%:JpQ M~L:S PCh.b#a|cDh1b2bEhFh#_GhF^pb]aFc`aHhIh>bJhKhLhMhNhOhPhQhRhShThUhVhWh(gXhYhZh[h]h^h_h`hahbhchdhehfhghhhihjhkhlhmhnhohphqhrhshth                                                                  uhvhwhTfUfre0exhGgyhzh{h|h}h~h i!i#i$i%i&i'i(i)iPaz`5^z]*i+i8J=FdFN N [&4!Y 5!1 Z ^!v#;$ #t!!(<#&(K%N Z 5!:!q#5$8$3$X j * 1 y e U##(5#O%* r#u$# M!X!0%Y!D&A&!!]!u$r#T#W#6!v!>!+ / 0 # v#1%J 6!0%?$[!M!# u$0 f!2$8*.%E&+ $ 0 ^!) G#0%N$J Q%v#* Y ! % 2%H%[!4#9!/ M G # 4#;$N#]!/ G 9!]!L ) + X ! * Q!^!z c!J 0%6$l%$ ]!1 e w!7!=!t#X!) |!# V!;$h(g O![ `!:!u$W$* l%W#6!S#D&!!|!|!]!##, .%')2$}!y!W!K%i -)<!T!v!.$!!|!V!W!u$b!8$X$<!z!W$R!W!0 -%R#6!3!l%,i-i-i>&5*t-{!.iY3/i0i1i2i                                                                                                                                                                                                                                                                                                                                  ",
"                                                                                    6#0%5$R#>!w#`!q$t!t!l%z!~ T#R!y!V!V!V!R!V!W!y!|!u$# 0 OPxI3i@RS!r$$&I%8$u!{!.%S#6#O!:#6#0%5#G#:$7$K IRXR*`4i5i6i4b7>]dE^7ipb^atf8i9i:i;i<i=i>i?i@iAiBiCiDi gEiFiGiHi%gIiJiKiLiMiNiOiPiQiRiSiTiUiViWiXiYiZi[i]i^i_i`iaibicidi                                                                                  eiCgwhfigihiiijikiliminioipiqirisitiuiviwixiyizi{i|i}i~i jtEFD2HFIW$^!G v#;$L G M y!t!u'G#/$( X!_!<$/ 9!/ M%p#L%G#;$/ ]!! * i >!X$Z!,%z 4#|!y!y!l%=$=![ 1%~ 0 u$W$L k ' p&J +  !5!! V!&(w#L%N$R#o$!!5!# ^!l%3!&)?([ l%/ 5!9!M!-*4$h K i $ ^!y 1 _!##,'G%r#<$M M Q!:!:!Q!/ G * $ y :!.$( 3!E&e y Q!$ ~ >$8$'){!H%L K%# X v$k S#S#s#7#v#u$u$]!G%7!X$/%u#z |!|!]!% h ' ')/$i |!V!r#z!3$n!X$n$-)L |!V!4#_!Q%Z!X$w# #u$R!W!Q!N%J =!0$t!! V!V!! l%s#0%Z!t!!j#j$jzOQ-s'<,' %j&js8'j(j                                                                                                                                                                                                                                                                                                                                  ",
"                                                                                    6$u#?$o$+'8#s$K%]!! r#W$K%y!V!R!R!V!V!W!V!Q#X i }!t!x!f!HRd_{ f & ;#L%X$')p&:##,:7z^3O6$wF2QGM4E)j*jC_cF+j,j-jD^_arbAeG^G^.j/jdd0j1j2j3jNc4j5j6j7j8jkg9jVe:jWc;j<j=j>j?j@jAjugBjCjDjEjFjGjHjIjJjKjLjMjNjOjPjQjRjSjTjUj                                                                                        VjWjXjYjfiTfZj[j]jki^j_j`jajbjcjdjejfjgjhjtcijjjkjljmjnjX^ojpjqjR!N#~ -%v$,'z!0 y 0 ) h(} Y!M#o$M!Y $ G  !~ 9#T!A$}!^!! W$Q!e , 6!n$P#o&L |!V!u$z 5#'){!4$+ 5!W$W$M!?$- ')5$!#W$# 0 u$-%c!.%=!5$%&i G ]!9!##f O!p$. ##M 5!$ y!o&7#-*b!u$Z / M 5!L z!O%}!! y / y u$s$J%~ W!Q!$ $ Y e ;!B&@(=$G%1 ]!5!e o$. 6!B&P#s$R!u$M!t!$&u!a!J `!L |!u$1 x!f N$6#9$N#|!W!! ##F%{!A(=$##W!V!K%i -){ O#O#P%i K%R!|!$ M%O p&& ##W$R!V!# N%9$N$I M%0 W!R!W$##?$5$B&Q%_!KPo2w$_ P-y4l+j&=Brj:?sjtj                                                                                                                                                                                                                                                                                                                                ",
"                                                                                    M%l%##) i e T#R!V!V!V!V!W!y!|!K%u$! ]!5!W$N#o&H%P#<!D&6$8$' O#6#N$6#6#B&g u!O ujvjwj#a>e#a4i6ixjyjEhzj@ 7b^arb{j|j}j~j k!k#k$k%k&kDbJeBi|b'k(k)k*k+k,k-k.kXc&g/k0k1k2k3k4k5k6k7k8k`e9k:k;k<k<k=k>k?k@kAkBkCkDkEk                                                                                                FkGkHkIkJkfiKkLkMkNkOkPkQkRkSkTkUkrcVkWkXkYkZk[k}c]k)`GM^k_k`kak3H`7A$M#w!G%u$Y ^!y!t!w!' 3!1%L M 5!5!M ~ R#p&7!x!/ ! K%! !!V#S#S#u#H%N#u$V!|!N#M##(p&R#% ^!! r#v#P%O O!' 4$!#_!$ ]!T#-)- 8*L%h ;$/ Q!9!i 7$3!9#7$i / 5!* r#N#x!N%) # M 9!y ! ##% u$^!9!9!^!<$Q#1${ k S!M!M $ / N#W 5$p&Z!j%:!u$]!X 7#s#S#O#{ ,%:!y!W!y![!9#:#n$h N#y!y!]!% s#0%')/$e |!W!! z!?$=$')g b!v#V!R!_!M!8#{!X$w# #u$R!W!Q!O%7!X$M#t!! V!V!! l%s#0%{!-%* y!R!u$+ K ;#/%E&Q%F&w)49bklGUH)'C<9%E),Pckdk                                                                                                                                                                                                                                                                                                                                ",
"                                                                                    0 ! W$u$K%|!y!V!V!V!W!R!Q#X ~ ) + l%N%O%b!-)P#G#7!v!O#T!p$X$xF/3m$t#ekfkgk Phkikjkkklk+^mknkokpkqkrk^aGc8i:isktkukHe@bvkwkxkykzk{kMe|kkg}k,k~k l!l#l$l%l&l'l(l)l*l+l,l-l.l/l0l1l2l3l4l5l6l7l8l9l:l;l<l                                                                                                          =l>l?l@lAlJkBlgiClDlElFlGlHlIlJlKlLlMlNlOlPlQlRlSlTl?KP h)UlpjW$f!G#B&T!C&!(R!M ^!Q!W!k%g 8$W !!/ 0 ]!G ~ & #(8$q$]!u$|!K%:!H%n$6!0$K ) r#W!|!!!} :#&)8$q$Q!! # 4#.$R#Y!O#W#<#L M 1 ! J%9#p$v!{ ;$y 5!$ Q#8#1%K v$v#G Q!1 ! L e T#V!5!^!9!Y |!!#j)N#! * 9!^!<$z ;!- /%D&~ Z * G X .$. a!n$c!O%V!W$M!-%w!B&O!R#1$X R!y!1 x!f a!6!U#i W!V!r###4$Z!A(p#% V!V!K%~ -*I%N$/%q&z W!4#|!G M%O p&& ##W$R!V!# N%6$6#I M%0 W!R!W$##?$5$n$!(V!R!R!y!N#!(F%0%0$!=92f/6(b=i(1Or<>-:N&2ifjfkf                                                                                                                                                                                                                                                                                                                                ",
"                                                                                    W!V!V!R!V!W!y!K%W$! 0 |!e G%-)u'1$h W#/$=$Z!n$S#O!8*X$N$5,,/E*]GF%w!VlWlXlYlZl5G[lzj]dE^7b8bH^$d]l^l&d=iFe5]_l`lalblcldl|belflglVehlSe3d4diljlklllml3knlolplqlrlsltlulvlwl=kxlylzl{l|l}l~l m                                                                                                                        !m#mHkJkwhfi$m%m&m'm(m)m*m+m,m-m.m/m0m1m2m3m4m5$3!NZ5m6m7mj*W>%&8$v!<!H%Q#9!5!5!9!M%5$B&k ) 9!# ! * ~ I%X$Z!,%z 4#y!W!W!t!=$')=$?$}!# y!|!X k 0%8*- q#M!u$5!y!H%{ L%N$M#$&:!Y 9!y }!A$v!u!C&e Y * 5!# R!M!Q#V!# 5!Q!* W$~ ;$K%* $ $ G j _!q&4$W j%4#y G j N#~!n$p&J ;$N 5!1 :!8#s#S#S#u#H%M!|!W!y!,'- p$[ `!!!4#R!! x!G#/%#(/$~ W!4#u$z!>$2$p$g !#M!R!R!_!:!7#g :#;!+ K%R!y!Q!N%[ X$M#t!! W!W!! l%G#/%{!-%* y!R!u$+ K ;#' V#G%T#y!V!4#_!k%t#9#sCS+{+lGT:8m9m?%-#)/:m;m<m=m                                                                                                                                                                                                                                                                                                                                ",
"                                                                                    R!V!V!W!V!Q#X ) % l%x!f!,%V#n29$W#.%6!(1<3#(=!O#n$] ^Rl$W)fG[gvR>moL?m@mAmBmokD^_a^aG^AeBeCmDmIhEmFmGmHmImJmKmLmMmNmOmPmQmRm6fSmTmUmVm?j@jWmXmYmZm[m-l.l]m^m_m`mambmcmdmemfmgmhmimjmkmlm                                                                                                                            mmnmompmqmrmsmTftmUfLkumvmwmxmymzm{m|m}m~m n!ns;#n$n]gUa(^%n!Rt$A$5,f h(L G ]!Q!Y ) /$N$} z!^!! W$Q!e , 6!n$c!s$:!|!V!K%!!9#8*v!{ ##5!u$u$L :$p#X$t#1%t!W!$ W$P!%&.%a!O V#:!<$/  !4#<#k ~!t$Q#M * 1 5!]!# ]!0 Q!5!5!G |!N%q$;$R!0 $ G j L P#;#n!w#N#j $ M z P%n!#(p#!#W$! ]!4#t!1%n$6!R#o$T#V!|!* -%9#p${!~!e 4#4#u$x!F%{!A(p#l%4#4#|! #$&. 6!' -*z R!v#y!$ -%I #(f % W$R!V!# N%9$6#2$N%# V!R!W$% :$=$n$!(V!R!R!y!N#!(F%B&>!+'~ |!4#|!$ M%Z!=$:$z!P.lGv'56kAw3a.A-{/?hbX&n'n                                                                                                                                                                                                                                                                                                                              ",
"                                                                                    u$! ]!5!W$N#G%X!4$s#<!6$8$l+F#L.V$A,W0g4t#.%I (n[7MZA_A_)n*`1b2b6iz=*n+n,nG^Ae-n|j&dDe.ntM/n0n*d+dfg1nBi2n3n4n5nRe+k6n7n8n9n:n;n<nOi=n>n?n@nAnBnCnDnEnFnGnHnHnInJnKnLnMnNnOnPn                                                                                                                                          QnRnSnTnUnTfgiZjVnWnXnYnZn[n]n^n_n`nanbncn6PqQdnyj~^enfn},-%(4n$M#$&!!* ! # 9!) . ')7!x!/ ! K%# z P#S#v!s#q#N#W$W!K%e 0$8*A(0$x!9!r#W$M!N!/$a!/%k v$v#^!0 ~ r$8$6!{!7$T#H / M * y!Q#Q#W!5!9!* $ u$+ N%t!i u$1 5!9!_!k%o$.$k%_!9!$ Y !!:$- O!0$+ <$* G M!j%<!Y!| ;!,'V!r#u$W$[!=$p$3!c!X R!V!# -%f a!X$0$;$4#v#|!% 3$n!p&g 3%:!4#W!~ 7#h O#Y!V#~ y!4#W!0 s$3!p$J M%r#R!R!r#t!G#0%{!s$0 V!4#|!}!1%0$' V#G%T#y!V!4#_!Q%t#J 1% #u$R!W!Q!N%=$0%u#l%# y!-i0 ##. gnhn6Dinjnknln                                                                                                                                                                                                                                                                                                                              ",
"                                                                                    + l%N%O%b!-)P#} - 0%| ^'L/p$6#xFN&p(f s#E&C&^ 4Ru[~^mnnnon]k(aE^ZaqbG^bapnqnrntkukLhsntnunvnwnxnynBi.dzn{n9nZcYc|n}n~n o!o#o$o%o&o+l'o(o)o*o+o,o-o.o/o0o1o2o3o4o5o6o7o                                                                                                                                                      8o9o:o;o<o=o>o?o@oAoBoCoDoEoFoGo/mHoIoJoN&KoLoGhmkMof>v#v$g n!>$~ * ! ! * ;$A$8*5$U!]!u$K%W$Q#j%.%6!J w!;$# y!|!N#A$O!B(n!f!Q!r#! _!o$. T!Y!U#S!M!Y $ y!o&~!6$s#t$R! !/ ^!9!1 5!$ 9!G $ $ 9!W!q$v$!(M%W!1 5!9!T#u'{ U#3$N#/ 1 M e 4$t#t*5$o&$ 0 Q!V!x!K .%a!;#1$Q#K%r#/ x!5#p&=$:$z V!R!W$t!G#L%?(- t!_!v#W!z!1%;#O!0%t$N#R!V!X N%1%t#6!s#z!|!4#R!! O%6$6#2$N%# V!4#u$x!F%{!n$[!K%R!_!V!e j);!B&>!+'~ |!4#|!$ M%{!p#7$##W$R!V!# N%O a!U#M%Q!|!y!E%('#!')r2NoOoPoQoRo                                                                                                                                                                                                                                                                                                                              ",
"                                                                                    C&W#n!u!' 0%0%' .%g 4OO 0$[G PhkfNSoTo1bUoVoWoXoYoEcEcEc`a`gZo[o]oEm^oMh_o`oaobocodoeofogohoio:njojokoZhlomonooopoqorosotouovowoxoyozo{o|o}o~o p!p#p$p%p&p                                                                                                                                                                              'p(p)p*p+p,p-p.p/p0p1p2p3p4p5p6p7p8pU`nj9pHErEn!v!I%z!$ r#W$Q!~ s#:#u!S! #4#W$K%u$+ O A(S#<!z!1 u$u$L E&t#p&{!X!) y!1 K%!(?$O 5$u#-)R!Z / G ! z e _!! 9!y M j W$o&!(s$e # ^!G / 4#v$$&u'2%_!$ Q!^!i ?$p#:#7!M%G ]!* z u'W#6!.%u' #y!W$r#Q!f!I X$I Y$T#|!K%1 l%U#6#v!( ) R!R!K%##P%5#X$n$8#z 4#R!i ,':$| 6#:$ #W!_!_!y!P!0$a!7!-%r#4#4#u$t!w#n$t#U!r#V!4#|! #o$R#n$1$l%T#R!4#R!K%[!u!O Y$z!W$R!W!]!N%8$O#( t!# V!V!r#% 6$')n![!K%W!bk-'!!P#-Eu;@B*Q:pzM;p<p                                                                                                                                                                                                                                                                                                                            ",
"                                                                                    a!:#O!a.A'' I Zg=pA_>p?p@pApZl{cBp#_qfE_Cpj9j9aa`gskDpEpFpGp2jHpNhIpynDiJpKpLp5njoMpNpOpOp&gkoPpQpRpSpTpUpVpWpXpYpZp[p]p^p_p`papbpcpdpepfpgp                                                                                                                                                                                                            hpipjpkplpmpnpopppqprp]kZdHE85wOVd3!mbpjuEu$]!X P#S#S#s#8#T#]!u$r#T#R##(t*[ % M ]!! M!?$=$=!v!G#7#v#^!* # X 2%!(e r#G y ^!! 4#N#~ N#_!1 y / j ]!}!s$}!:!0 9!$ Y e ;!p#0%D&) M ]!* ~ >$8$p&{!H%L |!W$|!4#&(Z!O!U#u'M!K%W$* M%J =!' s#!!|!y!# ##F%- =!=$b!M!R!y!;$,%u#O#Y!Y$+ R!v#Q#_!Q%g ')G#% W!Q#v#u$M%u#/%u!G%# 4#v#|!% 3$8$' -*e Q#R!4#v#:!7#t#W#.$+ |!4#V!0 O%p#/%{ t!! V!V!! l%0$#(9#-%* y!R!u$+ , a!| E&Q%F&w)49bkV,@&~%C<9%E),Pspdk                                                                                                                                                                                                                                                                                                                            ",
"                                                                                    .%hUvQqG:S_R^ >mtpup,jonTa(arfpb]avpwpZoxpyptk(fJhgdNhzp{p|p}p~p q!q#q$q3d%q&q'q(q)q*q[h+q,q-q.q/q0q1q2q3q4q5q6q7q8q9q:q;q<q=q>q?q@qAq                                                                                                                                                                                                                  BqCqDqEqFqGq2fHqh^IqJq]k]gKqLqZGA(5$MqONPIu$! _!q#n$O!M#K N#1 r#! T#A$=!&)n!f!5!# ]!R!S!D&n!7!3$2%V!M 9!/ # i e 0 Y y M / # 4#e  #+ T#Q!y / Z u$P!H%Q%-%K%^!$ y ;$u#T!u(p#f!1 ! Q!e o$. a!n$P#s$_!y!! y % 5##(Z!7$X |!K%Q!M%9$N$6#9$N#|!W!W$+ K 0$:#0%-*!!V!V!z o&P#' O!C&##V!Q#4#]!s$3!=!6$t!|!v#Q#y!t!~!g ' ,'W!v#_!y!+ u'9$' N!G%z R!v#y!$ M%{!Z!F%x!u$4#R!! O%I a!6$M%0 W!R!W$##& #(- !(V!R!R!y!N#.$L%6!0$!=92f/6(b=v1{FL/>-:NNq;mlOOq                                                                                                                                                                                                                                                                                                                            ",
"                                                                                    [7PqQqSoSoRqYlSqTqUqVqE_CpvpWqZoi_bdskvbXqYqZq[qid]q^q_q`qaqbqMicqjodqil%q6feqfqgqhqiqjqkqlqXpmqnqoqpqqqrqsqtquqvqwqxqyqzq{q                                                                                                                                                                                                                            |q}q~q r!r#r$r%r&r'r(r]d~^^ggQ(np&{!H%GGy!r#W$r#}!n!8*B&, + $ # ]!:!{ O#t*Z!H%L u$5!W$N%j%1%S!s$Q#Q!M $ 4#~ t!t!~ 4#* Y y / 1 K%R!V!u$$ M / H X E&2$[ W z y 1 ^!e 3$p##({!j%L |!# z q#G#O#O#{ ,%L V!|!1 -%7!p$/%u#N#y!y!# x!s#0%')9#N#K%V!|!~ ,%{ O#Y!P%) W!4#_!4#j)Z!p$G#% W!Q#v#u$-%>!| p#G%r#v#M!W!t!?$8$' t$;$L _!R!!!f!P%B&{ ,%~ y!_!V!0 O%p#/%<!M%r#R!R!r#t!0$')9#-%* y!R!u$ #C&O!' V#G%T#y!V!4#O%- X$9#sCS+{+lGT:c3O$b/-#pM)r*r+rYg                                                                                                                                                                                                                                                                                                                            ",
"                                                                                    ,r-r.r/r0r1r2r]aZo[owpwpZo3r4rtk5rsn6r7r8r9r:r;r<r=r>rOe(gIiog'qpg?r@r+qArBrCrDrErFrGrHrIrJrKrLrMrNrOrPrQrRrSrTrUrVrWrXr                                                                                                                                                                                                                                YrZr[r]r^r_r`rarbrcrdr*a~^.rlb3Q6!..(4N%_!# W$Q!Q#7!t*=!} z!/ 0 ]!_!%&O /%7!+'i u$* ]!z M%3%P!z r#$ M G v#e ;$;$e _!$ j Y  !5! #f!G%+ # M / N ;$6$X$p$U#+ j Q!$ z .$. 6!B&c!O%R!u$:!N%`!' O!R#1$X R!V!# -%6$6#6#6$i W!V!r###F%{!8*p#M%V!V!W!X o&P#' 6!,  #|!4#W!Q!s$I ')f l%K%v#Q#y!t!;!g 0%2%V!Q#M!R!% 1%;#0%P%U!e _!v#:!!!,%t#7!P#z!K%4#R!! O%I a!U#N%# V!4#u$x!f 8*- !(V!R!R!y!N#o$| T!>!+'~ |!4#|!N#5#p$=$:$z!P.lGv'S)=_L.a.A-{/erfr'P                                                                                                                                                                                                                                                                                                                            ",
"                                                                                    2b#_qfE_CpgrgraabdcahrirjrXqkrlrmrnror`qprqrrrbq(gdqsrtrOpIiXhurvrwrxryrzr{r|r}r~r s!s#s$s%s&s's(s)s*s+sVr,s                                                                                                                                                                                                                                              -s.s/s0s1s:d2s3s4sZ`5s]dmn _!`S#A'n-8#:!5!! Q!M!. A(@([ z!j 5!0 y!,%4$>!7$[!T#! $ 0 !!M%J%P!x!L 5!y / $ * $ $ G 9!M y Y 4!M!>$M#W#V#L j 9!<$N#k L%8*7! #<$0 Q!T#q#G#S#S#G#j%M!y!V!W!2%- p$[ `!!!4#R!r#t!G#/%#(/$~ W!4#u$% :$5$X$n$-)X W!V!R!V!!(- p$s#z!K%_!R!# o&7!')O -%! _!Q#y!l%?$8$' t$;$T#v#R!+ ,%G#0%<!+'+ R!Q#v#y!J%- B&s#t!W$R!R!r#t!0$')/$O%Q!W!4#u$% D&X$B&V#G%T#y!V!4#s$Z!X$J 1% #u$R!W!~ J =!0%u#l%# y!-ij(n-6sYMhnL*7s8s9s                                                                                                                                                                                                                                                                                                                            ",
"                                                                                    EcvpwpZo:s3rDm;sgd<stn=s>s?s@sAsBsCsDsEsNpFsGsHsIs>jJsKsLsMsNsOsPsQs4kRsSsTsUsVsWsXs9qYsZs[s]s^s_s`sas                                                                                                                                                                                                                                                    bscsdsesfsgshs#gisjsksYa,jlsNR 36!J K z 9!0 5!v#I%O#:#R#z!Y 1 Q!r#N%7#X!H%}!W!Q!G 5!Q#e ) ) e _!1 y Y H 9!:!~ T#y!G Y y [&e & 6!=!6$;$ !$ M !!>$=$#(5$J%# ! ! v#-%w!n$a!R#o$X R!y!1 -%9#X$Z!~!e 4#_!K%l%;!{!A(p#l%4#4#y!) A&I%Y!O#P%~ |!4#y!* N%O p&( % u$4#4#r#N%A$N$u![!W!v#v#W!##w!M#0%P%P!i _!_!N#o&c!0%M#`!% V!Q#_!! N%2$6!W#O%! R!4#u$x!f A(p#[!u$R!4#|!~ P%O#O#<!+'~ |!4#|!N#O p&p#7$##W$R!V!~ 9$N$a!U#M%Q!|!lG_ zD0-p&=$msOonsosps                                                                                                                                                                                                                                                                                                                          ",
"                                                                                    ?bqs0n[qrsss{ptsusvswsxsys#gzsjoXh{s|s}s~s t!t#t$t%t&t't(t)t*t+t,t-t.t}o/t0t1t2t3t4t5t6t                                                                                                                                                                                                                                                                    7t8t9t:t;t4d<tld=t.j,a-jmn(R/$#(/%w#i Y $ * K%S!h >!`!!!9!* 1 5!y!L  #i W$G $ $ G G Q!|!V!|!! G M Y 8!L C&O D&X!R! !/  !X F%.%#(/$l%y 1 * :!j%<!Y!L%?$b!4#K%K%# U!n!X$I W N#4#R!r#-%D&Y!#(/$##_!_!|!##V#9#X$n$8#T#4#_!_!V!2%=$X${ z!u$4#V!# O%. 6!3!M%! R!_!K%##Y$5#B&o$l%X 4#R!i 2%4$' A$X!}!R!M!Q#V!!#u!.%k -%|!v#_!u$t!W#8*n!J%W$R!R!K% #C&O!.%1$l%T#R!4#4#M%5$X$5#Y$z!W$R!W!~ . O!O#( t!# V!V!N#E&u!')n![!K%W!bkO-T+y4/%T@uT*QB>>t?t                                                                                                                                                                                                                                                                                                                          ",
"                                                                                    @tAtBtCtDtEtFtzsGtHtItJtOpNpKtLtMtNtOtPtQtRtStTtUtVtWtXtYtZt[t]t^t_t`tatbtct                                                                                                                                                                                                                                                                                dtetftgththlit&rjtktltmtnt}^6$|/_#u#e <$G 1 * u$L t!z!r#/ G $ * ]!K%v#V!G Y 9!* 9!<$v#<#E&N!Q%y!Z y [&~ R#:#' C&T#N 9!y z P%2$p$- q#M!W$r#u$|!2%p#=!0$$&L y!K%5!N%[ X$0%u#~ R!4#K%l%4$p##(u!3%L _!V!+ -)u#O#Y!P%) V!Q#4## s$3!p$M#t!r#R!R!r#t!G#/%{!N%1 W!_!y!~ ,%u#/%<!+') W!_!v#4#j).%3!P#% W!M!Q#K%-%[ p&9#f!r#v#Q#y!x!#!p&u!A&~ :!R!W!X -*0%6!U#.$+ |!4#V!;$[ X$/%{ t!! V!V!e G#/%#(9#-%* y!R!z K ;#a!| E&Q%F&w)49w)T4r2ot7!9%E)ptqt                                                                                                                                                                                                                                                                                                                          ",
"                                                                                    rtstttutVevtwtIsTmxtytzt{t|tNs}t~t u!u#u$u%u&u'u-o(u)u*u+u,u-u.u/u0u1u                                                                                                                                                                                                                                                                                      2u3u4u5u6uLt7u8u0_;sOX9u:u;uc!c(G#u'Q#j 9!$ G $ r#z X 0 / G $ 1 W!!!t!x!:!u$Q!$ 9!H i D&B&5#Y$L <$M N i & 6#N$} % ^!* ^!T#.$. a!n$`!N%V!K%# Y ##/$p&=$:$!!W!y!]!-%6$6#a!U#;$R!_!y!z!1%0$O!0%t$e 4#4#N#G%P#' :#k z!y!v#_!W$s$U#6#2$N%# V!4#u$% :$p#n$!(R!4#R!V!X s$c!' ;#K }!y!v#R!Q!O%- - ;!l%|!Q#M!W!M%9$t*{!!(R!M!Q#W!z!C&O!0%P%q$!!R!4#Q#P!- p&Z!F%x!u$4#R!;$6$6#a!6$M%0 W!R!N#?$=$#(- !(V!R!R!:!!(F%L%6!0$!=92f/w)F+RI=#<u>-]-a,-P=u                                                                                                                                                                                                                                                                                                                          ",
"                                                                                    Yh>u?u@uAu7nBuCuDuEuFuGuHuIuJuKuLuMuNuOuPuQuRuSuTuKnUuVuWu                                                                                                                                                                                                                                                                                                  XuYuZu[u]u^u_u`uaubuXPX`cuduX>~ z R!5!^!G G Q!;$s$U!x!K%9!G $ 0 ~ 3%K V#+'s$y!G $ <$+ W#a!B&w#N#Z 9!j e w#' X$I Q%_!]!* :!8#s#S#S#u#j%v#|!W$G t!J X$0%u#e W!V!r#t!G#/%#(5#~ R!Q#V!) -){ O#Y!Y$+ R!Q#M!v#Q%Z!8*} l%|!v#_!W$M%u#/%{!O%Q!W!4#K%}!w!M#' P#G%z V!4#4#V!!(.%9#V###|!_!R!! N%I N$9$N%r#_!Q#W!t!( #(.%q&+ X v#R!) V#Y!T!{ -);$W!_!4###9#p$L%<!M%r#R!R!i G#0%')9#-%* y!R!z 1%0$O!' V#G%T#y!R!_!k%- X$9#sCS+{+O.Y'3*c)b/-#.4KQeuyM                                                                                                                                                                                                                                                                                                                          ",
"                                                                                    fuguhuiujukulumunuoupuUpquKrrusutuuuvuwuxuyuzu{u|u}u~u                                                                                                                                                                                                                                                                                                         v!v#v$v%v&v'v(v)v*v+v,v-v0+1 9!/ ^!9!G 9!0 -%Q%q#3%i |!Q!G 0 z Q%I%M#, ,%Q#9!* j + f 6!a!A$;$Z $ / z V#O =!.%1%t!K%0 4#t!1%n$6!R#o$L |!K%Q!M%9$6#6#6$~ V!R!W$% :$p#8*Z!O%v#v#4#!!G%P#' O!C&##V!M!_!# s$7!p$7!N%u$_!_!K%l%;!{!n$[!K%R!4#W!e j)~!' >!+';$y!_!W!1 O%{!p#7$x!K%_!4#W$M%0$p$O !#W!v#v#V!% w#:#/%W J%i _!4#!!,%n$O!7!V###|!_!R!i 9$6#a!U#N%# V!4#e F%{!8*- !(V!R!R!:!!(;!| T!>!+'~ |!y!$ M%5#p$=$:$z!P.O.56kA=_(7&6c,:08^.v/v                                                                                                                                                                                                                                                                                                                        ",
"                                                                                    0v1v2v3v4vRtSt5v6v7v8v9v:v;v<v=vKn>v?v@vAvBv                                                                                                                                                                                                                                                                                                                  CvDvEvFvGvHvIvJvKvLv QMvmnRF #HGbL5!M 9!9!5!+ !#A&r$k%x!u$9!1 $ O%7!O#W#<#T#9!5!/ ;$w#0%')[ }!Z 5!* :!j%{ S#v!s#7#R!r#u$W$[!p#p$[ w!L W!y!# x!G#/%#(/$;$V!4#|!z!`!J :#0%-*!!4#_!v#_!k%- p${ x!W!Q#v#K%N%>!| {!o&# R!_!K%% 3$n!B&+'e Q#R!4#_!v#&(t#J w!}!K%4#V!]!s$p#/%{ t!r#R!4#u$% ( p${!-*~ L _!4# #P%Y!T!I%t$}!4#Q#M!N%O =!B&G#-%u$4#R!i G#/%#(/$O%Q!W!4#e :$5$X$B&V#G%T#y!R!_!Q%Z!X$J 1% #u$W!Q!N%J =!0%u#l%# 9R0 Z&n-H(r1>C}DNvOv5O                                                                                                                                                                                                                                                                                                                        ",
"                                                                                    PvQvRvSvTvUv'u-oVvWvXvYvZv[v]v^v_v`v                                                                                                                                                                                                                                                                                                                          avbvcvdvevfvgvhvkfiv QMv,jjvkv4QKROP9!G 9!* _!G%P%w#N!Q%4#9!*  !z!O A(g 7$i ^!0 $ ~ ?$- 8*8$G%1 # ]!4#t!K .%6#W#<#Q#K%r#/ x!3!X$p#7$X W!V!r#% F%{!A(p#l%_!_!V!i Q%E&S#N$W + V!v#V!0 o&I ')} t!|!v#v#y!M%;!{!' ,'y!_!_!y!z!1%;#' V#G%z R!v#y!* -%g p#7$% u$4#R!! O%I a!6$-%]!W!4#|!}!, O!0%P%q$N#4#_!N#+'' O!;#1%% R!M!_!;$U#6!O!R#s$r#4#_!i ;!{!A(p#[!K%R!4#X -*I%Y!O#<!+'~ |!y!$ M%O p&p#7$##W$W!# N%9$N$a!U#M%Q!|!P.92zDlv=!mv&#Y-nvov                                                                                                                                                                                                                                                                                                                        ",
"                                                                                    pvqvrvsvtvuvuvvvwvxv>vyv7ozv                                                                                                                                                                                                                                                                                                                                  {v|v}v~v w!w#w$wga%w&w'wmk,`mb3%MOGG(w* G G M % U#B&9$<#L 9!Q!y ##0$A(')W#}!M # 5!;$W 2$p$Z!j%L |!K%u$W$[!=$X$7!w!:!|!u$1 l%9$N$T!} N#y!V!W$##%&n!p&g 3%:!_!v#Q#M!8#{!p$h z!y!_!R!! G%3!p$J O%|!v#Q#y!l%?$8$' A&~ :!4#W!;$H%G#0%u#H%~ W!v#R!]!s$- /%{ t!r#R!R!r#t!J #(9#M%* y!_!y!~ N!Y!T!>!-*+ V!v#Q#s$Z!p$3!V#x!V!M!Q#;${ L%8*O G%# 4#v#i ?$8$p&g -*i M!R!_!:!7#{!X$J 1% #u$W!Q!O%7!X$/%{ t!! W!! l%s#0%')9#t!!jGB7 r'{$3([D)wZ**w+w,w                                                                                                                                                                                                                                                                                                                        ",
"                                                                                    #h-w.w/w0w1w2w3w4w5w6w                                                                                                                                                                                                                                                                                                                                          7w8wJj9w:w;w<w=w>wj^9unk1b2RYRYR4CxI! G 9!4!+ 5##(p#%&N#9!]!9!z!D&a!&)8$q$0 W$]!~ $&;#a!n$c!s$_!W!W$^!l%5#p&5$3$X y!y!]!x!G#0%p$/$##V!V!K%}!1%0$O!0%t$N#_!M!V!5!O%I ')} t!|!v#_!W$o&W#a!n!O%r#_!Q#W!##w!M#0%P%q$N#R!R!z s$w!n$[ P#z!|!_!4#r#s$2$a!U#N%# V!4#u$###!')Z!v$Q#_!R!V!X -)' O!;#K z!W!v#4#+ 5#p$g , t!|!Q#M!) ~!g [(- ,'W!v#_!!!<#9$a!' N!f!z R!V!$ M%O p&p#7$##W$W!# N%6$6#a!6$M%0 W!W$##?$5$#(Z!Q%_!:PL4*%V,K .%6#W#:&?w@wAw                                                                                                                                                                                                                                                                                                                      ",
"                                                                                    5oBwCwDwEw                                                                                                                                                                                                                                                                                                                                                      FwGwHwIwJwKwLwMwNwOw QPwv[w!=$n$u#H%Q#9!1 Y }!W#O!S#I% #9!r#Q!;$N!5#=!u!u'z!4#u$X [!?$/%N$A$h(T#W!|!Q!-%. 6!S#D&N#y!V!r# #N!/$=!t#v$L V!W!e 2%4$| 6#:$}!R!M!_!W$o&0$:#/$O%u$v#v#|!t!E&g t#,'V!_!v#R!i 2%4$' A$h( #W!v#_!y!U!8$v!D&-%r#R!4#u$t!R##(2$U!r#V!4#W!N#o$| T!I%-*;$|!4#R!% 8$p$2$>$% |!v#v#) ( Y!#(O b!y!Q#Q#~ N!9#X$n$$&M%z _!:!x!.$.%a!9$u'+ |!V!]!N%R#6!S#( t!# W!r#% E&u!')2$J%u$V!K%i -)<!Y!Y!>!+'L y!GB>&mA>Cb/uCQwRwSwTw                                                                                                                                                                                                                                                                                                                      ",
"                                                                                                                                                                                                                                                                                                                                                                                                                                                    UwVwWwXwYwZw[w]w^w_w`wawbwwj4OuQ@GK z $ 0 9!) k 0%')3!l%9!K%u$e ,%{ O#O#{ ,%T#V!R!V!!(- #(p#:$e R!V!! l%G#/%#(/$i y!4#|!~ -)<!Y!Y!P%;$y!_!v#_!k%Z!p$s#% W!M!Q#|!N%{ /%g G%! _!Q#V!+ t$#!/%w#8#;$R!v#v#_!k%.%3!P###y!v#_!W$t!M##(O G%# 4#v#|!x!( ')u!-*e M!4#4#R!-%- p$3!P#z!K%4#V!;$[ =!0%u#l%! 4#v#~ 4$p##(u!t$;$T#v#N#,%G#O#Y!<!-*+ R!v#y!J%9#=!B&s#t!W$V!r#t!G#0%')9#-%* y!u$ #1%0$O!' V#G%Q#V!4#_!k%- X$9#sC57lGT:Y'`Qc):#' .4<6CPcw                                                                                                                                                                                                                                                                                                                      ",
"                                                                                                                                                                                                                                                                                                                                                                                                                                                    dwewfwgwmlItJihwiwjwkwlwmw/be,p&p#3$i G # 1 ) :$Z!8*5$P!! W!y!T#o&P#' 6!. $&!!_!V!5!N%/$8*v!>!i R!R!W$% F%{!A(p#% V!4#W!X o&P#' O!, }!y!v#R!]!o&5#p$9$t!|!Q#M!W!M%~!g B&,'V!Q#M!_!!!G%V#0%M#w!z!y!v#R!Q!s$g Z!F%x!u$_!v#|!t!9$[(- 3%y!_!v#W!}!;!6!L%%&b!N#R!v#W!i I p&5$:$% u$4#R!;$6$N$6#W#U!y!_!_!e w!0$O!0%P%P!i _!T#o&c!' :#J `!% V!_!! N%6$a!6!W#N%# V!u$x!F%Z!8*- !(V!R!y!N#!(;!| T!>!+'T#4#|!$ M%5#p$=$:$!!lG49nw#=} T!N$vP{Dowpwqw                                                                                                                                                                                                                                                                                                                    ",
"                                                                                                                                                                                                                                                                                                                                                                                                                                                    rwswtwuwvwwwxwywzwLhj^{w|w#aF'uQ^'D& #9!r#Q!) >$n!p${!-)N#v#4#4#R!j)Z!p&9#V#e v#4#r#O%6$O!#([ ;$R!4#u$##3$8$p&g !#Q#R!4#4#R!!(- p$u###|!v#_!W$s$U#O!- o&r#v#M!W!t!?$8$' t$) T#Q#M!Q#_!k%.%/$N!##|!_!R!# o&Z!6#} M%# 4#v#|!x!( ')u!A&~ :!4#R!!!t$/%O!W#o$ #y!_!R!) [ =!0%u#t!r#R!R!i u#/%p&=$-)i :!4#z ,%u#O#Y!>!A& #4#Q#_!k%Z!8*p#4$M%W!_!W$M%u#/%#(5#O%Q!W!u$% 3$n!X$B&V#G%Q#V!4#_!Q%Z!X$J 1%z R!W!Q!N%J =!0%u#xIy!NP0 Z&n-l+~%>C}w~w x!x                                                                                                                                                                                                                                                                                                                    ",
"                                                                                                                                                                                                                                                                                                                                                                                                                                                    #x$x%x&x'x(x&q)x*x+x,xpk;FXd-x6!')[ o&]!K%! ;$K 0$6!' N!f!:!v#W!5!s$2$')=$7$i v#_!K%-%{ | @(=$l%4#4#|!}!1%0$6!' -*X W!_!W!1 O%I ')A$x!K%_!v#|!N%{ v!/%2%V!Q#Q#V!##w!0$0%P%U!e v#:!4#0 s$g p#7$x!u$4#R!r#N%O #(/$b!y!_!_!y!z!w#O!0%P%q$N#4#_!:!b!- p&Z!~!t!K%_!4#;$6$6#a!6$-%]!V!4#N#W I p$0%N!f!!!V!L o&P#' O!;#1%% R!v#! o&7!p$v!#!O%|!_!|!l%;!{![(- !#K%V!K%) S!} T!S#<!+'T#4#|!$ M%O p&p#7$N#R!V!# N%9$N$a!U#e |!lGP.N->B!+.xpG/x0x1x2x                                                                                                                                                                                                                                                                                                                    ",
"                                                                                                                                                                                                                                                                                                                                                                                                                                                      3x4x5x=d#t6xmg7xhd8x_aupnfwF/%')5$j%X V!W$e H%u#S#O#{ -)z v#R!! G%3!p$/%<!) v#Q#y!t!F%- ')g !#M!R!y!;$H%G#O#Y!N!~ y!_!V!]!s$3!p$M#M%W$_!v#|!t!F%- 0%t$;$T#v#R!+ -)u#0%{ -)+ R!M!_!! G%- /%{ M%W$4#_!K%l%f p&{!-*i :!4#W!) P%O#Y!<!-*+ V!Q#v#x!/$p$L%>!N%u$4#R!~ G#0%')/$N%1 W!_!X -*>!Y!Y!<!+') W!_!4#j)Z!p$3!V#x!V!v#|!O%>!| p&9#f!r#_!y!x!%&n!p&u!A&~ v#W!X o&P#' O!M#1%z R!W!Q!O%7!X$/%{ i V!V!! l%s#0%')9#j(L4@$b=]$9x@Bu;7PJ(:x;x<x=x                                                                                                                                                                                                                                                                                                                  ",
"                                                                                                                                                                                                                                                                                                                                                                                                                                                      >x?x@xAxBxIi'gCxNc8x8b,joffGI =!n$c!s$v#y!T#s$c!B&O!M#w!e v#_!u$o&W#a!6!W# #v#Q#V!% `!J :#' A&!!V!V!z s$w!.%6!h z!K%4#R!! O%6$6#2$N%# 4#v#W!##w!M#0%P%P!i _!_!N#G%P#0%7!P#% W!Q#v#u$s$2$a!U#N%! R!_!|!}!C&:#0%N!q$N#R!R!!!+'' O!. K ##V!Q#_!) U#a!6!W#s$r#4#_!i ;!g A(- !(R!4#4#M!O%`!B&O!;#K }!y!R!Q!s$I ')- F%l%|!v#V!-%~!g t*{!!(R!Q#V!##K ;#O!0%P%q$L 4#Q#X q#=$X$=$7$N#R!V!# N%9$6#a!6$i W!R!W$##?$5$#(Z!s$y#lGGBYJ`QDxExFxwNGxHxIxJx                                                                                                                                                                                                                                                                                                                  ",
"                                                                                                                                                                                                                                                                                                                                                                                                                                                        KxLxMxNxOxPxQxRxSx^a]kpfTxUxd*S#u#,%T#R!_!4#j)- #(p#7$~ Q#v#|!N%{ /%#(5# #v#:!4# #A&>!Y!Y!Y$) W!4#_!4#,'5#=!. t!W$R!R!r#t!G#/%g O%Q!R!Q#R!+ +'<!0%<!-* #4#Q#M!v#Q%0%/%G#-%|!v#v#u$M%M##(5#s$0 V!v#W!;$P%Y!Y!<!+') V!_!v#O%Z!p$7!P#% W!v#_!;${ L%8*O G%# 4#v#i 7$=$p$n$P#G%z V!4#V!!(- p$9#V###|!R!! o&[ p&6#} N%r#v#R!M%:$5$#(.%q&+ :!R!+ H%G#Y!T!{ -)z _!4#u$U!7!=!0%{ i V!W!! l%s#' ')9#e y!R!u$+ K ;#a!| $&r'L4R.R.G'T+@'P8J:nMVx fWx                                                                                                                                                                                                                                                                                                                  ",
"                                                                                                                                                                                                                                                                                                                                                                                                                                                        XxYxZx[x]xhsbq^xEp`azj __x`xB&6!2G`R!!_!V!0 s$/$#(S#I%) Q#M!W!M%~!g A(- -%M!:!v#e q$N!0%O!C&}!y!_!V!0 t!6$a!n!N%# V!4#u$x!~!u!' j)4#v#v#_!N#f!V#0%;#1%% R!M!_!# s${!X$R#s$W$_!v#|!t!9$[(- !#K%4#v#R!z -*0%O!. $&z!W!v#R!) 5#p${!E&t!|!v#Q#;$~!g [(- ,'W!v#v#!!t$I%Y!O#<!+';$y!V!1 O%I p&p#7$x!u$R!W$O%A$N$#(5#[!V!Q#R!x!w!0$:#/%Y$P!z v#e o&`!n$O!7!V#e _!R!]!M%9$6#a!U#~ V!R!W$% 4$Z!8*- -%R!R!y!N#!(F%L%6!C& #w$@$w$,)9.{FL/]].QaxT&%P                                                                                                                                                                                                                                                                                                                  ",
"                                                                                                                                                                                                                                                                                                                                                                                                                                                        bxcxdxexfx|ncqgxhxJcCpqf]gIRI:p$] >$e v#_!u$O%( T!8*O x!Q#M!V!x!P%9#X$n$q#!!Q#:!Q#W!3%=$p&I%% K%_!4#W$l%k n$u!U!r#V!4#|! #$&. /%4$!(i R!v#_!y!3%t#2$%&l%W!M!Q#K%M%;#8*n!b!|!v#v#y!z!k :#n$$&t!X 4#v#4#x!5$p$I >$% |!_!4#) ( Y!#(5#J%y!Q#Q#~ P%9#X$n$$&M%z v#v#R!2%=$p$O Y$z!u$V!# O%. O!O#( M%! R!K%##P%/$=!.%1$t!T#_!~ 2%7$L%6#f u'i Q#Q#V!b!M#6!S#( ;$R!R!W$l%C&.%')I }!V!R!K%+ .$U#a!L%.$N#y!R!V!K%[!8$p$I%z!r#ix9R|,jxk[P,I z!kxlx6Q                                                                                                                                                                                                                                                                                                                  ",
"                                                                                                                                                                                                                                                                                                                                                                                                                                                        mxnxoxpxqx)qrxfosxtx[oVqWaux3!p$5,U:) _!v#y!t!F%- ')u!,'X Q#4# #+'{ Y!Y!Y$ #4#:!v#r#f!9#p$M#M%W$4#_!K%x!?$8$B&+'e Q#4#_!Q#T#j%.%J w!z!y!v#4#! G%- /%<!N%K%v#Q#W!t!( p&u!t$) T#_!R!!!t$/%O!W#o$ #y!_!R!+ 3!p$0%{ -%K%_!_!~ 4$p##(u!t$;$T#v#N#-)u#O#Y!<!-*+ R!_!# s$7!X$/%{ t!r#V!r#t!G#/%#(9#M%* V!W!;$,%u#Y!T!>!-*N#Q#M!Q#Q%Z!8*- F%+ M!Q#|!N%{ L%8*O + 4#v#|!x!?$8$p&g b!Q#R!4#v#:!8#{!X$w# #u$R!W!Q!N%J =!0$l%# bkJPdO@*+%-#9&vx0CxWOqwx                                                                                                                                                                                                                                                                                                                ",
"                                                                                                                                                                                                                                                                                                                                                                                                                                                        xxyxzx{x|x}x~x y!y#y$y?eTau[vQa!:/W#SFv#Q#V!% c!J O!' r$i v#v#e f!V#0%=!G#x!V!M!Q#K%o&W#a!n!N%# R!_!|!}!w!M#0%N!f!z R!v#W!* -%g - 4$l%|!v#_!W$s$2$6!W#O%r#4#Q#V!% k :#0%Y$P!N#4#_!M!b!Z!p&Z!;!l%K%_!4#) U#a!a!U#O%r#4#v#e w!0$O!0%P%P!i _!T#G%P#' :#J `!% V!_!u$s$U#6#a!U#N%! V!u$% :$=$#(Z!v$Q#4#R!z o&P#' O!;#K i M!v#r#f!5##(S##!}!M!:!V!-%~!g A(- t!v#_!y!+ u'9$a!0%r$z V!_!y!G t!5#p&& ##W$R!V!# N%9$N$2$M%Q!49W!! ;0%y&y-#'y+XpKLM6O                                                                                                                                                                                                                                                                                                                ",
"                                                                                                                                                                                                                                                                                                                                                                                                                                                        (y0o)y*y+y t,y-y/f1jwp.y~^*jW)h5M?h$ #MR:!4#}!t$I%T!T!W }!_!M!:!Q#&({!@(0$N%y!Q#Q#K%-%{ L%g O%5!V!v#W!) +'<!0%<!-);$W!v#R!]!s$- 0%{ -%u$4#4#u$-%J 8*5#O%Q!R!M!R!+ P%Y!Y!>!-*+ V!v#_!x!/$p$/%<!N%u$4#R!~ u#L%8*5#O%Q!R!Q#!!-){ O#Y!<!-* #4#Q#v#Q%Z!8*p#4$M%W!_!K%-%u#/%#(5#o&0 W!K% #1%0$6!| C&v$T#4#_!4#j)Z!p$3!P#i M!Q#K%G%U#O!8*9#z!M!L R!t!?$n!p&u!,'L _!R!!!f!V#0%6!;!+ |!4#W!Q!N%[ X$M#t!! V!V!! l%s#0%Z!t!''L4@$w$.+>>@B{?G#@H/y0y1y2y                                                                                                                                                                                                                                                                                                              ",
"                                                                                                                                                                                                                                                                                                                                                                                                                                                        3y1o4y5ySi6y5f$r7y8y[o9yC_:L~!)'<3- M%Q#:!v#e U!P%0%O!C&% 4#:!v#! o&7!8*5$G%K%Q#Q#y!M%E&u!' j)4#_!_!R!z G%V#' ;#K }!y!_!4#r#s$2$a!U#O%r#4#v#|!l%} 8*g 7#:!M!v#_!N#-*0%O!;#K z!W!v#4#;$U#a!a!U#s$r#4#_!i 4$- 8*Z!j)4#v#v#T#G%V#0%:#0$1%##V!_!# s$7!p$v!#!O%|!_!y!t!~!g [(- 3%|!R!W!e j)F%L%6!0$w!N#4#y!5!O%I ')Z!;!~ Q#M!W!s$<!v!B(Z!N%:!:!4#x!w!;#O!0%t$e _!v#:!!!j%p#p$} x!u$4#V!# -%9$6#I M%0 W!R!W$##?$5$B&Q%_!y#lGO.-$V,0D9&W#@K:y;y<y=y                                                                                                                                                                                                                                                                                                              ",
"                                                                                                                                                                                                                                                                                                                                                                                                                                                          >y?y@yAy+q4f:nByCyDyEyob)`:$@'7Ru!,'X :!L :!M!&({!p&{ l%R!:!M!|!N%>!v!u!f!! _!Q#y!t!F%p#L%V#f!!!R!_!_!4#j).%9#V###|!_!4#W$M%M#8*5#o&]!4#Q#V!% h O!v!C&8#;$4#Q#Q#O%Z!p$3!P###y!v#_!~ u#L%8*O G%# 4#v#i `!J :#0%V#f!!!4#v#_!k%Z!p&/$P%x!W!v#K%-%>!| p&9#f!r#v#W!l%:$5$')u!A&~ Q#4#_!v#Q%Z!p$3!P#N#4#V!]!s$[ p&6#} ;$v#M!V!-%F%- #(t#!(z M!_!}!-)G#O#Y!P%+ R!Q#v#y!J%9#X$M#M%r#R!R!r#t!G#0%{!-%* y!R!u$+ K ;#/%4PDOr'K%W!W!K%<2O+J Fy_QGyHyIy                                                                                                                                                                                                                                                                                                              ",
"                                                                                                                                                                                                                                                                                                                                                                                                                                                          8lJyKyplLyIiNpKpHmMy%_qf$ac!J :#0%r$i M!T#v## f!n!')} M%V!:!:!V!-%~!g B&,'W!v#v#V! #r$D&/%<!+') W!v#V!5!s$g p#7$x!K%_!_!K%l%9$[(- 3%y!v#M!_!) 1%v!6!0$w!##V!Q#4#) I ')Z!;!l%K%_!v#~ ~!g [(- 3%y!_!Q#z Q%E&S#N$I%-*+ V!4#Q!s$I ')- 4$l%|!v#W!M%;!g t*{!!(R!Q#R!z!.$6$6!0%P%q$L v#y!* -%O p&5$:$e 4#R!! O%6$O!#(/$l%Q#M!R!x!`!M#:#/%q&;$Q#M!~ f!P#' =!u#x!V!Q#_!! N%6$6#2$N%# V!4#u$x!F%{!B&!(V!R!R!y!N#!(F%z'0$1% #u$V!u$z(9.r<=$NyOy,PPyQy                                                                                                                                                                                                                                                                                                              ",
"                                                                                                                                                                                                                                                                                                                                                                                                                                                          RyJy3qSyTyUyVyWyXyxp%_?e/b4R:SdGdGW }!_!L Q#u$q$9#p$J s$W!M!:!V!M%:$5$' t$;$L v#_!Q#X H%n$J w!}!|!_!R!# o&Z!/%{ M%W$R!4#K%x!D&')u!t$;$L Q#M!:!q$g p&9#N!% W!v#4#+ 7!')6#} -%! 4#v#~ ?$8$')u!A&~ :!v#Q#M!v${!p$[ `!z!y!R!! o&7!X$/%<!M%W$v#W!t!?$5$#(.%q&+ L v#i P!Y$L%N$<!-)z v#R!]!O%[ =!0%u#i R!R!r#t!u#L%8*- 3%T#v#R! #+'{ Y!T!>$##Q#L T#M!&(- t*M#N%|!v#_!W$M%u#/%g O%Q!W!4#u$% 3$n!/%V#G%T#y!V!4#_!k%t#9#V#}!W$W!K%* :+@'N$YyZy'O[y]y                                                                                                                                                                                                                                                                                                              ",
"                                                                                                                                                                                                                                                                                                                                                                                                                                                          ^y_y`yaybycy lurdyeyfy9y1bMqI)0%O!C&% 4#:!M!|!f!W#a!n!G%|!M!:!R!x!c!J 0%P%U!N#4#Q#W!* N%g p#7$x!K%_!4#r#s$n!a!U#N%# R!_!y!z!w#O!0%Y$P!e v#:!R!;$2$')=$7$l%|!v#_!) A$N$#(5#[!W!v#_!e w!M#O!0%P%q$N#_!4#5!O%I ')- 4$x!u$R!W$s$U#6#a!. J%R!Q#V!% `!J :#/%W J%z Q#T#e -){!=!3!V#e _!4#r#O%6$6#a!6$i V!4#u$##W I X$0%t$e 4#_!e f!V#0%:#w#t!Q#X M!W$G%[ #(5$G%u$v#v#|!l%;!{!B&[!u$R!4#|!~ +'<!0%<!+'~ |!4#|!$ M%Z!=$:$z!! W!cO2Od5O ')gyhyiyjykyly                                                                                                                                                                                                                                                                                                            ",
"                                                                                                                                                                                                                                                                                                                                                                                                                                                          mynyoypyqyRpTmFsry+dj9Yo5msy)j=$7R|$t!V!:!M!W!N%h B&.%!#W!M!:!v#;$j)F%0%A$X! #V!Q#4## O%5$O#& N%r#4#_!K%t!6$')8$3%W!_!v#R!i .$| 6#A$X!}!V!Q#_!+ 0$O!O#& O%u$v#Q#i W O =!t#o$l%X R!T#2%4$| 6#} S! #W!4#r#s$;#O!O#( -%r#R!K%l%~!{!p$g .$l%L 4#~ !(F%v!a!} S!e M!Q#y!U!M#O!S#( ;$R!4#u$t!w#.%')2$% R!4#W!N#2%4$| 6#:$ #V!Q#Q#V!,'8$X$& -%4#T#L V!O%s#' n$!#y!Q#Q#W!##w!M#' 1$l%T#R!4#4#W!3%g 5#Y$z!W$R!W!]!N%n!S#( N%r#lGo2E%}!& X$$#tyb@-]uyvy                                                                                                                                                                                                                                                                                                            ",
"                                                                                                                                                                                                                                                                                                                                                                                                                                                          wyxyyyzy{y|y}y~ySc4si_ zFh]g!ze,[({!G%W$Q#:!V!M%:$5$0%r$) X M!:!M!Q#&(.%9#V###y!_!4#W$M%M#')/$s$]!R!v#W!) >$N$S#C&v$~ R!v#Q#s${!p&3!V#x!V!M!Q#+ { /%#(5#G%! _!M!!!+'<!Y!Y!<!+') V!_!_!k%- 8*- 4$l%|!4#u$M%u#/%#(5#s$0 R!W!) A&I%T!T!>!-*N#Q#M!v#Q%{!p&3!V#~ Q#v#K%-%{ L%8*O + 4#v#|!x!7$=$p$B&+'z V!4#4#V!!(- p&u###y!Q#v#u$o&U#O!Z!f!K%:!T#_!N%:$8$' r$) T#v#4#N#q$N!' U#.$+ |!4#V!0 N%p#/%{ t!! V!V!! l%;#p$5$,%N#v#|!W$e N!O#S#G48V#z$z%z5O                                                                                                                                                                                                                                                                                                          ",
"                                                                                                                                                                                                                                                                                                                                                                                                                                                            &z'z?y(z)z*z2s+z,z-z%_[lC_,rc@:#| 2%R!M!M!R!x!c!J /%Y$P!i v#:!4#]!G%g =$7$x!K%4#4#u$l%9$A(=$!#|!4#v#R!z +'' :#0$w!##W!Q#4#) 5#p&g , t!|!Q#M!) ~!g A(- ,'W!v#M!T#f!V#0%O!. $&z!W!R!]!s$/$#(S#I%N%u$4#K%l%;!{![(- !#|!_!R!z o&P#' O!;#K e M!_!# G%O p&g , ;$Q#Q#y!M%~!g [(- t!v#v#W!+ t$#!T!Y!Y$;$y!_!W!1 O%I p&& x!|!v#v#|!O%{ | L%!(4#L T#v#l%`!0$0%Y$P!i v#Q#L N#H%.%- F%x!u$4#R!! N%I a!6$M%0 W!R!W$##D&p$B&V#G%T#|!K%:!.zn$[QV0P+B+/z0z1z                                                                                                                                                                                                                                                                                                          ",
"                                                                                                                                                                                                                                                                                                                                                                                                                                                            2z3z4z5z6z7z,y8zxk9z:zEh}c;z3Qg /%t$;$X Q#4#}!-*<!/%{ +' #4#:!v#r#f!Z!/%<!N%u$4#4#K%x!D&p&g -*i M!_!v#_!N%Z!p&9#N!% y!v#_!+ U#O!p&J o&r#v#M!;$?$8$p&u!t$;$L Q#Q#_!k%Z!p&9#V###y!4#r#O%6$O!8*3!o&# R!|!x!3$8$')u!A&~ Q#v#_!4#j)Z!p&9#V#i Q#v#u$s$U#O!p&J  #_!Q#W!t!?$8$')u!,'L v#v#M!T#q#{!X$k }!K%4#V!]!s$[ =!0$-%u$v#Q#W!M%4$p#/%r$+ !!:!v#}!-)u#/%>!-*}!_!M!Q#y!J%Z!/%<!M%r#R!R!! l%0$')9#-%* y!R!u$+ , a!S#{ -)i w)bk<zx!i%_&gyI;=z>z?z@z                                                                                                                                                                                                                                                                                                          ",
"                                                                                                                                                                                                                                                                                                                                                                                                                                                            AzBzCzDzEzWmNpFzGzHzJcIzGhXdh]M#/%Y$P!i v#v#i q$V#/%3!V#x!V!M!Q#K%o&n!6!W#O%! R!4#|!}!w#O!' N!f!!!4#Q#V!;$2$#(p#7$l%y!Q#Q#+ { v!B(Z!2%V!Q#Q#i w!0$O!0%P%U!e v#_!0 s$I p&=$7$x!K%4#K%N%u#| ?(- ,'y!4#y!z!1%;#O!0%P%q$L Q#V!5!O%I p&=$7$i v#v#|!O%{ v!B(Z!-%Q#Q#V!##w!0$O!0%t$e _!M!V!* -%O ')A$% u$4#R!! O%6$6#2$N%! _!M!R!% 1%0$0%Y$J%~ Q#Q#i G%P#0%[ P#l%4#:!_!! -%I a!U#N%# V!R!W$% f 8*- !(V!R!R!y!N#.$L%a!. $&4*w$@$K%!!/$p$p#JzKzLzMzNz                                                                                                                                                                                                                                                                                                          ",
"                                                                                                                                                                                                                                                                                                                                                                                                                                                              OzPzQzRzSzTzUzVzXqEmWz#_/b4R>!/%>!-*}!_!M!:!Q#&(/%0%s#N%y!Q#Q#K%-%J 8*/$N%5!V!v#W!) P%Y!Y!<!+') W!_!V!+ 9#p&/%<!N%K%Q#M!;$F%- #(u!t$;$T#v#N#-)u#O#Y!<!+'+ R!_!! G%3!X$/%{ -%u$4#|!l%4$p##(u!A&~ Q#W!;$H%G#O#O#u#,%z v#R!# o&7!X$/%{ ;$v#Q#y!t!F%- #(u!,'T#v#R!+ -)u#O#Y!Y$+ R!M!4## s$7!X$M#t!r#R!R!r#t!G#/%g -%1 V!Q#R!+ -){ /%>!A&z!v#:!L M!&(' Z!F%M%W!M!Q#K%M%M##(5#O%Q!W!4#u$% D&X$B&V#G%T#y!V!4#O%- X$z^!` #7 Xz-ie 8L#.&6FOYzQ;owZz                                                                                                                                                                                                                                                                                                          ",
"                                                                                                                                                                                                                                                                                                                                                                                                                                                              [z]z^z_z`zcyazbzczdzWz[l%a;L2Q0%;#1%% 4#:!v#! o&g =!R#G%K%Q#Q#y!M%U#A({!8#M!v#4#R!z -*0%O!;#K }!y!_!4#+ W#a!6!W#s$W$v#M!~ `!J :#0%P%P!i _!T#G%P#' =!3!N!% W!_!u$s$U#a!6!W#O%r#4#W!##w!0$O!0%P%q$L R!z s$w!t#a![ P#e _!4#r#s$U#a!6!W#;$_!Q#W!##w!M#O!0%r$i _!_!N#G%P#' :#h % V!Q#v#u$s$U#6#2$N%! R!4#u$% :$=$                          _!L Q#W$G%Z!S#D&s$|!Q#Q#y!t!9$[(p#[!u$R!4#y!;$Y$O#O#<!+'~ |!4#|!N#5#p$EQ?$5*>*@$W!mI)&W0L?ezfzgzR>hz                                                                                                                                                                                                                                                                                                          ",
"                                                                                                                                                                                                                                                                                                                                                                                                                                                              izjzkz7klzmzkonzsnozpz zqzX^y/n${FN!l%R!:!M!|!N%7!8*5#f!! _!Q#y!t!A$X$L%, v$~ W!4#_!N%Z!p$3!P#z!|!v#_!;${ /%#(5#G%! _!:!e A&>!Y!Y!<!-* #4#Q#v#Q%Z!t*/%G#N%y!_!u$M%u#/%#(5#s$0 4#V!) -){ O#Y!<!-*!!_!v#4#,'5#=!B&s#~ 4#R!W$M%u#/%#(5#;$4#M!R!+ -){ O#Y!W  #4#Q#M!v#Q%Z!8*A$M%W!v#_!K%-%u#/%g o&0                                                                                   v#f!{!X$J 1% #u$R!W!~ J =!0%G###0 W!V!N#+%-#')=$q#/(rzsz                                                                                                                                                                                                                                                                                                          ",
"                                                                                                                                                                                                                                                                                                                                                                                                                                                              tzuzvzwzxzyzXhuszz{zHcIz.yWa3iV:p#4$M%V!:!:!V!-%6$A(- ,'W!v#v#V! #%&Y!a!;#1%z!y!_!V!~ I ')Z!F%x!u$_!v#~ ~!g A(- ,'W!Q#:!z q$N!0%O!;#1%% R!v## s$[ #(=!R#G%u$_!|!t!~!u![(Z!k%_!v#4#!!G%V#0%O!;#K e v#R!0 t!6$6!O!R#) 4#_!K%l%;!g A(Z!O%Q#Q#_!N#G%P#' O!w#% R!M!_!# s$7!p$7!O%|!v#Q#y!t!~!g                                                                                                                               z P%5#:#n$b[|z}z~z {                                                                                                                                                                                                                                                                                                        ",
"                                                                                                                                                                                                                                                                                                                                                                                                                                                              !{#{${ul%{&{'{({ld){ypIz[l*{+{EQO#A$o&|!M!:!V!l%<!X$n$1$t!z _!v#_!-%=$p$2$%&x!|!v#4#) ;#X$=!;#q$K%_!_!i N!9#X$n$1$t!!!Q#M!V!,'=$p&2$%&l%W!v#K%M%h B&8*n!b!|!_!W!z!$&. 6!| F%!(X v#_!y!!#5$p$2$%&i v#_!W$l%k B&8*8$% _!v#W!z!$&R#6!| o$i R!v#v#W!3%5$p$#!l%W!M!Q#K%M%h B&u!b!y!Q#Q#W!##                                                                                                                                                                                                                                                                                                                                                                                                                                                              ",
"                                                                                                                                                                                                                                                                                                                                                                                                                                                                ,{-{.{/{0{1{2{3{{f-zfy[l!/4{_'#(j4H)PI!RL _! #W Y!Y!<!-*+ R!v#R!+ 9#p&/%{ -%u$4#4#;${ L%8*- +'i :!4#!!-){ O#Y!<!+' #4#v#W$f!9#p$/%<!N%K%v#W!t!?$8$p&u!t$) :!_!Q#T#j%g X$J w!e v#4#! G%3!X$/%{ ;$_!v#|!x!?$8$')u!3%L v#Q#:!X j%g p$h z!y!v#4#r#G%3!X$M#t!W$v#M!W!t!?$5$0%q&+ X Q#v#                                                                                                                                                                                                                                                                                                                                                                                                                                                                ",
"                                                                                                                                                                                                                                                                                                                                                                                                                                                                5{6{7{8{9{:{;{<{={>{?{@{A{B{~L[(- >JFEM!L Q#e A&0%O!;#K z!W!v#4#+ W#a!a!U#s$W$_!v#i %&2$p$' N!q$N#R!T#G%P#' =!3!V#x!V!v#K%G%W#a!6!W#s$W$_!V!% `!J :#0%Y$P!X Q#W!1 N%2$#(- 4$~ v#_!W$o&W#a!6!W#;$4#v#y!z!w!M#O!0%t$e v#:!R!1 N%I ')} t!|!v#_!u$o&U#6#8$J%R!M!Q#V!% `!J /%W J%i v#                                                                                                                                                                                                                                                                                                                                                                                                                                                                  ",
"                                                                                                                                                                                                                                                                                                                                                                                                                                                                C{D{4zE{F{G{IiH{I{/ncdYo}c)n& ')u!t$;$X M!:!M!o&{!p&9#V###y!v#_!;${ L%8*O G%! _!M!N#r$#!T!Y!<!+') V!v#v#Q%Z!t*0%s#N%y!v#|!N%{ /%#(5#o&]!_!R!+ +'<!Y!Y!>!A&N#v#R!# o&9#p&/%{ ;$_!_!u$-%<!| 8*/$i V!Q#V!) -){ O#Y!Y$+ R!Q#4## o&3!p$J O%|!v#v#K%N%<!/%n$-*;$T#v#R! #+'<!/%I%t$}!                                                                                                                                                                                                                                                                                                                                                                                                                                                                    ",
"                                                                                                                                                                                                                                                                                                                                                                                                                                                                        9{J{K{Wy<wL{JcYoqfAp[R:#0%P%U!e Q#L _!+ 2$')=$7$x!|!v#v#~ ~!g [(- ,'W!v#M!X f!V#0%O!. K ##V!_!# s$[ #(:#W#o&K%v#y!M%E&g A(Z!Q%v#Q#_!N#f!V#' O!;#K e v#4#W$o&W#a!a!U#) 4#v#|!x!%&n!#(g f!Q#_!4#!!G%V#0%O!, ##V!Q#v#u$o&W#a!n!o&u$v#Q#y!x!%&2$L%P%U!e 4#_!e f!V#0%;#1%                                                                                                                                                                                                                                                                                                                                                                                                                                                                      ",
"                                                                                                                                                                                                                                                                                                                                                                                                                                                                                            i)Y!Y!<!+' #4#:!v# #9#p$/%{ -%u$4#_!~ :$5$')u!t$;$L v#Q#v#Q%Z!p&9#V#% W!v#K%-%<!| #(5#f!! _!y!t!7$5$p$' N!q$X Q#Q#v#Q%Z!p$3!P#e v#_!u$-%{ L%8*O + R!v#W!+ t$#!N$O#w!;$V!_!v#_!k%Z!p$s#% W!M!Q#|!N%{ /%g G%! _!M!R!+ t$#!L%>!-*+ R!Q#M!v#Q%n$3!V#                                                                                                                                                                                                                                                                                                                                                                                                                                                                      ",
"                                                                                                                                                                                                                                                                                                                                                                                                                                                                                                               #W#a!6!W#O%! 4#v#i `!J :#0%P%U!e v#_!]!G%2$')=$7$t!W!Q#W!M%;!{!A(- ,'W!_!W!}!.$6$6#O#>!A&N#M!4#0 o&I p&Z!;!i _!v#|!t!~!g [(- t!_!v#4#!!G%V#0%:#w###W!v#R!]!o&5#p$9$t!|!Q#M!W!M%~!g B&,'W!v#M!_!N#G%P#' ;#K ##V!M!_!# o&Z!                                                                                                                                                                                                                                                                                                                                                                                                                                                                          ",
"                                                                                                                                                                                                                                                                                                                                                                                                                                                                                                                                        Y!>!A& #4#v#W$f!9#p$/%<!O%y!Q#W!t!?$8$p&g A&~ M!R!!!U!Y$/%:#J `!i v#4#! o&7!')6#} ~ 4#v#|!x!?$8$')u!,'L v#v#v#_!k%Z!p&u#% y!Q#_!W$s$U#O!- o&r#v#M!W!t!?$8$' t$;$L Q#M!Q#4#j).%9#V#% W!Q#v#u$                                                                                                                                                                                                                                                                                                                                                                                                                                                                              ",
"                                                                                                                                                                                                                                                                                                                                                                                                                                                                                                                                                    K%G%W#a!6!R#G%K%v#V!                                                                                                    { v!/%2%V!Q#Q#V!##w!0$0%P%U!e v#:!4#0 s${!=$7$l%|!v#v#|!                                                                                                                                                                                                                                                                                                                                                                                                                                                                              ",
"                                                                                                                                                                                                                                                                                                                                                                                                                                                                                                                                                                                                                                                                                    M%!!_!4#~ 2%7$0%6$.$z!V!Q#_!W$o&8$O#& N%W$_!Q#                                                                                                                                                                                                                                                                                                                                                                                                                                                                                ",
"                                                                                                                                                                                                                                                                                                                                                                                                                                                                                                                                                                                                                                                                                        4#Q#M!Q#Q%0%/%G#N%y!Q#Q#K%-%M##(5#O%0 4#                                                                                                                                                                                                                                                                                                                                                                                                                                                                                  ",
"                                                                                                                                                                                                                                                                                                                                                                                                                                                                                                                                                                                                                                                                                                                                                                                                                                                                                                                                                                                                                                                                                                                                                                                                                  ",
"                                                                                                                                                                                                                                                                                                                                                                                                                                                                                                                                                                                                                                                                                                                                                                                                                                                                                                                                                                                                                                                                                                                                                                                                                  ",
"                                                                                                                                                                                                                                                                                                                                                                                                                                                                                                                                                                                                                                                                                                                                                                                                                                                                                                                                                                                                                                                                                                                                                                                                                  "
};
