/* XPM */
static const char *Splash[] = {
"295 565 8366 2 0 0",
"   c #002A2A",
"!  c #0064B4",
"#  c #0065B4",
"$  c #0066B4",
"%  c #1158B4",
"&  c #1158B3",
"'  c #0F59B3",
"(  c #1A4D9C",
")  c #1E4689",
"*  c #1F4485",
"+  c #1E4487",
",  c #1C478F",
"-  c #194E9E",
".  c #1256B0",
"/  c #1556AD",
"0  c #1D53A4",
"1  c #275098",
"2  c #375083",
"3  c #46567D",
"4  c #49577B",
"5  c #45547A",
"6  c #3B4E7A",
"7  c #2C467B",
"8  c #1F488A",
"9  c #1453A6",
":  c #1457B4",
";  c #1F519F",
"<  c #2C487E",
"=  c #3B476A",
">  c #4B4E61",
"?  c #5D5D66",
"@  c #7D7D82",
"A  c #A0A0A3",
"B  c #A8A7AA",
"C  c #9F9EA1",
"D  c #88868B",
"E  c #646168",
"F  c #474756",
"G  c #323957",
"H  c #203D71",
"I  c #0C56B0",
"J  c #1655B2",
"K  c #214992",
"L  c #2A3A63",
"M  c #3B3E52",
"N  c #55555F",
"O  c #7D7A7E",
"P  c #B3AFAF",
"Q  c #D2CDCB",
"R  c #2844F0",
"S  c #A9A4A3",
"T  c #61595A",
"U  c #353647",
"V  c #1D407C",
"W  c #1157B4",
"X  c #234A8E",
"Y  c #354671",
"Z  c #4E4A56",
"[  c #695E5B",
"]  c #87827E",
"^  c #B0AFAB",
"_  c #8D8883",
"`  c #575256",
"a  c #2B3960",
"b  c #0D53A6",
"c  c #20488E",
"d  c #2F3853",
"e  c #504E56",
"f  c #878385",
"g  c #B1ADAC",
"h  c #CECCCB",
"i  c #C3C2BF",
"j  c #8E8B8A",
"k  c #3B3F52",
"l  c #144385",
"m  c #0953AB",
"n  c #1B52A6",
"o  c #354672",
"p  c #5D565B",
"q  c #867D76",
"r  c #BBB8B5",
"s  c #B3B2AE",
"t  c #49474F",
"u  c #1A376A",
"v  c #0E4693",
"w  c #1E4895",
"x  c #2B3F70",
"y  c #505160",
"z  c #AAA6A6",
"{  c #C6C5C2",
"|  c #525055",
"}  c #202E54",
"~  c #113B7C",
" ! c #0658B3",
"!! c #1F406D",
"#! c #293854",
"$! c #313A4F",
"%! c #333C50",
"&! c #303B51",
"'! c #2D3D58",
"(! c #284265",
")! c #214A7A",
"*! c #1D50A3",
"+! c #2C3F70",
",! c #444359",
"-! c #7F7A79",
".! c #59585A",
"/! c #252741",
"0! c #153167",
"1! c #0856AE",
"2! c #264168",
"3! c #3A3F55",
"4! c #5A5258",
"5! c #6A5F5E",
"6! c #6C6161",
"7! c #6A5F60",
"8! c #625A60",
"9! c #535361",
":! c #414F69",
";! c #2E4E78",
"<! c #1E4996",
"=! c #2C4071",
">! c #3A3D50",
"?! c #656062",
"@! c #C1BFBD",
"A! c #605F60",
"B! c #292232",
"C! c #172954",
"D! c #0952A9",
"E! c #194171",
"F! c #283550",
"G! c #373A45",
"H! c #5E5C5E",
"I! c #ADA9A9",
"J! c #CAC7C6",
"K! c #CECBCA",
"L! c #CDCACA",
"M! c #BBB7B9",
"N! c #969496",
"O! c #6F6F74",
"P! c #464851",
"Q! c #2E394E",
"R! c #214B7C",
"S! c #1A50A8",
"T! c #2B3F72",
"U! c #44445B",
"V! c #98928C",
"W! c #646262",
"X! c #2B202A",
"Y! c #17254B",
"Z! c #0950A6",
"[! c #24304C",
"]! c #3E353D",
"^! c #635B5A",
"_! c #948F8A",
"`! c #CAC7C5",
"a! c #A59F9B",
"b! c #7E746E",
"c! c #5D5758",
"d! c #394A65",
"e! c #224790",
"f! c #364774",
"g! c #505261",
"h! c #7E7A7A",
"i! c #605E5E",
"j! c #28202A",
"k! c #15264C",
"l! c #084FA4",
"m! c #133865",
"n! c #242D45",
"o! c #393840",
"p! c #6B6666",
"q! c #BAB8B7",
"r! c #C2BFBE",
"s! c #727175",
"t! c #40465A",
"u! c #2B476D",
"v! c #1752B3",
"w! c #25478E",
"x! c #333A56",
"y! c #605A5E",
"z! c #ABA7A7",
"{! c #575555",
"|! c #231B27",
"}! c #13244C",
"~! c #064FA3",
" # c #0556A1",
"!# c #0E427A",
"## c #1D273F",
"$# c #393036",
"%# c #625F5F",
"&# c #989897",
"'# c #C6C4C3",
"(# c #726C6D",
")# c #484851",
"*# c #35435C",
"+# c #244B7A",
",# c #224690",
"-# c #394671",
".# c #56535B",
"/# c #8C837C",
"0# c #C5C5C4",
"1# c #4F4D4E",
"2# c #1E1726",
"3# c #11234D",
"4# c #0650A6",
"5# c #0263B3",
"6# c #084B8F",
"7# c #123866",
"8# c #212535",
"9# c #453C3C",
":# c #807D7D",
";# c #B6B6B6",
"<# c #A39F9E",
"=# c #736E6E",
"># c #504B51",
"?# c #36435C",
"@# c #184FAC",
"A# c #2C375C",
"B# c #524D56",
"C# c #918E8D",
"D# c #C4C2BE",
"E# c #B2B2B1",
"F# c #464547",
"G# c #1A1326",
"H# c #0E2151",
"I# c #0550AA",
"J# c #0262B2",
"K# c #0A4684",
"L# c #14335C",
"M# c #222633",
"N# c #4F4948",
"O# c #9C9A99",
"P# c #B5B2B2",
"Q# c #484852",
"R# c #34405D",
"S# c #22497B",
"T# c #264A92",
"U# c #484654",
"V# c #776C66",
"W# c #BDBBB7",
"X# c #CACBCA",
"Y# c #959594",
"Z# c #3C3B3F",
"[# c #15152F",
"]# c #0A255B",
"^# c #0351AE",
"_# c #0261B2",
"`# c #0B3F78",
"a# c #152D50",
"b# c #232731",
"c# c #56524F",
"d# c #AFADAB",
"e# c #A3A09E",
"f# c #726D6E",
"g# c #4D464F",
"h# c #323F5C",
"i# c #1653B4",
"j# c #38466D",
"k# c #757175",
"l# c #A7A29E",
"m# c #A4A4A3",
"n# c #6D6D6B",
"o# c #303037",
"p# c #101C41",
"q# c #062D6E",
"r# c #0253B2",
"s# c #0260B1",
"t# c #0B376A",
"u# c #162541",
"v# c #24262E",
"w# c #5A5655",
"x# c #B7B7B6",
"y# c #B4B1B0",
"z# c #6F6867",
"{# c #434450",
"|# c #304569",
"}# c #234C9A",
"~# c #4D4F61",
" $ c #9F9B9A",
"!$ c #CFCECB",
"#$ c #848483",
"$$ c #4E4C4B",
"%$ c #252633",
"&$ c #0B2659",
"'$ c #033986",
"($ c #0260B0",
")$ c #0B3262",
"*$ c #16213A",
"+$ c #25262D",
",$ c #5B5857",
"-$ c #B9B9B8",
".$ c #9F9B96",
"/$ c #6C6869",
"0$ c #454555",
"1$ c #2A4267",
"2$ c #204592",
"3$ c #344270",
"4$ c #67666D",
"5$ c #C6C3C1",
"6$ c #C3C3C2",
"7$ c #6C6C69",
"8$ c #363433",
"9$ c #1B1E30",
":$ c #073475",
";$ c #0148A2",
"<$ c #0B3060",
"=$ c #171F38",
">$ c #27272D",
"?$ c #5C5956",
"@$ c #B5B4B2",
"A$ c #ADAAA9",
"B$ c #60595A",
"C$ c #333A4D",
"D$ c #1850AC",
"E$ c #2A3C6F",
"F$ c #49475C",
"G$ c #8F8C8D",
"H$ c #A09F9E",
"I$ c #555451",
"J$ c #282527",
"K$ c #131A36",
"L$ c #04408D",
"M$ c #0B3161",
"N$ c #162038",
"O$ c #26272D",
"P$ c #575451",
"Q$ c #A8A7A6",
"R$ c #89827C",
"S$ c #545359",
"T$ c #1A4DA9",
"U$ c #2D4887",
"V$ c #46495D",
"W$ c #77706F",
"X$ c #898987",
"Y$ c #565554",
"Z$ c #353233",
"[$ c #1E1D29",
"]$ c #0B214F",
"^$ c #024EA9",
"_$ c #0160B2",
"`$ c #073469",
"a$ c #122240",
"b$ c #23252D",
"c$ c #4A4744",
"d$ c #878685",
"e$ c #BCBCBC",
"f$ c #A39F9D",
"g$ c #4F5362",
"h$ c #283C72",
"i$ c #4C4C61",
"j$ c #858286",
"k$ c #B9B6B2",
"l$ c #9D9D9B",
"m$ c #5A5A58",
"n$ c #302D2E",
"o$ c #1E181E",
"p$ c #101832",
"q$ c #043980",
"r$ c #0060B3",
"s$ c #023873",
"t$ c #0F274B",
"u$ c #272936",
"v$ c #433C3C",
"w$ c #625F5E",
"x$ c #959493",
"y$ c #7A7679",
"z$ c #3F4860",
"{$ c #264979",
"|$ c #234EA0",
"}$ c #363D5B",
"~$ c #645B5E",
" % c #A8A8A6",
"!% c #737371",
"#% c #434241",
"$% c #232127",
"%% c #141022",
"&% c #091B44",
"'% c #02489E",
"(% c #013E7E",
")% c #0D2D57",
"*% c #242939",
"+% c #3A3334",
",% c #4D4A49",
"-% c #80807E",
".% c #9F9C9C",
"/% c #524C53",
"0% c #2F3E5B",
"1% c #1E49A0",
"2% c #31457D",
"3% c #474957",
"4% c #7A746F",
"5% c #C9C6C4",
"6% c #7B7A79",
"7% c #454343",
"8% c #2E2A2D",
"9% c #1B1A28",
":% c #0C1334",
";% c #042460",
"<% c #00488F",
"=% c #093567",
">% c #1C2438",
"?% c #2E272A",
"@% c #3F3C3B",
"A% c #757573",
"B% c #CBC9C8",
"C% c #665E5C",
"D% c #363C4B",
"E% c #263F7D",
"F% c #454866",
"G% c #706D71",
"H% c #A4A099",
"I% c #A8A7A7",
"J% c #595756",
"K% c #2B282A",
"L% c #1E1A22",
"M% c #121831",
"N% c #072258",
"O% c #013787",
"P% c #0054A4",
"Q% c #063F7A",
"R% c #132039",
"S% c #221C21",
"T% c #333130",
"U% c #646462",
"V% c #B7B7B7",
"W% c #8C8680",
"X% c #57575D",
"Y% c #3A4B6A",
"Z% c #1D4EAC",
"[% c #2E375B",
"]% c #5E565B",
"^% c #AEABAA",
"_% c #9A9A9A",
"`% c #656564",
"a% c #3F3E3D",
"b% c #242126",
"c% c #130F20",
"d% c #081943",
"e% c #033E8E",
"f% c #044C90",
"g% c #0B1D3D",
"h% c #17111B",
"i% c #292628",
"j% c #4E4E4C",
"k% c #878887",
"l% c #BABCBB",
"m% c #C6C4C0",
"n% c #939191",
"o% c #53525C",
"p% c #2B4163",
"q% c #294A97",
"r% c #3F4154",
"s% c #776D65",
"t% c #6C6D6C",
"u% c #3D3C3C",
"v% c #2C282A",
"w% c #1B1B28",
"x% c #0C1435",
"y% c #032562",
"z% c #014FAF",
"{% c #0254A0",
"|% c #05234D",
"}% c #101326",
"~% c #252429",
" & c #3F3D3B",
"!& c #5F605E",
"#& c #939593",
"$& c #BBB7B5",
"%& c #6A6060",
"&& c #384054",
"'& c #214496",
"(& c #3A4678",
")& c #5C5B66",
"*& c #928C86",
"+& c #A1A1A1",
",& c #525250",
"-& c #2E2C2D",
".& c #1E161E",
"/& c #11152F",
"0& c #062862",
"1& c #013D91",
"2& c #0159A8",
"3& c #023169",
"4& c #0E2142",
"5& c #262834",
"6& c #373333",
"7& c #40403E",
"8& c #737472",
"9& c #CECCCA",
":& c #7E7773",
";& c #4A4C56",
"<& c #324B71",
"=& c #283B74",
">& c #4C4C65",
"?& c #838186",
"@& c #B6B4B0",
"A& c #7A7A79",
"B& c #3B3A39",
"C& c #222127",
"D& c #131227",
"E& c #081A48",
"F& c #033B8B",
"G& c #0050B4",
"H& c #1951AA",
"I& c #1F4FA2",
"J& c #234D9C",
"K& c #1F4C9A",
"L& c #184DA1",
"M& c #0F51AE",
"N& c #005DB1",
"O& c #00448A",
"P& c #0A3263",
"Q& c #1E273A",
"R& c #2A2527",
"S& c #2D2C2C",
"T& c #5B5B5A",
"U& c #C7C7C7",
"V& c #A4A09D",
"W& c #706E72",
"X& c #454A5E",
"Y& c #26456F",
"Z& c #393F5B",
"[& c #6D6566",
"]& c #C1BEBD",
"^& c #A2A3A1",
"_& c #4C4B4B",
"`& c #221E26",
"a& c #131933",
"b& c #08245A",
"c& c #023787",
"d& c #1A51AB",
"e& c #264A8E",
"f& c #354978",
"g& c #464E69",
"h& c #515264",
"i& c #555565",
"j& c #51505E",
"k& c #42455C",
"l& c #2A365D",
"m& c #183978",
"n& c #0B4FAB",
"o& c #034C90",
"p& c #082344",
"q& c #141622",
"r& c #262529",
"s& c #434242",
"t& c #878686",
"u& c #B9B6B5",
"v& c #686060",
"w& c #364055",
"x& c #2E498C",
"y& c #5E5F6A",
"z& c #948F89",
"{& c #8A8988",
"|& c #545251",
"}& c #2C282F",
"~& c #110E27",
" ' c #071B4E",
"!' c #02439B",
"#' c #1A50AF",
"$' c #263F78",
"%' c #363D5C",
"&' c #494C5A",
"'' c #706F73",
"(' c #ABA8A8",
")' c #CAC6C5",
"*' c #CDCAC9",
"+' c #CCC9C6",
",' c #A4A09E",
"-' c #554F52",
".' c #272A41",
"/' c #1A336A",
"0' c #0E4193",
"1' c #005AAB",
"2' c #01346C",
"3' c #0A2142",
"4' c #1C202E",
"5' c #2D282C",
"6' c #5A5959",
"7' c #C6C7C6",
"8' c #8B857F",
"9' c #565860",
":' c #374F76",
";' c #3B4A79",
"<' c #848389",
"=' c #B8B6B1",
">' c #61605E",
"?' c #322F2F",
"@' c #1E1D2B",
"A' c #091946",
"B' c #022C74",
"C' c #1C4EAA",
"D' c #2D498B",
"E' c #434661",
"F' c #5D5558",
"G' c #A5A19A",
"H' c #D1D0CB",
"I' c #77716C",
"J' c #3E3A41",
"K' c #272A4A",
"L' c #15326F",
"M' c #0851B2",
"N' c #0A5AB0",
"O' c #1058AB",
"P' c #1259AA",
"Q' c #115AAB",
"R' c #0E5BAE",
"S' c #0060B4",
"T' c #00498F",
"U' c #073365",
"V' c #141E36",
"W' c #211B23",
"X' c #474645",
"Y' c #A2A3A2",
"Z' c #AFACA7",
"[' c #7B7B7E",
"]' c #495065",
"^' c #274673",
"_' c #1B4DAE",
"`' c #494F6B",
"a' c #B2B0B1",
"b' c #ADADAD",
"c' c #7A7978",
"d' c #494745",
"e' c #292528",
"f' c #141833",
"g' c #05347D",
"h' c #0149AA",
"i' c #1750AF",
"j' c #293968",
"k' c #444356",
"l' c #6D696E",
"m' c #979390",
"n' c #C2C0BD",
"o' c #9B9996",
"p' c #635F61",
"q' c #362E3D",
"r' c #192956",
"s' c #0C4FAB",
"t' c #0A59AF",
"u' c #184485",
"v' c #1E3B71",
"w' c #203B6F",
"x' c #213E72",
"y' c #1E4582",
"z' c #19529F",
"{' c #125BB3",
"|' c #03488D",
"}' c #081C40",
"~' c #16111F",
" ( c #3A3739",
"!( c #6A6968",
"#( c #9C9C9B",
"$( c #ADAAA8",
"%( c #5E575B",
"&( c #2E3C58",
"'( c #254C9F",
"(( c #5A5B6A",
")( c #CDCBC9",
"*( c #848482",
"+( c #51504E",
",( c #363333",
"-( c #201E28",
".( c #0C1C47",
"/( c #0247A3",
"0( c #274A91",
"1( c #474656",
"2( c #6B605C",
"3( c #9B9692",
"4( c #B0B0AE",
"5( c #797575",
"6( c #3F3339",
"7( c #1B2649",
"8( c #0D4DA6",
"9( c #0B53A2",
":( c #164989",
";( c #2F4169",
"<( c #4C526D",
"=( c #52576F",
">( c #4B506A",
"?( c #3E4B6F",
"@( c #2D4A7E",
"A( c #1F4E91",
"B( c #1558A8",
"C( c #0156A6",
"D( c #022759",
"E( c #0D1731",
"F( c #2D2B32",
"G( c #464443",
"H( c #767674",
"I( c #CBC7C4",
"J( c #726661",
"K( c #3C4151",
"L( c #1A49AC",
"M( c #30498C",
"N( c #6D6D76",
"O( c #676765",
"P( c #383535",
"Q( c #292226",
"R( c #1A1A2F",
"S( c #072868",
"T( c #1C4FAB",
"U( c #3B4465",
"V( c #777376",
"W( c #A4A19D",
"X( c #B9B9B6",
"Y( c #827E7D",
"Z( c #43383E",
"[( c #1C274A",
"]( c #0E4CA1",
"^( c #0B509F",
"_( c #183364",
"`( c #292D48",
"a( c #51535C",
"b( c #9C9B9F",
"c( c #ACAAAD",
"d( c #918F93",
"e( c #6F6E75",
"f( c #464752",
"g( c #2E3852",
"h( c #264375",
"i( c #1C5099",
"j( c #005BB0",
"k( c #013E81",
"l( c #092957",
"m( c #20212F",
"n( c #626260",
"o( c #ACADAC",
"p( c #857D79",
"q( c #4F525D",
"r( c #204396",
"s( c #3F4D7E",
"t( c #89888C",
"u( c #C2C2C2",
"v( c #8E8D8D",
"w( c #4D4C4B",
"x( c #272428",
"y( c #1C1725",
"z( c #111A3F",
"{( c #04388B",
"|( c #1B50AF",
"}( c #2E498B",
"~( c #5A5661",
" ) c #B2B1AE",
"!) c #7B7776",
"#) c #41373D",
"$) c #1D284B",
"%) c #0E4AA0",
"&) c #0753A9",
"') c #124181",
"() c #232640",
")) c #403035",
"*) c #827C78",
"+) c #D3CFC9",
",) c #C7C2BE",
"-) c #A69F9A",
".) c #7F746D",
"/) c #5C5558",
"0) c #3F445C",
"1) c #294575",
"2) c #165CAD",
"3) c #0053A4",
"4) c #053D7A",
"5) c #161D33",
"6) c #2F2C2E",
"7) c #52514F",
"8) c #858685",
"9) c #B7B8B8",
":) c #A5A19D",
";) c #717177",
"<) c #355179",
"=) c #253F82",
">) c #4F5576",
"?) c #ACABAC",
"@) c #8C8C8C",
"A) c #565655",
"B) c #363535",
"C) c #1F1E28",
"D) c #11122F",
"E) c #081F58",
"F) c #024CB1",
"G) c #273E76",
"H) c #44455E",
"I) c #858182",
"J) c #9C9B98",
"K) c #656161",
"L) c #392F36",
"M) c #1C274B",
"N) c #0D499F",
"O) c #0559B1",
"P) c #0E3F82",
"Q) c #1A2F59",
"R) c #2A2A37",
"S) c #5B5251",
"T) c #C1BDBC",
"U) c #A9A4A4",
"V) c #5E595D",
"W) c #353A4E",
"X) c #254C86",
"Y) c #02509B",
"Z) c #0E1E3F",
"[) c #302D33",
"]) c #454141",
"^) c #525151",
"_) c #838383",
"`) c #9E9D9E",
"a) c #44526C",
"b) c #2C3D6F",
"c) c #5E5D6D",
"d) c #C7C6C5",
"e) c #BEBEBD",
"f) c #6B6B69",
"g) c #383737",
"h) c #272226",
"i) c #17192D",
"j) c #0A1B4B",
"k) c #022E7B",
"l) c #254B99",
"m) c #383C5A",
"n) c #5E5457",
"o) c #ADABA8",
"p) c #868683",
"q) c #4E4B4C",
"r) c #2F2630",
"s) c #18254D",
"t) c #0B4AA3",
"u) c #0757AB",
"v) c #123267",
"w) c #212640",
"x) c #333137",
"y) c #6D6965",
"z) c #605B5E",
"{) c #38486C",
"|) c #1B57A3",
"}) c #005BAF",
"~) c #082957",
" * c #262734",
"!* c #353032",
"#* c #3A3837",
"$* c #666665",
"%* c #BBBBBB",
"&* c #BCB9B8",
"'* c #4F5565",
"(* c #274EA7",
")* c #3C425E",
"** c #736B69",
"+* c #888886",
",* c #555552",
"-* c #302F32",
".* c #1A1625",
"/* c #0C1942",
"0* c #05398A",
"1* c #1651B3",
"2* c #27407C",
"3* c #424664",
"4* c #65626B",
"5* c #94908E",
"6* c #BBBCBA",
"7* c #666563",
"8* c #323036",
"9* c #1F1D34",
":* c #11275D",
";* c #064EB0",
"<* c #0855A8",
"=* c #152B55",
">* c #282332",
"?* c #3F3C3F",
"@* c #787774",
"A* c #BFBCBB",
"B* c #67666F",
"C* c #36466B",
"D* c #224B86",
"E* c #115CAF",
"F* c #03468A",
"G* c #0C1D39",
"H* c #1E1B24",
"I* c #393738",
"J* c #B1B1B2",
"K* c #D0CECB",
"L* c #65666D",
"M* c #1D49AE",
"N* c #374D90",
"O* c #5A5C6D",
"P* c #918B84",
"Q* c #878785",
"R* c #535250",
"S* c #3A3737",
"T* c #232432",
"U* c #0E1940",
"V* c #03276B",
"W* c #014EB3",
"X* c #184EB2",
"Y* c #28468D",
"Z* c #3A3E56",
"[* c #696261",
"]* c #B4B1AF",
"^* c #A7A8A7",
"_* c #727270",
"`* c #433F3D",
"a* c #242737",
"b* c #132A5D",
"c* c #083989",
"d* c #0854A7",
"e* c #17274E",
"f* c #281E2A",
"g* c #3D3A3C",
"h* c #757674",
"i* c #BEBCBA",
"j* c #5D575A",
"k* c #303A52",
"l* c #234D8D",
"m* c #1559B0",
"n* c #022858",
"o* c #101B34",
"p* c #2D2E37",
"q* c #3E3B3C",
"r* c #454443",
"s* c #767675",
"t* c #919194",
"u* c #435578",
"v* c #214397",
"w* c #435082",
"x* c #777783",
"y* c #ADA8A2",
"z* c #6F6F6C",
"{* c #3D3B3A",
"|* c #2A2529",
"}* c #181E37",
"~* c #092662",
" + c #013890",
"!+ c #224492",
"#+ c #3B4774",
"$+ c #5C5B63",
"%+ c #928C84",
"&+ c #7C7D7A",
"'+ c #4A4847",
"(+ c #31292D",
")+ c #1C2440",
"*+ c #0D377F",
"++ c #0448AA",
",+ c #0754A8",
"-+ c #152752",
".+ c #251D2D",
"/+ c #383438",
"0+ c #706F6D",
"1+ c #857C76",
"2+ c #4F4E56",
"3+ c #364973",
"4+ c #204E92",
"5+ c #003A7C",
"6+ c #0B2852",
"7+ c #202536",
"8+ c #2D282B",
"9+ c #61605F",
":+ c #B0AFB0",
";+ c #525970",
"<+ c #274675",
"=+ c #263F83",
">+ c #525778",
"?+ c #99989D",
"@+ c #CDCAC4",
"A+ c #B5B5B4",
"B+ c #5E5E5B",
"C+ c #333131",
"D+ c #1E1620",
"E+ c #0E1A3E",
"F+ c #053B8B",
"G+ c #1A50B1",
"H+ c #2B3B6A",
"I+ c #545160",
"J+ c #959293",
"K+ c #C8C5C1",
"L+ c #BCBCBB",
"M+ c #61615E",
"N+ c #353235",
"O+ c #221A29",
"P+ c #13214C",
"Q+ c #08469E",
"R+ c #0655AC",
"S+ c #112C5F",
"T+ c #202037",
"U+ c #312F34",
"V+ c #6A6764",
"W+ c #B7B4B0",
"X+ c #848183",
"Y+ c #4F4C5C",
"Z+ c #2B3F69",
"[+ c #195AAA",
"]+ c #0055A8",
"^+ c #053F7C",
"_+ c #0E1D36",
"`+ c #201A1E",
"a+ c #393635",
"b+ c #5E5D5A",
"c+ c #8F908D",
"d+ c #BEBFBD",
"e+ c #CAC8C6",
"f+ c #615C65",
"g+ c #2D3F61",
"h+ c #2B3B70",
"i+ c #5E5C6E",
"j+ c #B3B1B3",
"k+ c #959494",
"l+ c #4F4E4B",
"m+ c #2C2B30",
"n+ c #151228",
"o+ c #071C50",
"p+ c #0248A8",
"q+ c #274C9B",
"r+ c #3C415A",
"s+ c #6D6563",
"t+ c #BCB8B6",
"u+ c #979794",
"v+ c #484443",
"w+ c #262530",
"x+ c #171E41",
"y+ c #0B2C6D",
"z+ c #0450B4",
"{+ c #0455AF",
"|+ c #0D316C",
"}+ c #1A2343",
"~+ c #2B2A33",
" , c #5D5957",
"!, c #C6C6C4",
"#, c #AEAAA8",
"$, c #685D5D",
"%, c #3B4056",
"&, c #265394",
"', c #024F99",
"(, c #052046",
"), c #181927",
"*, c #3D3B3E",
"+, c #585654",
",, c #979896",
"-, c #6D6363",
"., c #353F57",
"/, c #214CAC",
"0, c #32395D",
"1, c #696164",
"2, c #C6C2C2",
"3, c #737271",
"4, c #413D3D",
"5, c #111B42",
"6, c #03276C",
"7, c #1F4699",
"8, c #37477A",
"9, c #565662",
":, c #89847E",
";, c #676764",
"<, c #302729",
"=, c #1D2139",
">, c #0E3475",
"?, c #0545A2",
"@, c #0355B1",
"A, c #08367A",
"B, c #132650",
"C, c #242734",
"D, c #4A4645",
"E, c #9E9D9C",
"F, c #CCC9C7",
"G, c #837C78",
"H, c #51525B",
"I, c #364971",
"J, c #204C8F",
"K, c #0156A9",
"L, c #022C64",
"M, c #172544",
"N, c #41414A",
"O, c #524D4B",
"P, c #747474",
"Q, c #756D69",
"R, c #3E4557",
"S, c #284CA5",
"T, c #3D415A",
"U, c #766C67",
"V, c #CACAC9",
"W, c #5A5958",
"X, c #312B2F",
"Y, c #21243B",
"Z, c #0C2560",
"[, c #01358C",
"], c #273D79",
"^, c #4A4B66",
"_, c #7D7B7F",
"`, c #B1AEA8",
"a, c #A9A9A7",
"b, c #474646",
"c, c #1F1C2D",
"d, c #132552",
"e, c #07449C",
"f, c #044392",
"g, c #0D3168",
"h, c #1E2338",
"i, c #393134",
"j, c #ABA9A4",
"k, c #787678",
"l, c #4A4B5E",
"m, c #2A416F",
"n, c #1758AA",
"o, c #005CB4",
"p, c #013D84",
"q, c #123260",
"r, c #343949",
"s, c #3E3C3B",
"t, c #676766",
"u, c #89827D",
"v, c #535763",
"w, c #345488",
"x, c #2F4FA2",
"y, c #4E5267",
"z, c #867E77",
"{, c #B9BAB9",
"|, c #4B4A49",
"}, c #201721",
"~, c #131A3E",
" - c #063381",
"!- c #0047AF",
"#- c #2F395D",
"$- c #60595D",
"%- c #B3B0AF",
"&- c #9B9B99",
"'- c #666462",
"(- c #34333A",
")- c #142450",
"*- c #09327B",
"+- c #0257B4",
",- c #094389",
"-- c #17203E",
".- c #291E24",
"/- c #5F5D5D",
"0- c #B2AEAD",
"1- c #62595B",
"2- c #323A54",
"3- c #215199",
"4- c #0254A8",
"5- c #0A407E",
"6- c #17233B",
"7- c #2C2528",
"8- c #6F706D",
"9- c #B6B7B6",
":- c #A8A29D",
";- c #72747D",
"<- c #41567E",
"=- c #1C4AB4",
">- c #395099",
"?- c #626476",
"@- c #98928B",
"A- c #A1A1A0",
"B- c #434244",
"C- c #161024",
"D- c #0A194A",
"E- c #03409D",
"F- c #214FAB",
"G- c #3F4357",
"H- c #776E67",
"I- c #BABAB9",
"J- c #6D6C6A",
"K- c #24273C",
"L- c #0D3177",
"M- c #0442A2",
"N- c #064EA1",
"O- c #112550",
"P- c #1E182A",
"Q- c #494649",
"R- c #B0AFAF",
"S- c #7F746E",
"T- c #484956",
"U- c #304E85",
"V- c #1C55A6",
"W- c #054C95",
"X- c #081D40",
"Y- c #1F1C27",
"Z- c #4A494A",
"[- c #6B6B68",
"]- c #C2BDB9",
"^- c #8D8D93",
"_- c #4C5976",
"`- c #214297",
"a- c #475385",
"b- c #82828D",
"c- c #B8B3AD",
"d- c #70706F",
"e- c #3E3E44",
"f- c #141B41",
"g- c #05246A",
"h- c #344A86",
"i- c #6E6E77",
"j- c #A39F98",
"k- c #AAA9A8",
"l- c #777574",
"m- c #494545",
"n- c #2A2936",
"o- c #14295F",
"p- c #054AAE",
"q- c #1551B1",
"r- c #204A9B",
"s- c #214690",
"t- c #1C418B",
"u- c #144494",
"v- c #094DAD",
"w- c #004DA8",
"x- c #004498",
"y- c #004294",
"z- c #004395",
"{- c #004496",
"|- c #004597",
"}- c #00489D",
"~- c #004DA6",
" . c #0052B0",
"!. c #0357B4",
"#. c #083C83",
"$. c #122B59",
"%. c #31313C",
"&. c #626161",
"'. c #969796",
"(. c #B4B0AD",
"). c #807F84",
"*. c #4B5069",
"+. c #274476",
",. c #0355AB",
"-. c #062C64",
".. c #1C2645",
"/. c #43434C",
"0. c #555251",
"1. c #6E6D6D",
"2. c #ADABAD",
"3. c #5C5D6E",
"4. c #2B426C",
"5. c #283E83",
"6. c #56597C",
"7. c #A2A1A7",
"8. c #777876",
"9. c #444342",
":. c #2F2F3E",
";. c #0E2864",
"<. c #02348F",
"=. c #4A5171",
">. c #B2AFAE",
"?. c #C7C7C6",
"@. c #747371",
"A. c #403C3D",
"B. c #2B212A",
"C. c #192144",
"D. c #08419B",
"E. c #1D4597",
"F. c #2E3960",
"G. c #4C5062",
"H. c #505262",
"I. c #3F4051",
"J. c #2D324E",
"K. c #1A2857",
"L. c #0C327A",
"M. c #004197",
"N. c #00296E",
"O. c #001C53",
"P. c #001744",
"Q. c #00133B",
"R. c #001238",
"S. c #001337",
"T. c #001438",
"U. c #00153B",
"V. c #001740",
"W. c #001B4A",
"X. c #002765",
"Y. c #003F8F",
"Z. c #0051AE",
"[. c #084692",
"]. c #1D223B",
"^. c #373435",
"_. c #686865",
"`. c #B8B8B6",
"a. c #BBB8B7",
"b. c #655D5E",
"c. c #323B54",
"d. c #1B58A8",
"e. c #04438F",
"f. c #173A6F",
"g. c #3A4154",
"h. c #4A4445",
"i. c #605E5D",
"j. c #C6C5C5",
"k. c #C7C4C3",
"l. c #6A6263",
"m. c #333F59",
"n. c #2B3C79",
"o. c #5F5E78",
"p. c #B5B3B7",
"q. c #CACBC9",
"r. c #6D6E6A",
"s. c #393736",
"t. c #25273B",
"u. c #0B327C",
"v. c #0141A8",
"w. c #234FAA",
"x. c #57596E",
"y. c #CDC9C7",
"z. c #A3A2A1",
"{. c #585554",
"|. c #2B2930",
"}. c #1C1C37",
"~. c #102760",
" / c #1F4695",
"!/ c #324174",
"#/ c #57515A",
"$/ c #837B76",
"%/ c #867F79",
"&/ c #6D6560",
"'/ c #4F464A",
"(/ c #2A2137",
")/ c #132357",
"*/ c #084CAC",
"+/ c #004EAD",
",/ c #003D8E",
"-/ c #002968",
"./ c #01113D",
"// c #030624",
"0/ c #07071B",
"1/ c #0A0918",
"2/ c #0B0A18",
"3/ c #0B0A17",
"4/ c #0A0A18",
"5/ c #090818",
"6/ c #06071E",
"7/ c #010E35",
"8/ c #002661",
"9/ c #003A84",
":/ c #004EA9",
";/ c #0656B4",
"</ c #0A54AF",
"=/ c #0C54AE",
">/ c #0B56B4",
"?/ c #0452AB",
"@/ c #13254E",
"A/ c #28272E",
"B/ c #514E4C",
"C/ c #92918F",
"D/ c #7D746E",
"E/ c #464957",
"F/ c #25549A",
"G/ c #0353AA",
"H/ c #124687",
"I/ c #2D3750",
"J/ c #40383B",
"K/ c #636160",
"L/ c #B4B5B4",
"M/ c #D0CDCB",
"N/ c #736864",
"O/ c #3A4255",
"P/ c #2F3C70",
"Q/ c #676374",
"R/ c #C6C4C5",
"S/ c #C3C3C1",
"T/ c #72716F",
"U/ c #3E3A3C",
"V/ c #1E213B",
"W/ c #083B93",
"X/ c #2C4995",
"Y/ c #62626F",
"Z/ c #A09F9D",
"[/ c #6B6866",
"]/ c #413B3A",
"^/ c #242638",
"_/ c #13295F",
"`/ c #08378B",
"a/ c #204799",
"b/ c #2B355B",
"c/ c #4C4853",
"d/ c #979392",
"e/ c #AFACA8",
"f/ c #7F7A7B",
"g/ c #3E333F",
"h/ c #17244E",
"i/ c #0C4BA8",
"j/ c #002C6F",
"k/ c #010F30",
"l/ c #030922",
"m/ c #090A1C",
"n/ c #15151E",
"o/ c #1E1D20",
"p/ c #201F21",
"q/ c #1F1E21",
"r/ c #1C1B20",
"s/ c #19171D",
"t/ c #11111C",
"u/ c #04081F",
"v/ c #000D2F",
"w/ c #00245F",
"x/ c #003A87",
"y/ c #0A4494",
"z/ c #10397E",
"{/ c #153673",
"|/ c #183671",
"}/ c #194185",
"~/ c #0F56B4",
" 0 c #0D3573",
"!0 c #212436",
"#0 c #90908F",
"$0 c #9C9791",
"%0 c #676871",
"&0 c #315089",
"'0 c #0B4E97",
"(0 c #162542",
")0 c #31282C",
"*0 c #6C6A68",
"+0 c #9A9B9A",
",0 c #BEBFBF",
"-0 c #7A716C",
".0 c #42495A",
"/0 c #343E67",
"00 c #6E686F",
"10 c #B3B3B1",
"20 c #747471",
"30 c #454144",
"40 c #1B2142",
"50 c #0743A6",
"60 c #1F47A5",
"70 c #394B88",
"80 c #797880",
"90 c #7B7A77",
":0 c #474443",
";0 c #30292E",
"<0 c #1C2444",
"=0 c #0D3684",
">0 c #0447B0",
"?0 c #1F479A",
"@0 c #344478",
"A0 c #4D4955",
"B0 c #776D66",
"C0 c #8B8787",
"D0 c #443840",
"E0 c #1A244B",
"F0 c #0D4BA8",
"G0 c #004EAB",
"H0 c #002D6E",
"I0 c #011640",
"J0 c #040B23",
"K0 c #080816",
"L0 c #0D0D19",
"M0 c #14141C",
"N0 c #202022",
"O0 c #292826",
"P0 c #2C2A27",
"Q0 c #2B2A28",
"R0 c #2A2927",
"S0 c #282626",
"T0 c #252323",
"U0 c #1D1C1F",
"V0 c #0E0E18",
"W0 c #050516",
"X0 c #02051E",
"Y0 c #010B30",
"Z0 c #00225C",
"[0 c #004BA1",
"]0 c #08489B",
"^0 c #12336C",
"_0 c #223059",
"`0 c #394162",
"a0 c #414664",
"b0 c #34436A",
"c0 c #204C91",
"d0 c #1354AA",
"e0 c #084493",
"f0 c #192341",
"g0 c #292229",
"h0 c #3A3738",
"i0 c #C2C2C1",
"j0 c #BDBAB6",
"k0 c #89898E",
"l0 c #3D507A",
"m0 c #155AB0",
"n0 c #0653A3",
"o0 c #0A2249",
"p0 c #282532",
"q0 c #6A6768",
"r0 c #7F7F7E",
"s0 c #88807C",
"t0 c #515665",
"u0 c #254DB0",
"v0 c #383F5F",
"w0 c #716A69",
"x0 c #9B9A99",
"y0 c #767570",
"z0 c #504D4F",
"{0 c #1D264D",
"|0 c #0649B2",
"}0 c #224495",
"~0 c #485484",
" 1 c #BBBABA",
"!1 c #686765",
"#1 c #363337",
"$1 c #231E30",
"%1 c #142455",
"&1 c #0845A6",
"'1 c #1C4AA6",
"(1 c #2A3661",
")1 c #4D4854",
"*1 c #848081",
"+1 c #B4B1AD",
",1 c #AAA9A7",
"-1 c #736D6E",
".1 c #3E3038",
"/1 c #1C254C",
"01 c #0D4CAB",
"11 c #004DAD",
"21 c #003882",
"31 c #001945",
"41 c #040A22",
"51 c #0B0D1B",
"61 c #13131A",
"71 c #1D1E20",
"81 c #242424",
"91 c #282828",
":1 c #2C2C2B",
";1 c #2D2D2C",
"<1 c #2D2C2B",
"=1 c #2C2B2A",
">1 c #292828",
"?1 c #201F22",
"@1 c #0D0D15",
"A1 c #040515",
"B1 c #01051E",
"C1 c #00143E",
"D1 c #003375",
"E1 c #004AA1",
"F1 c #084497",
"G1 c #10336F",
"H1 c #1C2544",
"I1 c #3E3B48",
"J1 c #77757C",
"K1 c #858488",
"L1 c #5C5C65",
"M1 c #363B55",
"N1 c #233C6E",
"O1 c #1652A9",
"P1 c #0454AF",
"Q1 c #102451",
"R1 c #1E192C",
"S1 c #2F2C31",
"T1 c #5B5A58",
"U1 c #A4A3A2",
"V1 c #AEACAC",
"W1 c #4A536F",
"X1 c #1B59AB",
"Y1 c #0456AC",
"Z1 c #0A2F66",
"[1 c #252E4B",
"]1 c #5B595E",
"^1 c #636261",
"_1 c #888888",
"`1 c #9E9792",
"a1 c #686A75",
"b1 c #3B5685",
"c1 c #2A4CAA",
"d1 c #41445F",
"e1 c #79706B",
"f1 c #ABABAB",
"g1 c #848382",
"h1 c #6E6C68",
"i1 c #4F4D53",
"j1 c #1B2A5A",
"k1 c #274082",
"l1 c #555A7B",
"m1 c #B9B7B8",
"n1 c #9D9C9C",
"o1 c #565351",
"p1 c #2A2934",
"q1 c #1A1F43",
"r1 c #0E2B70",
"s1 c #1A4CAF",
"t1 c #2D4689",
"u1 c #444152",
"v1 c #70645E",
"w1 c #B1AFAB",
"x1 c #8D8B89",
"y1 c #575357",
"z1 c #332B3C",
"{1 c #1A2A59",
"|1 c #0B4FAF",
"}1 c #012357",
"~1 c #020E2A",
" 2 c #080815",
"!2 c #1D1D1F",
"#2 c #272725",
"$2 c #2C2C29",
"%2 c #2E2E2D",
"&2 c #2E2E2E",
"'2 c #2D2D2D",
"(2 c #2E2F2D",
")2 c #2A2A28",
"*2 c #19191B",
"+2 c #0D0E15",
",2 c #040514",
"-2 c #000A27",
".2 c #001D4C",
"/2 c #00367C",
"02 c #0C3C87",
"12 c #172B5B",
"22 c #242232",
"32 c #534946",
"42 c #8F8884",
"52 c #574C4D",
"62 c #393D55",
"72 c #26498A",
"82 c #1653AD",
"92 c #0A306E",
":2 c #161F42",
";2 c #272531",
"<2 c #494444",
"=2 c #7E7C7B",
">2 c #C6C2C0",
"?2 c #565969",
"@2 c #2257A2",
"A2 c #0358B2",
"B2 c #08387B",
"C2 c #22365F",
"D2 c #53535A",
"E2 c #514F4F",
"F2 c #777777",
"G2 c #B2ABA5",
"H2 c #7C7D85",
"I2 c #435880",
"J2 c #2E4EA7",
"K2 c #4B4F66",
"L2 c #837B74",
"M2 c #9B9B9A",
"N2 c #5D5A57",
"O2 c #42424F",
"P2 c #162D6A",
"Q2 c #2D3C6B",
"R2 c #625F6C",
"S2 c #AAAAA9",
"T2 c #757372",
"U2 c #443E3E",
"V2 c #23263B",
"W2 c #132D68",
"X2 c #083B95",
"Y2 c #243D7E",
"Z2 c #414565",
"[2 c #6B686F",
"]2 c #9C9893",
"^2 c #BFBFBD",
"_2 c #6D6A66",
"`2 c #3A3841",
"a2 c #25294C",
"b2 c #143273",
"c2 c #00245B",
"d2 c #010D2C",
"e2 c #040A1D",
"f2 c #0D0F19",
"g2 c #1C1C20",
"h2 c #262524",
"i2 c #292927",
"j2 c #2C2C2A",
"k2 c #2D2E2E",
"l2 c #2D2D2B",
"m2 c #282926",
"n2 c #1D1E1F",
"o2 c #0A0B16",
"p2 c #000418",
"q2 c #002357",
"r2 c #103F89",
"s2 c #1C305E",
"t2 c #292A37",
"u2 c #605955",
"v2 c #837E7C",
"w2 c #57565E",
"x2 c #3A415F",
"y2 c #23417C",
"z2 c #1356B3",
"{2 c #054598",
"|2 c #0F336D",
"}2 c #20233A",
"~2 c #362C30",
" 3 c #514E4D",
"!3 c #868785",
"#3 c #CFCBCA",
"$3 c #5F606B",
"%3 c #2B5295",
"&3 c #0259B4",
"'3 c #053E89",
"(3 c #1F3D6E",
")3 c #54555D",
"*3 c #4B4948",
"+3 c #707170",
",3 c #C3BDB8",
"-3 c #8E8E96",
".3 c #4B5C81",
"/3 c #344FA3",
"03 c #575A70",
"13 c #8E8780",
"23 c #898988",
"33 c #5F5D5B",
"43 c #585351",
"53 c #424354",
"63 c #133279",
"73 c #224EAF",
"83 c #353D60",
"93 c #6D6567",
":3 c #8C8C8A",
";3 c #565253",
"<3 c #352D32",
"=3 c #0D3A89",
">3 c #1E4DA9",
"?3 c #2F3A61",
"@3 c #575059",
"A3 c #949191",
"B3 c #959392",
"C3 c #504A49",
"D3 c #27293C",
"E3 c #193069",
"F3 c #0E3F94",
"G3 c #0048A4",
"H3 c #00153F",
"I3 c #040416",
"J3 c #0B0D17",
"K3 c #15171C",
"L3 c #232324",
"M3 c #2B2B29",
"N3 c #2C2D2D",
"O3 c #302F2D",
"P3 c #272727",
"Q3 c #14141A",
"R3 c #080814",
"S3 c #030315",
"T3 c #00163D",
"U3 c #004AA0",
"V3 c #11408A",
"W3 c #1D3260",
"X3 c #2B2D39",
"Y3 c #635E5A",
"Z3 c #534B53",
"[3 c #323C5F",
"]3 c #1F51A0",
"^3 c #09438F",
"_3 c #182448",
"`3 c #271F2A",
"a3 c #363435",
"b3 c #6A6B68",
"c3 c #737379",
"d3 c #355189",
"e3 c #1D52A5",
"f3 c #04489D",
"g3 c #19427E",
"h3 c #474A56",
"i3 c #4E4B4A",
"j3 c #757574",
"k3 c #CAC9C9",
"l3 c #D1CBC6",
"m3 c #9C9CA2",
"n3 c #515F7F",
"o3 c #3B509B",
"p3 c #686B7D",
"q3 c #9F9A92",
"r3 c #737373",
"s3 c #4D4B4A",
"t3 c #5F5857",
"u3 c #4F5369",
"v3 c #143D90",
"w3 c #2D4EA4",
"x3 c #484B64",
"y3 c #7F7772",
"z3 c #6F6D6C",
"{3 c #383439",
"|3 c #241F32",
"}3 c #142658",
"~3 c #0749AC",
" 4 c #1C49A6",
"!4 c #324885",
"#4 c #4D5061",
"$4 c #807B77",
"%4 c #797875",
"&4 c #484549",
"'4 c #2F2B3E",
"(4 c #1C2B5C",
")4 c #0E46A1",
"*4 c #002F78",
"+4 c #010C2D",
",4 c #090916",
"-4 c #18181B",
".4 c #222321",
"/4 c #272826",
"04 c #2A2B2A",
"14 c #2B2C2B",
"24 c #2F2F2F",
"34 c #2E2D2D",
"44 c #302E2E",
"54 c #2D2B2B",
"64 c #262424",
"74 c #1A191D",
"84 c #010C2B",
"94 c #002F72",
":4 c #0C4293",
";4 c #183369",
"<4 c #272A3C",
"=4 c #57504F",
">4 c #565964",
"?4 c #374A77",
"@4 c #1F4993",
"A4 c #0553AE",
"B4 c #0E2D66",
"C4 c #1A203D",
"D4 c #2A2B32",
"E4 c #575553",
"F4 c #9D9B9E",
"G4 c #48567C",
"H4 c #224989",
"I4 c #115AB2",
"J4 c #0E4A95",
"K4 c #292F43",
"L4 c #5B5957",
"M4 c #888784",
"N4 c #B9B8B7",
"O4 c #ACABAE",
"P4 c #59617A",
"Q4 c #28467A",
"R4 c #1E45AE",
"S4 c #425499",
"T4 c #797B8A",
"U4 c #AFAAA2",
"V4 c #6D6F6E",
"W4 c #484745",
"X4 c #5F5756",
"Y4 c #515670",
"Z4 c #1344A2",
"[4 c #1D4AB1",
"]4 c #3A5096",
"^4 c #636575",
"_4 c #99938C",
"`4 c #5C5855",
"a4 c #2B2A35",
"b4 c #1A224B",
"c4 c #0E2E78",
"d4 c #273B77",
"e4 c #4E4E68",
"f4 c #8D8A8E",
"g4 c #C1BEB9",
"h4 c #93908F",
"i4 c #4B413D",
"j4 c #2C2D3E",
"k4 c #1B3876",
"l4 c #0E44A2",
"m4 c #011B53",
"n4 c #04071F",
"o4 c #1F2121",
"p4 c #292A27",
"q4 c #2B2B2B",
"r4 c #2C2C2C",
"s4 c #2E2D2C",
"t4 c #2E2C29",
"u4 c #242223",
"v4 c #0F0F18",
"w4 c #011C51",
"x4 c #0051B2",
"y4 c #10428D",
"z4 c #212642",
"{4 c #3C2F31",
"|4 c #625E5C",
"}4 c #989895",
"~4 c #585358",
" 5 c #2C3A5C",
"!5 c #1C53A8",
"#5 c #074192",
"$5 c #113167",
"%5 c #222639",
"&5 c #413A3A",
"'5 c #6E6B6B",
"(5 c #A3A3A2",
")5 c #BEBCBD",
"*5 c #595D74",
"+5 c #294376",
",5 c #1858AF",
"-5 c #0C53A5",
".5 c #252E47",
"/5 c #615E5E",
"05 c #868582",
"15 c #9F9E9F",
"25 c #C0C0C2",
"35 c #BEBCBE",
"45 c #636377",
"55 c #2C4370",
"65 c #1F43A8",
"75 c #455595",
"85 c #828291",
"95 c #B8B3AB",
":5 c #767876",
";5 c #4E4D4C",
"<5 c #564E4F",
"=5 c #454B6A",
">5 c #1147AC",
"?5 c #1F46A3",
"@5 c #42538E",
"A5 c #777885",
"B5 c #ADA7A1",
"C5 c #AEADAD",
"D5 c #514C49",
"E5 c #262839",
"F5 c #152A63",
"G5 c #0A3890",
"H5 c #2F3961",
"I5 c #605961",
"J5 c #B1ADAD",
"K5 c #6E6B6C",
"L5 c #38313B",
"M5 c #222E55",
"N5 c #11459D",
"O5 c #004AAB",
"P5 c #021443",
"Q5 c #09091B",
"R5 c #14131A",
"S5 c #232423",
"T5 c #2B2C29",
"U5 c #2F2E2C",
"V5 c #262526",
"W5 c #14141B",
"X5 c #080A1B",
"Y5 c #021543",
"Z5 c #004DAA",
"[5 c #0C4CA4",
"]5 c #1B2A55",
"^5 c #2C2534",
"_5 c #403C3F",
"`5 c #73726E",
"a5 c #71665E",
"b5 c #3C3F51",
"c5 c #284E96",
"d5 c #0450AE",
"e5 c #0D3E83",
"f5 c #1C253F",
"g5 c #332A2E",
"h5 c #524F4F",
"i5 c #63616E",
"j5 c #2E4169",
"k5 c #1C58AC",
"l5 c #0C56AB",
"m5 c #273554",
"n5 c #696768",
"o5 c #878682",
"p5 c #8F8F8F",
"q5 c #AEAEB0",
"r5 c #C8C4C6",
"s5 c #696575",
"t5 c #30416B",
"u5 c #20419E",
"v5 c #49558E",
"w5 c #8A8A96",
"x5 c #C0BBB3",
"y5 c #C9C9C9",
"z5 c #5B5858",
"{5 c #473D42",
"|5 c #2F365B",
"}5 c #0E48B2",
"~5 c #224297",
" 6 c #4A5688",
"!6 c #8B8A96",
"#6 c #C0BBB6",
"$6 c #969594",
"%6 c #453E3E",
"&6 c #21273F",
"'6 c #11347C",
"(6 c #0742A9",
")6 c #1E4DAD",
"*6 c #3A3F59",
"+6 c #706865",
",6 c #C0BFBD",
"-6 c #57565A",
".6 c #272F53",
"/6 c #17367A",
"06 c #00439B",
"16 c #031238",
"26 c #100F1B",
"36 c #1A191E",
"46 c #252525",
"56 c #2C2D2C",
"66 c #282728",
"76 c #1B1A1F",
"86 c #10101B",
"96 c #031339",
":6 c #00489F",
";6 c #0753B3",
"<6 c #123678",
"=6 c #202A50",
">6 c #31303B",
"?6 c #5E5957",
"@6 c #87817B",
"A6 c #53535F",
"B6 c #364A7B",
"C6 c #1F4B99",
"D6 c #09499A",
"E6 c #172245",
"F6 c #291E26",
"G6 c #3F3B3B",
"H6 c #777774",
"I6 c #6B6365",
"J6 c #333E5B",
"K6 c #2157A7",
"L6 c #0B55AD",
"M6 c #293D66",
"N6 c #777679",
"O6 c #918D88",
"P6 c #848383",
"Q6 c #9E9EA0",
"R6 c #CCCACD",
"S6 c #6C6772",
"T6 c #334266",
"U6 c #21419A",
"V6 c #4C588C",
"W6 c #91919B",
"X6 c #C6C2BA",
"Y6 c #C3C3C3",
"Z6 c #8E8E8C",
"[6 c #615D5E",
"]6 c #3C3239",
"^6 c #212A53",
"_6 c #24418F",
"`6 c #515A85",
"a6 c #9C9BA4",
"b6 c #D1CCC6",
"c6 c #82807F",
"d6 c #3B3235",
"e6 c #1D2544",
"f6 c #0E3C91",
"g6 c #264CA0",
"h6 c #878077",
"i6 c #A4A2A0",
"j6 c #464651",
"k6 c #1C3573",
"l6 c #0F419E",
"m6 c #003B8B",
"n6 c #041030",
"o6 c #15141C",
"p6 c #201F20",
"q6 c #272626",
"r6 c #2B2B2A",
"s6 c #292929",
"t6 c #212022",
"u6 c #16141C",
"v6 c #051232",
"w6 c #0A459C",
"x6 c #163672",
"y6 c #272B41",
"z6 c #4A4244",
"{6 c #9A9897",
"|6 c #76767B",
"}6 c #464D6B",
"~6 c #25437E",
" 7 c #0650A9",
"!7 c #122553",
"#7 c #211B2B",
"$7 c #333032",
"%7 c #6B6966",
"&7 c #736865",
"'7 c #3A4057",
"(7 c #2657A4",
")7 c #0A55AF",
"*7 c #263F6E",
"+7 c #747379",
",7 c #8B8581",
"-7 c #787676",
".7 c #929294",
"/7 c #6F686F",
"07 c #364262",
"17 c #22429B",
"27 c #4E5A8E",
"37 c #9596A0",
"47 c #CAC7BF",
"57 c #BDBDBB",
"67 c #8C8D8A",
"77 c #342C34",
"87 c #192450",
"97 c #27418B",
":7 c #585E86",
";7 c #A9A9AF",
"<7 c #716E6E",
"=7 c #32282F",
">7 c #1B254A",
"?7 c #0C44A1",
"@7 c #304D92",
"A7 c #71717D",
"B7 c #A7A19B",
"C7 c #AFAFAD",
"D7 c #7B7877",
"E7 c #383B50",
"F7 c #144297",
"G7 c #0049AB",
"H7 c #00327C",
"I7 c #05102C",
"J7 c #19191D",
"K7 c #242423",
"L7 c #292928",
"M7 c #2A2929",
"N7 c #252424",
"O7 c #05122F",
"P7 c #003D8A",
"Q7 c #0F489B",
"R7 c #202B50",
"S7 c #352C36",
"T7 c #6D6B6B",
"U7 c #5A5767",
"V7 c #2B3D6B",
"W7 c #0554B1",
"X7 c #0E2F68",
"Y7 c #1C223E",
"Z7 c #2D2D33",
"[7 c #615F5B",
"]7 c #7A6F6B",
"^7 c #42475D",
"_7 c #2B57A2",
"`7 c #0856B0",
"a7 c #203C6F",
"b7 c #5F5F6A",
"c7 c #746F6D",
"d7 c #696868",
"e7 c #8A8C8C",
"f7 c #71696C",
"g7 c #38435F",
"h7 c #23419A",
"i7 c #505B8F",
"j7 c #999AA4",
"k7 c #CECBC3",
"l7 c #B6B7B4",
"m7 c #8E8E8A",
"n7 c #636061",
"o7 c #342C38",
"p7 c #172454",
"q7 c #294087",
"r7 c #5D6184",
"s7 c #B4B3B7",
"t7 c #646163",
"u7 c #2C232F",
"v7 c #192652",
"w7 c #0A49AD",
"x7 c #394F8A",
"y7 c #8C8C94",
"z7 c #C2BDB7",
"{7 c #8F8F8C",
"|7 c #59575A",
"}7 c #2C3557",
"~7 c #0E4AAE",
" 8 c #00429F",
"!8 c #002B6F",
"#8 c #060F28",
"$8 c #1D1C1E",
"%8 c #272624",
"&8 c #2A2A2B",
"'8 c #2A2A29",
"(8 c #1C1C1F",
")8 c #06112C",
"*8 c #00357E",
"+8 c #004DAC",
",8 c #0952B2",
"-8 c #183169",
".8 c #262740",
"/8 c #525054",
"08 c #675F65",
"18 c #303B5E",
"28 c #0B367A",
"38 c #18274F",
"48 c #292A34",
"58 c #595552",
"68 c #BFBFBE",
"78 c #837A75",
"88 c #4C5164",
"98 c #2F579E",
":8 c #0657B2",
";8 c #1E3F75",
"<8 c #716B69",
"=8 c #605F5E",
">8 c #828382",
"?8 c #746A6B",
"@8 c #3B445E",
"A8 c #244097",
"B8 c #525B8C",
"C8 c #9D9DA7",
"D8 c #D2CEC7",
"E8 c #B0B0AF",
"F8 c #92918D",
"G8 c #6B6769",
"H8 c #3B3444",
"I8 c #1D2A5E",
"J8 c #2C4082",
"K8 c #616482",
"L8 c #BBBABD",
"M8 c #5E5B5D",
"N8 c #292335",
"O8 c #18285D",
"P8 c #094BB4",
"Q8 c #425287",
"R8 c #7A7673",
"S8 c #424049",
"T8 c #233568",
"U8 c #003C95",
"V8 c #002464",
"W8 c #060E25",
"X8 c #1F1D1F",
"Y8 c #2A2A2A",
"Z8 c #292726",
"[8 c #00449F",
"]8 c #103D8C",
"^8 c #1D3163",
"_8 c #484950",
"`8 c #6D6665",
"a8 c #363E57",
"b8 c #1E55AD",
"c8 c #093C87",
"d8 c #152D5C",
"e8 c #262835",
"f8 c #514B48",
"g8 c #AFAEAC",
"h8 c #908982",
"i8 c #595E6D",
"j8 c #345798",
"k8 c #1B56B2",
"l8 c #0557B4",
"m8 c #204681",
"n8 c #71737F",
"o8 c #807A76",
"p8 c #5D5B59",
"q8 c #787878",
"r8 c #766B6A",
"s8 c #3D465D",
"t8 c #243F95",
"u8 c #535B8C",
"v8 c #A09FA9",
"w8 c #D5D1C9",
"x8 c #C8C9CA",
"y8 c #949490",
"z8 c #706E70",
"{8 c #3E394B",
"|8 c #1E2E64",
"}8 c #2D407D",
"~8 c #65667F",
" 9 c #C2C1C2",
"!9 c #58575A",
"#9 c #25243E",
"$9 c #152C68",
"%9 c #495482",
"&9 c #6B6662",
"'9 c #343441",
"(9 c #1C387A",
")9 c #00368C",
"*9 c #001E5A",
"+9 c #070D23",
",9 c #201E20",
"-9 c #2A2826",
".9 c #2B2B2C",
"/9 c #2B2A2A",
"09 c #1F1E20",
"19 c #060E27",
"29 c #002768",
"39 c #003F98",
"49 c #0B4AAB",
"59 c #163C81",
"69 c #3E3F4D",
"79 c #8F8D8B",
"89 c #7D7771",
"99 c #464C5E",
":9 c #2453A4",
";9 c #074395",
"<9 c #11326A",
"=9 c #222638",
">9 c #494240",
"?9 c #A19F9D",
"@9 c #9D968F",
"A9 c #666A77",
"B9 c #395794",
"C9 c #1C52AB",
"D9 c #214A87",
"E9 c #787B87",
"F9 c #857E7A",
"G9 c #595755",
"H9 c #727272",
"I9 c #776D6B",
"J9 c #3F475E",
"K9 c #254096",
"L9 c #545C8D",
"M9 c #A1A0AA",
"N9 c #D5D1CB",
"O9 c #A7A7A5",
"P9 c #979690",
"Q9 c #747274",
"R9 c #3E3B50",
"S9 c #1D2E67",
"T9 c #2F3F79",
"U9 c #68677D",
"V9 c #C9C8C9",
"W9 c #CECDCB",
"X9 c #555358",
"Y9 c #21274C",
"Z9 c #123077",
"[9 c #51587B",
"]9 c #B9B7B5",
"^9 c #625B58",
"_9 c #2D3146",
"`9 c #163F94",
"a9 c #002E7E",
"b9 c #01164C",
"c9 c #0A0C20",
"d9 c #2A2A27",
"e9 c #1F1F22",
"f9 c #060E26",
"g9 c #002665",
"h9 c #003F96",
"i9 c #0F4BA3",
"j9 c #30344C",
"k9 c #666263",
"l9 c #A29C96",
"m9 c #6B6E7B",
"n9 c #2E5396",
"o9 c #054DAB",
"p9 c #0E3C80",
"q9 c #1D263E",
"r9 c #3F3738",
"s9 c #8E8C8B",
"t9 c #AEA8A1",
"u9 c #777A86",
"v9 c #40598F",
"w9 c #1D4EA0",
"x9 c #214B8B",
"y9 c #747885",
"z9 c #807A75",
"{9 c #545350",
"|9 c #6E6F6E",
"}9 c #7A6F6C",
"~9 c #41485E",
" : c #244299",
"!: c #535D8E",
"#: c #D5D0C8",
"$: c #C1C0C0",
"%: c #A5A4A2",
"&: c #989690",
"': c #767477",
"(: c #3F3D56",
"): c #1E306C",
"*: c #314079",
"+: c #6B6A7F",
",: c #525056",
"-: c #1E2853",
".: c #10327E",
"/: c #555A76",
"0: c #A9A7A4",
"1: c #59524F",
"2: c #29304A",
"3: c #1246A6",
"4: c #002872",
"5: c #021140",
"6: c #0D0E20",
"7: c #070F27",
"8: c #002766",
"9: c #0A53B3",
":: c #25345E",
";: c #464449",
"<: c #7D7B77",
"=: c #8B8C96",
">: c #38548E",
"?: c #0C438F",
"@: c #1B2643",
"A: c #382F33",
"B: c #BBB3AD",
"C: c #858590",
"D: c #465A8B",
"E: c #1F4B98",
"F: c #245097",
"G: c #7A7F8D",
"H: c #857F79",
"I: c #545250",
"J: c #6D6D6D",
"K: c #7A706E",
"L: c #42495F",
"M: c #24429B",
"N: c #525C90",
"O: c #9E9DA7",
"P: c #D3CEC6",
"Q: c #C1C1C1",
"R: c #A5A5A3",
"S: c #3F3E58",
"T: c #1D306F",
"U: c #31407A",
"V: c #6B6B80",
"W: c #C8C5C3",
"X: c #514F56",
"Y: c #1E2957",
"Z: c #103382",
"[: c #575A75",
"]: c #564D4C",
"^: c #272F4B",
"_: c #1049AC",
"`: c #002469",
"a: c #030E37",
"b: c #0E0F1F",
"c: c #222122",
"d: c #202021",
"e: c #080F27",
"f: c #012667",
"g: c #003F97",
"h: c #20376B",
"i: c #3B3A42",
"j: c #736F6B",
"k: c #999BA2",
"l: c #3D568C",
"m: c #0B4595",
"n: c #1B2645",
"o: c #352B30",
"p: c #777575",
"q: c #BFB9B3",
"r: c #8A8A94",
"s: c #495B8B",
"t: c #214B97",
"u: c #24529A",
"v: c #7B818F",
"w: c #868079",
"x: c #6C6C6C",
"y: c #424960",
"z: c #23419D",
"{: c #505B91",
"|: c #9A9AA4",
"}: c #CFCBC2",
"~: c #C2C3C3",
" ; c #A6A7A5",
"!; c #989691",
"#; c #757378",
"$; c #3E3E59",
"%; c #1C3070",
"&; c #314179",
"'; c #C7C5C2",
"(; c #504F55",
"); c #1F2A59",
"*; c #113484",
"+; c #575C76",
",; c #A09D9D",
"-; c #544A4C",
".; c #262D4D",
"/; c #104AB0",
"0; c #001D5F",
"1; c #03082D",
"2; c #0F101E",
"3; c #232323",
"4; c #090E27",
"5; c #012666",
"6; c #003E96",
"7; c #1D3A74",
"8; c #383942",
"9; c #716C67",
":; c #40578D",
";; c #0B4799",
"<; c #1A2647",
"=; c #33292F",
">; c #737170",
"?; c #C2BCB5",
"@; c #8C8E97",
"A; c #4B5D8E",
"B; c #224B99",
"C; c #235099",
"D; c #787D8C",
"E; c #837C76",
"F; c #52504E",
"G; c #6B6B6B",
"H; c #79716E",
"I; c #41495F",
"J; c #4F5A90",
"K; c #9696A1",
"L; c #CBC7BF",
"M; c #C6C7C8",
"N; c #A9A9A8",
"O; c #96948F",
"P; c #716F72",
"Q; c #3C3A52",
"R; c #1B2E6B",
"S; c #CCCBCC",
"T; c #C8C6C4",
"U; c #515056",
"V; c #575C75",
"W; c #262C4D",
"X; c #001A58",
"Y; c #040526",
"Z; c #10111D",
"[; c #242324",
"]; c #2B2A29",
"^; c #012566",
"_; c #003D96",
"`; c #1B3C7B",
"a; c #353843",
"b; c #6E6A65",
"c; c #42588F",
"d; c #0B489B",
"e; c #1A2548",
"f; c #32272E",
"g; c #C3BEB6",
"h; c #8E9099",
"i; c #4C5F8E",
"j; c #234C99",
"k; c #225098",
"l; c #767A8A",
"m; c #817974",
"n; c #524F4D",
"o; c #79706D",
"p; c #22409C",
"q; c #4C588D",
"r; c #91919C",
"s; c #ADADAB",
"t; c #908E89",
"u; c #696667",
"v; c #383345",
"w; c #1A2961",
"x; c #303E79",
"y; c #69677D",
"z; c #CAC8C9",
"{; c #CACAC7",
"|; c #525257",
"}; c #1F2A56",
"~; c #113381",
" < c #575A74",
"!< c #A4A09F",
"#< c #272E4B",
"$< c #1148AE",
"%< c #004AB3",
"&< c #001954",
"'< c #040522",
"(< c #12121D",
")< c #252425",
"*< c #2C2A29",
"+< c #2D2D2E",
",< c #211F22",
"-< c #090E28",
".< c #1A3D7E",
"/< c #343643",
"0< c #6E6863",
"1< c #425990",
"2< c #0B489A",
"3< c #31282E",
"4< c #706D6D",
"5< c #C2BDB6",
"6< c #8E8F99",
"7< c #4D5E8E",
"8< c #225099",
"9< c #757A88",
":< c #807972",
";< c #52504D",
"<< c #786E6B",
"=< c #40475E",
">< c #2140A1",
"?< c #4A5690",
"@< c #8B8B97",
"A< c #C0BCB4",
"B< c #90908A",
"C< c #676464",
"D< c #372F3D",
"E< c #1A2659",
"F< c #2E3D7B",
"G< c #66647D",
"H< c #C4C2C4",
"I< c #CDCDCA",
"J< c #555558",
"K< c #21274D",
"L< c #113078",
"M< c #545976",
"N< c #ABA7A6",
"O< c #5A524F",
"P< c #292F49",
"Q< c #1244A5",
"R< c #0049B1",
"S< c #001852",
"T< c #050520",
"U< c #13131E",
"V< c #262425",
"W< c #1A3C7D",
"X< c #6E6864",
"Y< c #42598F",
"Z< c #32292F",
"[< c #726F6F",
"]< c #C0BBB4",
"^< c #8B8D97",
"_< c #4B5E8E",
"`< c #224F97",
"a< c #817A74",
"b< c #54514F",
"c< c #6E6D6E",
"d< c #3E465E",
"e< c #1F42AA",
"f< c #455597",
"g< c #828492",
"h< c #B8B4AC",
"i< c #989793",
"j< c #6C6868",
"k< c #372F39",
"l< c #192453",
"m< c #2C3E7F",
"n< c #61627E",
"o< c #585759",
"p< c #23223E",
"q< c #132969",
"r< c #50577C",
"s< c #B4B2B0",
"t< c #5F5956",
"u< c #2C3046",
"v< c #153E94",
"w< c #0048B0",
"x< c #001851",
"y< c #14141E",
"z< c #252426",
"{< c #201E22",
"|< c #080E28",
"}< c #003E97",
"~< c #1B3B77",
" = c #363743",
"!= c #706A66",
"#= c #40588E",
"$= c #1A2646",
"%= c #342A2F",
"&= c #757473",
"'= c #BEB7B0",
"(= c #888993",
")= c #485C8E",
"*= c #204B9B",
"+= c #234B8F",
",= c #777B89",
"-= c #555351",
".= c #6E6E6E",
"/= c #746C6C",
"0= c #3C4560",
"1= c #1E43B2",
"2= c #41539C",
"3= c #7A7B8C",
"4= c #B0ABA3",
"5= c #C1C1C0",
"6= c #6B6868",
"7= c #3A3139",
"8= c #1C2651",
"9= c #293E82",
":= c #5C5F7F",
";= c #B1B1B5",
"<= c #5B5A5B",
"== c #262034",
">= c #15265D",
"?= c #4C5581",
"@= c #BFBCBE",
"A= c #BEBEBB",
"B= c #65615D",
"C= c #303243",
"D= c #183781",
"E= c #0047AE",
"F= c #252526",
"G= c #1F1E22",
"H= c #1E376B",
"I= c #3A3A42",
"J= c #736E6B",
"K= c #9C9DA5",
"L= c #3E578E",
"M= c #0C4493",
"N= c #1B2544",
"O= c #372D31",
"P= c #7B7A78",
"Q= c #B8B0AA",
"R= c #82828E",
"S= c #455A90",
"T= c #1F4C9F",
"U= c #234988",
"V= c #777A87",
"W= c #837D7A",
"X= c #585655",
"Y= c #717171",
"Z= c #736B6D",
"[= c #3A4461",
"]= c #3B50A1",
"^= c #6A6C80",
"_= c #A19B93",
"`= c #C8C8C7",
"a= c #898A88",
"b= c #5F5D5C",
"c= c #484043",
"d= c #2F375C",
"e= c #1047B4",
"f= c #263E8B",
"g= c #555B83",
"h= c #A2A2A8",
"i= c #656364",
"j= c #2C232E",
"k= c #192350",
"l= c #0A44AA",
"m= c #415088",
"n= c #A09EA3",
"o= c #73716D",
"p= c #3B3B43",
"q= c #203165",
"r= c #0047AC",
"s= c #00184F",
"t= c #060620",
"u= c #16161F",
"v= c #1E1E21",
"w= c #070E27",
"x= c #002568",
"y= c #003C98",
"z= c #0A4EAD",
"{= c #232F52",
"|= c #464447",
"}= c #7D7D7A",
"~= c #888A94",
" > c #365493",
"!> c #044BAD",
"#> c #0D3A82",
"$> c #1C243F",
"%> c #3C3336",
"&> c #888584",
"'> c #A8A19B",
"(> c #717482",
")> c #3E5793",
"*> c #1D4EA7",
"+> c #234682",
",> c #777985",
"-> c #86807C",
".> c #364263",
"/> c #334BA3",
"0> c #53566D",
"1> c #8A847D",
"2> c #CACACA",
"3> c #6B6D6D",
"4> c #6A6160",
"5> c #5C617E",
"6> c #1747B1",
"7> c #22419A",
"8> c #4C578B",
"9> c #8F8F99",
":> c #C4C0B8",
";> c #7A7776",
"<> c #372D32",
"=> c #1C2449",
">> c #0C3D9C",
"?> c #344B90",
"@> c #757681",
"A> c #AAA7A0",
"B> c #575455",
"C> c #2C304D",
"D> c #0E45A7",
"E> c #0044A9",
"F> c #00174E",
"G> c #06061F",
"H> c #18181F",
"I> c #1E1D21",
"J> c #060E28",
"K> c #00276A",
"L> c #003F9A",
"M> c #0C459C",
"N> c #2C3047",
"O> c #5F5C5B",
"P> c #959592",
"Q> c #9B948E",
"R> c #646674",
"S> c #2D5199",
"T> c #054197",
"U> c #0F306C",
"V> c #202439",
"W> c #453D3E",
"X> c #999796",
"Y> c #948D86",
"Z> c #5D6171",
"[> c #365497",
"]> c #1B52B1",
"^> c #24437D",
"_> c #7E8089",
"`> c #908B86",
"a> c #6A6867",
"b> c #818081",
"c> c #CCC9CA",
"d> c #6B6873",
"e> c #314269",
"f> c #2E49A8",
"g> c #474A65",
"h> c #7E7772",
"i> c #656566",
"j> c #474545",
"k> c #726A68",
"l> c #676B84",
"m> c #1944A7",
"n> c #1F43A7",
"o> c #435392",
"p> c #7A7B89",
"q> c #B0ABA4",
"r> c #8C8A89",
"s> c #40363A",
"t> c #1F2443",
"u> c #0F358A",
"v> c #2A4A9C",
"w> c #595A6B",
"x> c #908983",
"y> c #ACACAB",
"z> c #787474",
"{> c #383848",
"|> c #133A89",
"}> c #07061F",
"~> c #060F29",
" ? c #064BB0",
"!? c #113B85",
"#? c #353646",
"$? c #797573",
"%? c #867D77",
"&? c #4E5163",
"'? c #2751A1",
"(? c #083A8A",
")? c #122B5E",
"*? c #232636",
"+? c #4C4645",
",? c #A8A6A5",
"-? c #867F7A",
".? c #4F5467",
"/? c #31549B",
"0? c #0852B4",
"1? c #254077",
"2? c #7E7F87",
"3? c #928E88",
"4? c #898989",
"5? c #C6C3C3",
"6? c #676676",
"7? c #2E426E",
"8? c #294BB3",
"9? c #3F4462",
":? c #77706B",
";? c #4C4B49",
"<? c #69625F",
"=? c #5B5D73",
">? c #183C93",
"?? c #394D98",
"@? c #606174",
"A? c #969089",
"B? c #A1A09F",
"C? c #4A4344",
"D? c #23263D",
"E? c #122D70",
"F? c #083A9E",
"G? c #224CAE",
"H? c #414359",
"I? c #796F68",
"J? c #A4A2A1",
"K? c #46454E",
"L? c #1B2A5E",
"M? c #0E368C",
"N? c #0044AA",
"O? c #00174D",
"P? c #181820",
"Q? c #29292A",
"R? c #2B2B2D",
"S? c #2C2C2D",
"T? c #282725",
"U? c #06102A",
"V? c #003077",
"W? c #0047A7",
"X? c #0B3E93",
"Y? c #173067",
"Z? c #41414B",
"[? c #989795",
"]? c #3E4258",
"^? c #2054AE",
"_? c #0B357E",
"`? c #172752",
"a? c #272834",
"b? c #56514E",
"c? c #B9B8B6",
"d? c #7B726E",
"e? c #434960",
"f? c #2C55A3",
"g? c #0A51B1",
"h? c #273C6B",
"i? c #77777C",
"j? c #8E8B85",
"k? c #7A7A78",
"l? c #949595",
"m? c #BCBABB",
"n? c #616378",
"o? c #2B4274",
"p? c #393F63",
"q? c #726B69",
"r? c #7C7C7B",
"s? c #67615D",
"t? c #555668",
"u? c #193786",
"v? c #304BA2",
"w? c #4C4F66",
"x? c #837D76",
"y? c #B7B7B5",
"z? c #56514F",
"{? c #282838",
"|? c #172557",
"}? c #0B3086",
"~? c #31375B",
" @ c #655C5F",
"!@ c #BDBABA",
"#@ c #272743",
"$@ c #094AB4",
"%@ c #0045AA",
"&@ c #07071F",
"'@ c #191920",
"(@ c #262626",
")@ c #06112B",
"*@ c #00337B",
"+@ c #123374",
",@ c #20294B",
"-@ c #4D4D51",
".@ c #685E5E",
"/@ c #333957",
"0@ c #0550B3",
"1@ c #0E2D6C",
"2@ c #1B2141",
"3@ c #2C2B33",
"4@ c #5F5C59",
"5@ c #CAC9C7",
"6@ c #746A69",
"7@ c #3B425D",
"8@ c #2755A8",
"9@ c #0D52AF",
":@ c #2A385E",
";@ c #757375",
"<@ c #8F8D87",
"=@ c #868684",
">@ c #B1AFB2",
"?@ c #5C6079",
"@@ c #294279",
"A@ c #353C67",
"B@ c #6E676D",
"C@ c #8D8D8C",
"D@ c #696765",
"E@ c #6C6662",
"F@ c #555564",
"G@ c #1B357F",
"H@ c #2A4CB0",
"I@ c #404461",
"J@ c #78706B",
"K@ c #63615D",
"L@ c #2E2D35",
"M@ c #1C1D3E",
"N@ c #0E276C",
"O@ c #2A386F",
"P@ c #565265",
"Q@ c #9B999B",
"R@ c #363039",
"S@ c #212A50",
"T@ c #103C93",
"U@ c #0046AA",
"V@ c #07081F",
"W@ c #1A1B21",
"X@ c #252626",
"Y@ c #272625",
"Z@ c #00347E",
"[@ c #004BAD",
"]@ c #0C459E",
"^@ c #1B2953",
"_@ c #2B2632",
"`@ c #5A5A59",
"a@ c #5C545E",
"b@ c #2C3760",
"c@ c #064DAC",
"d@ c #112453",
"e@ c #1F192B",
"f@ c #302D32",
"g@ c #70676A",
"h@ c #363F5F",
"i@ c #2255AC",
"j@ c #1051AC",
"k@ c #2D3350",
"l@ c #757172",
"m@ c #93928F",
"n@ c #B1B1B1",
"o@ c #A3A3A7",
"p@ c #555E7C",
"q@ c #30396E",
"r@ c #686271",
"s@ c #C6C3C6",
"t@ c #A0A0A0",
"u@ c #716E69",
"v@ c #55555E",
"w@ c #1C306E",
"x@ c #373D62",
"y@ c #6E6667",
"z@ c #6F6F6B",
"{@ c #373538",
"|@ c #241D30",
"}@ c #142258",
"~@ c #0744B1",
" A c #233D8C",
"!A c #444A74",
"#A c #74737B",
"$A c #A9A59E",
"%A c #90908E",
"&A c #494140",
"'A c #292A3E",
"(A c #182F6E",
")A c #0B3B9B",
"*A c #0045A9",
"+A c #191A21",
",A c #262727",
"-A c #282625",
".A c #06112D",
"/A c #003582",
"0A c #004CB1",
"1A c #0845A7",
"2A c #13367A",
"3A c #24253E",
"4A c #3C3133",
"5A c #797876",
"6A c #8A888D",
"7A c #4D4D68",
"8A c #263B76",
"9A c #08459B",
":A c #152044",
";A c #261B23",
"<A c #3B3638",
"=A c #747372",
">A c #68646E",
"?A c #303F68",
"@A c #1D55B0",
"AA c #124DA4",
"BA c #31344A",
"CA c #747170",
"DA c #979795",
"EA c #A6A6A6",
"FA c #CAC6BF",
"GA c #95969B",
"HA c #4E5B7E",
"IA c #2B3A7A",
"JA c #5F5D77",
"KA c #B5B4B8",
"LA c #797873",
"MA c #575457",
"NA c #1F2652",
"OA c #303A6B",
"PA c #655E6A",
"QA c #7A7A77",
"RA c #434141",
"SA c #2D242E",
"TA c #0A3A99",
"UA c #1D47AE",
"VA c #314489",
"WA c #484859",
"XA c #7E7771",
"YA c #5E5A58",
"ZA c #2E2B35",
"[A c #212144",
"]A c #142C71",
"^A c #0044A7",
"_A c #00174C",
"`A c #06061E",
"aA c #292727",
"bA c #2E2C2B",
"cA c #2B2A2B",
"dA c #292A28",
"eA c #061231",
"fA c #00398B",
"gA c #0F2F73",
"hA c #1C2246",
"iA c #2B2834",
"jA c #524D4C",
"kA c #958E86",
"lA c #5F5E69",
"mA c #3A4B7E",
"nA c #024BAE",
"oA c #0A3982",
"pA c #19223F",
"qA c #2E262B",
"rA c #4A4746",
"sA c #82817F",
"tA c #C7C4C4",
"uA c #5E5F75",
"vA c #2B4176",
"wA c #1955B4",
"xA c #154896",
"yA c #36394B",
"zA c #747171",
"{A c #B8B8B8",
"|A c #BBB6B1",
"}A c #858790",
"~A c #475881",
" B c #273A86",
"!B c #56597D",
"#B c #A5A4AA",
"$B c #CBCBCB",
"%B c #A5A6A4",
"&B c #7E7E79",
"'B c #565252",
"(B c #232546",
")B c #0A43B1",
"*B c #293A7A",
"+B c #595872",
",B c #BDBCBB",
"-B c #939391",
".B c #5E5B5A",
"/B c #3B3335",
"0B c #202440",
"1B c #0F2F79",
"2B c #053CA7",
"3B c #2244A0",
"4B c #2F3455",
"5B c #5E575A",
"6B c #B1AEAD",
"7B c #7D7C79",
"8B c #464244",
"9B c #2F2534",
":B c #1C2556",
";B c #0B43A9",
"<B c #0142A4",
"=B c #02174B",
">B c #05041C",
"?B c #111019",
"@B c #232222",
"AB c #2C2B2C",
"BB c #222222",
"CB c #17171D",
"DB c #051234",
"EB c #0B429A",
"FB c #18254F",
"GB c #2A2231",
"HB c #3F3B3E",
"IB c #6F6D6B",
"JB c #756D68",
"KB c #414458",
"LB c #2A4B93",
"MB c #053E95",
"NB c #0E2E69",
"OB c #1E2339",
"PB c #3A3436",
"QB c #63605F",
"RB c #999897",
"SB c #B3B0B2",
"TB c #535A7A",
"UB c #264382",
"VB c #094DAF",
"WB c #1C468D",
"XB c #474958",
"YB c #696766",
"ZB c #8E8F8E",
"[B c #C3C4C3",
"]B c #A9A49E",
"^B c #737581",
"_B c #405687",
"`B c #223D99",
"aB c #495287",
"bB c #888792",
"cB c #BDB9B2",
"dB c #C0C0C0",
"eB c #7D7C7B",
"fB c #514E4E",
"gB c #31344D",
"hB c #103C9B",
"iB c #223F99",
"jB c #454F83",
"kB c #969498",
"lB c #C8C8C8",
"mB c #53514F",
"nB c #2A2A35",
"oB c #191F46",
"pB c #0D2973",
"qB c #253C83",
"rB c #414469",
"sB c #68656E",
"tB c #98938F",
"uB c #B8B7B6",
"vB c #837F7F",
"wB c #232745",
"xB c #133685",
"yB c #0843B1",
"zB c #013D9D",
"{B c #041649",
"|B c #06041A",
"}B c #0B0B10",
"~B c #131313",
" C c #1C1C1B",
"!C c #272726",
"#C c #2C2A2A",
"$C c #232223",
"%C c #111117",
"&C c #060714",
"'C c #021037",
"(C c #0046A5",
")C c #054DB4",
"*C c #0D327B",
"+C c #1A2652",
",C c #2B2B3A",
"-C c #767473",
".C c #949294",
"/C c #555161",
"0C c #2C3B69",
"1C c #1A4EAC",
"2C c #044FB3",
"3C c #0B2E70",
"4C c #172145",
"5C c #282732",
"6C c #959393",
"7C c #8E8D92",
"8C c #405282",
"9C c #1F4896",
":C c #093F95",
";C c #2A4680",
"<C c #686972",
"=C c #535251",
">C c #707070",
"?C c #8C8580",
"@C c #55596A",
"AC c #345495",
"BC c #1E41B0",
"CC c #394890",
"DC c #5F5F71",
"EC c #958F89",
"FC c #484645",
"GC c #4D4D5C",
"HC c #1B347C",
"IC c #03329E",
"JC c #304899",
"KC c #686872",
"LC c #6A6A68",
"MC c #363436",
"NC c #271F2C",
"OC c #18214D",
"PC c #093999",
"QC c #25449B",
"RC c #3A3B5A",
"SC c #5E5355",
"TC c #928E8D",
"UC c #B9B7B6",
"VC c #5A5453",
"WC c #25273C",
"XC c #183071",
"YC c #0E3D9F",
"ZC c #013C99",
"[C c #021545",
"]C c #0A091C",
"^C c #17171B",
"_C c #0C0D0C",
"`C c #080908",
"aC c #0D0E0D",
"bC c #151515",
"cC c #1E1E1E",
"dC c #303030",
"eC c #313131",
"fC c #1C1C1C",
"gC c #131212",
"hC c #0B0A0D",
"iC c #04040D",
"jC c #020112",
"kC c #02103B",
"lC c #0147A8",
"mC c #0C3C8E",
"nC c #1B254C",
"oC c #2D2531",
"pC c #403B3C",
"qC c #6F6D6A",
"rC c #827A74",
"sC c #4C4B57",
"tC c #33457C",
"uC c #1F489E",
"vC c #074298",
"wC c #13214B",
"xC c #221B29",
"yC c #66666F",
"zC c #2E4D93",
"{C c #1952B4",
"|C c #0B3279",
"}C c #2D3A63",
"~C c #6D6B71",
" D c #5B5A59",
"!D c #787979",
"#D c #776E68",
"$D c #3E4559",
"%D c #2954A0",
"&D c #2F469D",
"'D c #494A62",
"(D c #807973",
")D c #787877",
"*D c #202B61",
"+D c #052782",
",D c #2547A9",
"-D c #545569",
".D c #535150",
"/D c #362E32",
"0D c #20223E",
"1D c #0F2B73",
"2D c #053AA1",
"3D c #273875",
"4D c #42405A",
"5D c #676268",
"6D c #928D8A",
"7D c #C0BEBB",
"8D c #5B5452",
"9D c #232539",
":D c #183072",
";D c #0E3EA1",
"<D c #003B97",
"=D c #001444",
">D c #08081C",
"?D c #18181C",
"@D c #0D0D0D",
"AD c #0A0A0A",
"BD c #0C0C0C",
"CD c #1A1A1A",
"DD c #212121",
"ED c #1A1A19",
"FD c #131312",
"GD c #09090C",
"HD c #090811",
"ID c #080717",
"JD c #03113B",
"KD c #0146A8",
"LD c #0740A2",
"MD c #123275",
"ND c #23253E",
"OD c #3F3637",
"PD c #686462",
"QD c #5B5457",
"RD c #2D3552",
"SD c #224897",
"TD c #0345A6",
"UD c #0C3378",
"VD c #1B203A",
"WD c #2E2628",
"XD c #474543",
"YD c #7E7F7C",
"ZD c #555666",
"[D c #244E9F",
"]D c #064FB0",
"^D c #0D2963",
"_D c #2D304C",
"`D c #6D6B6E",
"aD c #6E6E6D",
"bD c #8D8E8E",
"cD c #6D6463",
"dD c #363E59",
"eD c #2355A6",
"fD c #2748B0",
"gD c #3C3F5D",
"hD c #756B66",
"iD c #989898",
"jD c #555357",
"kD c #202044",
"lD c #09206A",
"mD c #4C4F6F",
"nD c #B2AFAF",
"oD c #838280",
"pD c #4C4948",
"qD c #282634",
"rD c #171B43",
"sD c #0B2772",
"tD c #1946AF",
"uD c #2B4087",
"vD c #403C51",
"wD c #5F514D",
"xD c #97928D",
"yD c #AEAAA4",
"zD c #1F213A",
"{D c #14337F",
"|D c #0B42AE",
"}D c #003995",
"~D c #001344",
" E c #030318",
"!E c #0E0E14",
"#E c #232322",
"$E c #252523",
"%E c #191918",
"&E c #10100F",
"'E c #080808",
"(E c #0B0B0B",
")E c #0E0E0E",
"*E c #121212",
"+E c #141414",
",E c #101010",
"-E c #090909",
".E c #1A1A1C",
"/E c #1A191F",
"0E c #141320",
"1E c #05133D",
"2E c #0046A8",
"3E c #0C398D",
"4E c #182B60",
"5E c #272839",
"6E c #585150",
"7E c #9A958F",
"8E c #666164",
"9E c #42415A",
":E c #1750B2",
";E c #072F7B",
"<E c #12204D",
"=E c #232332",
">E c #3F3B39",
"?E c #676664",
"@E c #BAB6B6",
"AE c #4D526D",
"BE c #1D51AD",
"CE c #0A4BA8",
"DE c #0F1F4B",
"EE c #2D2634",
"FE c #706E6D",
"GE c #888887",
"HE c #A8A8A8",
"IE c #BEBBBB",
"JE c #666068",
"KE c #313E62",
"LE c #1E55AB",
"ME c #333963",
"NE c #6A6265",
"OE c #C7C3C3",
"PE c #8F8E8D",
"QE c #5A5859",
"RE c #261F34",
"SE c #101D58",
"TE c #0742B3",
"UE c #40497C",
"VE c #908D91",
"WE c #C3C1BA",
"XE c #333035",
"YE c #21192C",
"ZE c #131E52",
"[E c #1945AB",
"]E c #26336A",
"^E c #3A3850",
"_E c #64616B",
"`E c #938F92",
"aE c #827E84",
"bE c #403B4A",
"cE c #1A2450",
"dE c #0F3B95",
"eE c #003893",
"fE c #001342",
"gE c #030216",
"hE c #0E0E13",
"iE c #20201E",
"jE c #171716",
"kE c #0F0F0F",
"lE c #111111",
"mE c #1E1E1F",
"nE c #1B1B20",
"oE c #04123D",
"pE c #103584",
"qE c #1D2958",
"rE c #2C2B39",
"sE c #66615E",
"tE c #686262",
"uE c #3D3D50",
"vE c #2E3E74",
"wE c #1E469A",
"xE c #0D245B",
"yE c #1A1933",
"zE c #8D8D8B",
"{E c #C0C0BF",
"|E c #CECBC6",
"}E c #9A979B",
"~E c #424D76",
" F c #10469B",
"!F c #1D2648",
"#F c #382E33",
"$F c #71706E",
"%F c #C5C5C5",
"&F c #AFADAF",
"'F c #5D5C6F",
"(F c #2B3F6F",
")F c #1956B0",
"*F c #2C3874",
"+F c #605C70",
",F c #B5B3B5",
"-F c #656362",
".F c #2F2632",
"/F c #18204C",
"0F c #0A379A",
"1F c #30448E",
"2F c #949088",
"3F c #C6C6C5",
"4F c #424041",
"5F c #2F292F",
"6F c #1D2241",
"7F c #09338C",
"8F c #1748B3",
"9F c #244294",
":F c #383C66",
";F c #45405A",
"<F c #3C3A5B",
"=F c #232A5D",
">F c #112E7B",
"?F c #003890",
"@F c #001340",
"AF c #070719",
"BF c #1D1D1B",
"CF c #1D1D1C",
"DF c #1D1D1D",
"EF c #1F1F1F",
"FF c #191919",
"GF c #181818",
"HF c #171717",
"IF c #161616",
"JF c #1B1B1B",
"KF c #212120",
"LF c #1B1B19",
"MF c #141415",
"NF c #0D0C14",
"OF c #070617",
"PF c #01103E",
"QF c #0047AD",
"RF c #113684",
"SF c #1F2B59",
"TF c #2E2F3B",
"UF c #686561",
"VF c #86817F",
"WF c #494354",
"XF c #2F3A69",
"YF c #1E4BA4",
"ZF c #06409B",
"[F c #162045",
"]F c #251E28",
"^F c #343132",
"_F c #656562",
"`F c #9F9B95",
"aF c #6A6971",
"bF c #334981",
"cF c #0649AA",
"dF c #184187",
"eF c #393E57",
"fF c #4F4647",
"gF c #706F6E",
"hF c #BEBEBE",
"iF c #D1CEC8",
"jF c #9C9DA2",
"kF c #525A7A",
"lF c #254380",
"mF c #273985",
"nF c #55557A",
"oF c #9E9DA3",
"pF c #D2D1C9",
"qF c #686766",
"rF c #393237",
"sF c #242847",
"tF c #0F2D7E",
"uF c #0339AB",
"vF c #2445A4",
"wF c #404258",
"xF c #756F69",
"yF c #423E3D",
"zF c #262636",
"{F c #0F2768",
"|F c #1A3583",
"}F c #182867",
"~F c #14286E",
" G c #0F2F85",
"!G c #0A3CA3",
"#G c #00368D",
"$G c #00123E",
"%G c #0A0919",
"&G c #1E1D1F",
"'G c #202020",
"(G c #282827",
")G c #1F1F1D",
"*G c #151517",
"+G c #0B0B14",
",G c #050517",
"-G c #0F3A8D",
".G c #1C2D61",
"/G c #2C2C3C",
"0G c #5E5755",
"1G c #575661",
"2G c #2F3C69",
"3G c #20418E",
"4G c #0B3077",
"5G c #1F2135",
"6G c #352E2F",
"7G c #504F4D",
"8G c #807974",
"9G c #4A4B5B",
":G c #274A94",
";G c #063A8C",
"<G c #20396F",
"=G c #4F5262",
">G c #625C59",
"?G c #6F6F6D",
"@G c #B8B4AD",
"AG c #82848C",
"BG c #475781",
"CG c #21488F",
"DG c #233C97",
"EG c #474F83",
"FG c #80818C",
"GG c #B5B3AC",
"HG c #343549",
"IG c #15245E",
"JG c #042A89",
"KG c #34395E",
"LG c #665E5F",
"MG c #B9B6B3",
"NG c #2E2B30",
"OG c #182048",
"PG c #063FA9",
"QG c #00358B",
"RG c #00123C",
"SG c #090918",
"TG c #1F1F21",
"UG c #262627",
"VG c #272728",
"WG c #262625",
"XG c #212123",
"YG c #18161E",
"ZG c #0E0D1D",
"[G c #03123F",
"]G c #083E9C",
"^G c #132F6F",
"_G c #24223A",
"`G c #46383A",
"aG c #79716D",
"bG c #86807A",
"cG c #6F6661",
"dG c #585055",
"eG c #373E65",
"fG c #1C4AA1",
"gG c #0447A9",
"hG c #121F49",
"iG c #27252D",
"jG c #4B4848",
"kG c #B6B6B4",
"lG c #706563",
"mG c #393D57",
"nG c #1D52AF",
"oG c #034FB4",
"pG c #06296D",
"qG c #252F55",
"rG c #60606A",
"sG c #716D6A",
"tG c #6F6E6D",
"uG c #96918A",
"vG c #60636E",
"wG c #395085",
"xG c #1E4D9E",
"yG c #1E40AD",
"zG c #3A4A8F",
"{G c #99958E",
"|G c #797977",
"}G c #565452",
"~G c #3F3E49",
" H c #1A1D42",
"!H c #061E68",
"#H c #2A3874",
"$H c #534F64",
"%H c #949193",
"&H c #C7C5C0",
"'H c #7A7977",
"(H c #444041",
")H c #24233B",
"*H c #0B3186",
"+H c #003489",
",H c #00113B",
"-H c #2A292A",
".H c #272627",
"/H c #11101F",
"0H c #041443",
"1H c #0C398C",
"2H c #1A2859",
"3H c #2F2E4A",
"4H c #4B4D5F",
"5H c #4D505F",
"6H c #36374A",
"7H c #282F4F",
"8H c #203C82",
"9H c #0249B1",
":H c #093582",
";H c #1E1D34",
"<H c #383536",
"=H c #646563",
">H c #AAA8A8",
"?H c #5D5661",
"@H c #2D3964",
"AH c #054BAB",
"BH c #0C2258",
"CH c #2C2B42",
"DH c #666469",
"EH c #7B7976",
"FH c #807F7F",
"GH c #7F7873",
"HH c #484C5D",
"IH c #2F4F8F",
"JH c #1A53B0",
"KH c #2844A7",
"LH c #3F415F",
"MH c #766D6A",
"NH c #6E6D69",
"OH c #474546",
"PH c #26222F",
"QH c #111D49",
"RH c #073595",
"SH c #1D41A8",
"TH c #334184",
"UH c #4E4D61",
"VH c #817A77",
"WH c #B1B1AF",
"XH c #7E7D7B",
"YH c #3D3B43",
"ZH c #181D45",
"[H c #00338A",
"]H c #00113C",
"^H c #18171D",
"_H c #0E0E21",
"`H c #03174F",
"aH c #0A45A7",
"bH c #134198",
"cH c #1E4493",
"dH c #214592",
"eH c #1C4497",
"fH c #1648A5",
"gH c #0546A9",
"hH c #0C2764",
"iH c #171C3D",
"jH c #36343B",
"kH c #999A98",
"lH c #98948F",
"mH c #65656F",
"nH c #3E4A77",
"oH c #224591",
"pH c #10408F",
"qH c #252D4E",
"rH c #3E353C",
"sH c #5B5859",
"tH c #7B7B79",
"uH c #AFAFAF",
"vH c #6D6568",
"wH c #363F5E",
"xH c #2352A5",
"yH c #2E356A",
"zH c #605966",
"{H c #C8C6C6",
"|H c #43413F",
"}H c #4A4546",
"~H c #3A3C53",
" I c #152766",
"!I c #022B8E",
"#I c #1E46B1",
"$I c #303762",
"%I c #585057",
"&I c #959191",
"'I c #BCBDBB",
"(I c #575756",
")I c #29222E",
"*I c #19214B",
"+I c #0A3694",
",I c #003691",
"-I c #0A0A19",
".I c #0B0D24",
"/I c #021C5A",
"0I c #04378F",
"1I c #0D2661",
"2I c #1C1F3A",
"3I c #2B252C",
"4I c #545252",
"5I c #B4B4B3",
"6I c #6D615F",
"7I c #3B3C56",
"8I c #264B9B",
"9I c #053181",
":I c #1D2F61",
";I c #4A4B5C",
"<I c #585352",
"=I c #474644",
">I c #6A6A69",
"?I c #BDBBBC",
"@I c #59596E",
"AI c #293E71",
"BI c #1854B1",
"CI c #28377F",
"DI c #53516F",
"EI c #AEACAE",
"FI c #7F7F7F",
"GI c #555454",
"HI c #575453",
"II c #43424E",
"JI c #191D45",
"KI c #031C6A",
"LI c #263A84",
"MI c #434567",
"NI c #6C6A70",
"OI c #A09C97",
"PI c #787876",
"QI c #3A3335",
"RI c #21233E",
"SI c #0F2A73",
"TI c #0538A1",
"UI c #003690",
"VI c #00123F",
"WI c #070718",
"XI c #1B1B1D",
"YI c #14111A",
"ZI c #080C26",
"[I c #022062",
"]I c #0446AB",
"^I c #0A2564",
"_I c #151A3B",
"`I c #26232F",
"aI c #C8C7C2",
"bI c #544F5D",
"cI c #2B3866",
"dI c #1A4FAF",
"eI c #0549AC",
"fI c #0A2460",
"gI c #262947",
"hI c #5B5961",
"iI c #757675",
"jI c #A09EA1",
"kI c #4A5378",
"lI c #244386",
"mI c #414B7E",
"nI c #8B8A8F",
"oI c #818180",
"pI c #555452",
"qI c #322F34",
"rI c #171227",
"sI c #071449",
"tI c #02359C",
"uI c #2E4490",
"vI c #797167",
"wI c #CCCAC6",
"xI c #504D4B",
"yI c #282736",
"zI c #161E4E",
"{I c #0A297D",
"|I c #00113E",
"}I c #2F2F2E",
"~I c #252324",
" J c #0F0E17",
"!J c #030A26",
"#J c #01236B",
"$J c #0244AC",
"%J c #083281",
"&J c #141E46",
"'J c #211C2A",
"(J c #2E2B2E",
")J c #5B5856",
"*J c #BCBBBA",
"+J c #918C84",
",J c #3B4673",
"-J c #234391",
".J c #0A4198",
"/J c #142049",
"0J c #302935",
"1J c #5F5B5D",
"2J c #777673",
"3J c #797978",
"4J c #9B9C9B",
"5J c #7F7E83",
"6J c #3B4F84",
"7J c #204B9E",
"8J c #334691",
"9J c #706F78",
":J c #A5A5A5",
";J c #5B5C5A",
"<J c #313031",
"=J c #272128",
">J c #1A1F3F",
"?J c #092A76",
"@J c #0138A6",
"AJ c #1F44AF",
"BJ c #2E3560",
"CJ c #59535A",
"DJ c #A19E9E",
"EJ c #63625E",
"FJ c #312F36",
"GJ c #1E1A39",
"HJ c #102265",
"IJ c #0044B4",
"JJ c #013084",
"KJ c #02113D",
"LJ c #020115",
"MJ c #07070E",
"NJ c #1C1C1D",
"OJ c #262523",
"PJ c #1C1A1C",
"QJ c #0B0914",
"RJ c #020928",
"SJ c #002873",
"TJ c #053285",
"UJ c #0F2257",
"VJ c #1E1E33",
"WJ c #322B2F",
"XJ c #4D4A4A",
"YJ c #B9B7B4",
"ZJ c #6A6461",
"[J c #3A3E54",
"]J c #29478D",
"^J c #1A4EB3",
"_J c #0543A3",
"`J c #15387C",
"aJ c #483E40",
"bJ c #767573",
"cJ c #9C9C9A",
"dJ c #676770",
"eJ c #2F4E92",
"fJ c #1A53B4",
"gJ c #2744A9",
"hJ c #5D5C6A",
"iJ c #D1CECA",
"jJ c #6A6A6A",
"kJ c #424141",
"lJ c #4B4847",
"mJ c #3C3C4A",
"nJ c #151F49",
"oJ c #022373",
"pJ c #263B8E",
"qJ c #3D406D",
"rJ c #8F8C84",
"sJ c #71716E",
"tJ c #3B393C",
"uJ c #281E31",
"vJ c #172158",
"wJ c #0842B3",
"xJ c #003FAD",
"yJ c #012B7E",
"zJ c #04113D",
"{J c #050418",
"|J c #07060D",
"}J c #0B0A0C",
"~J c #121211",
" K c #0A090D",
"!K c #070412",
"#K c #040B2E",
"$K c #012B79",
"%K c #0444A7",
"&K c #0C2057",
"'K c #18162E",
"(K c #828180",
")K c #BCB9B6",
"*K c #8A8587",
"+K c #534D5A",
",K c #2F3B65",
"-K c #1E4EAA",
".K c #052A74",
"/K c #242F59",
"0K c #60606B",
"1K c #4B4A48",
"2K c #D0CCCB",
"3K c #595A69",
"4K c #2451A2",
"5K c #4D4E6C",
"6K c #8E8E8E",
"7K c #656563",
"8K c #5E5E59",
"9K c #464448",
":K c #1B192F",
";K c #051650",
"<K c #293D8B",
"=K c #343650",
">K c #615B5A",
"?K c #C3C1BF",
"@K c #868784",
"AK c #4F4C4D",
"BK c #312632",
"CK c #1A2252",
"DK c #0A41AE",
"EK c #003DA9",
"FK c #012879",
"GK c #04103A",
"HK c #080619",
"IK c #0D0B11",
"JK c #0B0A0B",
"KK c #141413",
"LK c #08070C",
"MK c #080413",
"NK c #060D31",
"OK c #012C7C",
"PK c #083689",
"QK c #141A3E",
"RK c #251A22",
"SK c #676865",
"TK c #938C88",
"UK c #615E66",
"VK c #3E4368",
"WK c #244085",
"XK c #081D51",
"YK c #2B293E",
"ZK c #6C6A6D",
"[K c #7B7975",
"]K c #585856",
"^K c #757575",
"_K c #B7B5B5",
"`K c #4A506B",
"aK c #1B52AE",
"bK c #3E477C",
"cK c #8E8C92",
"dK c #C2C0BB",
"eK c #C6C6C6",
"fK c #61615F",
"gK c #383739",
"hK c #1D1825",
"iK c #0C133D",
"jK c #043197",
"kK c #2D356A",
"lK c #484051",
"mK c #A2A3A0",
"nK c #6B6969",
"oK c #3B323A",
"pK c #1C2551",
"qK c #0D42AD",
"rK c #003BA6",
"sK c #012675",
"tK c #020D36",
"uK c #090717",
"vK c #18161A",
"wK c #1B1B1C",
"xK c #161617",
"yK c #0B0B0C",
"zK c #151514",
"{K c #161418",
"|K c #0F0B18",
"}K c #080F31",
"~K c #022B7B",
" L c #04348D",
"!L c #0E255F",
"#L c #1F2037",
"$L c #363033",
"%L c #545352",
"&L c #C5C2C0",
"'L c #6D625E",
"(L c #3F3F54",
")L c #2A468C",
"*L c #184DB2",
"+L c #093F96",
",L c #121A3D",
"-L c #2A232D",
".L c #535052",
"/L c #80807F",
"0L c #C0BDB9",
"1L c #8C8A8F",
"2L c #3C4A76",
"3L c #314492",
"4L c #676774",
"5L c #9D9992",
"6L c #6F6F6E",
"7L c #3F3E3E",
"8L c #2C272D",
"9L c #1A1C35",
":L c #072470",
";L c #213C94",
"<L c #32396B",
"=L c #5D5B65",
">L c #B3B1B0",
"?L c #B2B3AF",
"@L c #40373E",
"AL c #1C254F",
"BL c #0E42AC",
"CL c #003AA4",
"DL c #002471",
"EL c #000C34",
"FL c #080817",
"GL c #1B1A1C",
"HL c #212020",
"IL c #101011",
"JL c #0E0C19",
"KL c #070F31",
"LL c #012B7C",
"ML c #09276D",
"NL c #151B40",
"OL c #272632",
"PL c #4A4646",
"QL c #7D7B7B",
"RL c #B0B0B0",
"SL c #9E9A9A",
"TL c #4D4A5A",
"UL c #2A3866",
"VL c #1B4BA9",
"WL c #0F3374",
"XL c #2E2F41",
"YL c #3F383A",
"ZL c #6B6C6A",
"[L c #9B9690",
"]L c #656570",
"^L c #2E4A87",
"_L c #1F44B4",
"`L c #3C3F5F",
"aL c #706969",
"bL c #C4C2C1",
"cL c #6E6E6C",
"dL c #51504D",
"eL c #353438",
"fL c #131D42",
"gL c #033499",
"hL c #374276",
"iL c #5D5B66",
"jL c #898686",
"kL c #ABABA7",
"lL c #747071",
"mL c #3D333F",
"nL c #1A2354",
"oL c #0D41AF",
"pL c #0036A0",
"qL c #00216E",
"rL c #010B33",
"sL c #18181A",
"tL c #1F1F1E",
"uL c #1A191A",
"vL c #100F15",
"wL c #070614",
"xL c #020C30",
"yL c #002C7F",
"zL c #122153",
"{L c #221A2D",
"|L c #373338",
"}L c #6B6A68",
"~L c #B1AEAC",
" M c #5A5969",
"!M c #2B458A",
"#M c #194AAC",
"$M c #064095",
"%M c #1E2C46",
"&M c #5D5C5E",
"'M c #6F6E6C",
"(M c #626160",
")M c #CCCCCB",
"*M c #C6C4C2",
"+M c #716967",
",M c #1F4FA7",
"-M c #2A3677",
".M c #514E67",
"/M c #8F8D92",
"0M c #C2C2BD",
"1M c #B3B3B2",
"2M c #646461",
"3M c #373634",
"4M c #252534",
"5M c #0B1852",
"6M c #012583",
"7M c #32396A",
"8M c #4C4553",
"9M c #9C9890",
":M c #83817B",
";M c #4A484C",
"<M c #2D2946",
"=M c #17286C",
">M c #00389F",
"?M c #00226D",
"@M c #000B33",
"AM c #272827",
"BM c #242323",
"CM c #1A1A1E",
"DM c #000C32",
"EM c #002E84",
"FM c #0848B2",
"GM c #19234B",
"HM c #322831",
"IM c #8E8D8B",
"JM c #8B857D",
"KM c #57535A",
"LM c #30427C",
"MM c #042C7D",
"NM c #132253",
"OM c #373842",
"PM c #4F4E4C",
"QM c #70706D",
"RM c #A5A5A4",
"SM c #CDCBC7",
"TM c #9A989A",
"UM c #555365",
"VM c #2A3B6D",
"WM c #223A98",
"XM c #40457A",
"YM c #696773",
"ZM c #9E9A93",
"[M c #838381",
"]M c #343138",
"^M c #131132",
"_M c #06185C",
"`M c #023BAF",
"aM c #213B92",
"bM c #30386A",
"cM c #3F4057",
"dM c #67646A",
"eM c #A6A3A1",
"fM c #CAC7C3",
"gM c #BAB7B6",
"hM c #615A5A",
"iM c #333144",
"jM c #202B65",
"kM c #113391",
"lM c #00226C",
"mM c #000B32",
"nM c #0B0A19",
"oM c #242224",
"pM c #282826",
"qM c #1F2023",
"rM c #0A0B1A",
"sM c #000D34",
"tM c #003089",
"uM c #0948B0",
"vM c #1B254B",
"wM c #3A3138",
"xM c #6A6667",
"yM c #A1A19E",
"zM c #5B565A",
"{M c #303552",
"|M c #1F459B",
"}M c #0442A3",
"~M c #091C55",
" N c #1E1B37",
"!N c #49464B",
"#N c #7B7B7A",
"$N c #A8A49E",
"%N c #73737A",
"&N c #434C72",
"'N c #234288",
"(N c #2E4297",
")N c #45445A",
"*N c #7C746C",
"+N c #898887",
",N c #454243",
"-N c #1E1828",
".N c #101744",
"/N c #052A85",
"0N c #1D45AF",
"1N c #2B3C84",
"2N c #3F4068",
"3N c #58515B",
"4N c #6D645F",
"5N c #837E78",
"6N c #6A6261",
"7N c #40323E",
"8N c #262855",
"9N c #143A9C",
":N c #00379D",
";N c #00216A",
"<N c #010B31",
"=N c #232224",
">N c #282829",
"?N c #1E1E22",
"@N c #000E35",
"AN c #00338D",
"BN c #0A48B1",
"CN c #1B244B",
"DN c #3F363D",
"EN c #7A7778",
"FN c #B2B2B0",
"GN c #C9C7C2",
"HN c #88827A",
"IN c #5A545A",
"JN c #3D3F61",
"KN c #273C7E",
"LN c #023FA1",
"MN c #082C74",
"NN c #131B3D",
"ON c #2A2530",
"PN c #585656",
"QN c #777674",
"RN c #9E9E9C",
"SN c #807872",
"TN c #494A59",
"UN c #304885",
"VN c #1C4CA8",
"WN c #2042B0",
"XN c #2F345D",
"YN c #B3B0B0",
"ZN c #585755",
"[N c #2C272B",
"]N c #1B1C36",
"^N c #0A1D5B",
"_N c #022A8B",
"`N c #1A3EAD",
"aN c #223686",
"bN c #283161",
"cN c #353755",
"dN c #484A62",
"eN c #4B4D62",
"fN c #383B57",
"gN c #262A5B",
"hN c #19307F",
"iN c #00359C",
"jN c #002069",
"kN c #222224",
"lN c #1D1D21",
"mN c #000E37",
"nN c #003591",
"oN c #1B2450",
"pN c #3D333E",
"qN c #747072",
"rN c #ACABA9",
"sN c #C3C1BC",
"tN c #969393",
"uN c #53515A",
"vN c #2E3453",
"wN c #253D7F",
"xN c #1A47A7",
"yN c #024AB2",
"zN c #062C78",
"{N c #132150",
"|N c #292A3B",
"}N c #3F3A3B",
"~N c #646261",
" O c #B9B6B6",
"!O c #625B5D",
"#O c #303653",
"$O c #224999",
"%O c #28367B",
"&O c #4A4764",
"'O c #7D7A7F",
"(O c #B0AEAA",
")O c #3E3C3D",
"*O c #111431",
"+O c #041B5C",
",O c #013EB3",
"-O c #1945B4",
".O c #2143A5",
"/O c #2A4398",
"0O c #2B4291",
"1O c #223F98",
"2O c #1442B1",
"3O c #003399",
"4O c #011D67",
"5O c #020A30",
"6O c #0C0A19",
"7O c #222324",
"8O c #0A0A1A",
"9O c #000F38",
":O c #003693",
";O c #192559",
"<O c #32283B",
"=O c #575356",
">O c #8F8E8A",
"?O c #C8C8C3",
"@O c #A19E98",
"AO c #776E69",
"BO c #544F5C",
"CO c #38426F",
"DO c #24418D",
"EO c #174EB4",
"FO c #063990",
"GO c #0F1E4F",
"HO c #262338",
"IO c #4B484D",
"JO c #5B5956",
"KO c #908D90",
"LO c #514E5E",
"MO c #2A3969",
"NO c #1950B0",
"OO c #203BA0",
"PO c #373F7B",
"QO c #545363",
"RO c #88847F",
"SO c #939393",
"TO c #4F4F4D",
"UO c #302E2F",
"VO c #1B1720",
"WO c #0D173F",
"XO c #04308E",
"YO c #003297",
"ZO c #011D65",
"[O c #0C0A1A",
"]O c #1D1C20",
"^O c #00103A",
"_O c #003997",
"`O c #15307C",
"aO c #272B54",
"bO c #3F3C47",
"cO c #6E6965",
"dO c #B5B2B0",
"eO c #969392",
"fO c #6E6C72",
"gO c #454557",
"hO c #2C3662",
"iO c #234191",
"jO c #013990",
"kO c #0C2B65",
"lO c #22243D",
"mO c #3A3136",
"nO c #676864",
"oO c #8B8C8B",
"pO c #9E9994",
"qO c #68676F",
"rO c #3F486D",
"sO c #224187",
"tO c #2741A2",
"uO c #3A3C5A",
"vO c #6E6762",
"wO c #C1C0BB",
"xO c #60605E",
"yO c #323131",
"zO c #29262A",
"{O c #1B1E37",
"|O c #091959",
"}O c #00288C",
"~O c #003196",
" P c #011C62",
"!P c #03092F",
"#P c #0D0A19",
"$P c #00123D",
"%P c #003DA0",
"&P c #1A3B8B",
"'P c #2D2B46",
"(P c #4B3C3A",
")P c #97928B",
"*P c #B0A9A2",
"+P c #A9A29B",
",P c #77706D",
"-P c #564E58",
".P c #434565",
"/P c #2E4488",
"0P c #1E48A5",
"1P c #0144A5",
"2P c #022154",
"3P c #161F34",
"4P c #3E3E45",
"5P c #454442",
"6P c #7A716B",
"7P c #434454",
"8P c #2C498A",
"9P c #2A346B",
":P c #534F5E",
";P c #989696",
"<P c #CBCBC5",
"=P c #828280",
">P c #4E4D4B",
"?P c #393838",
"@P c #252331",
"AP c #100F37",
"BP c #041965",
"CP c #003094",
"DP c #011B60",
"EP c #04092E",
"FP c #0E0A19",
"GP c #272623",
"HP c #1D1B1E",
"IP c #00133F",
"JP c #0040A5",
"KP c #0F47B0",
"LP c #302E4A",
"MP c #474759",
"NP c #5F5F6B",
"OP c #787782",
"PP c #2D3661",
"QP c #243B7E",
"RP c #1A48AD",
"SP c #0045AE",
"TP c #05337E",
"UP c #0F1D37",
"VP c #4A4946",
"WP c #5D5C59",
"XP c #5E5E5D",
"YP c #878787",
"ZP c #AFABAB",
"[P c #5E565A",
"]P c #2E3657",
"^P c #1F4BA2",
"_P c #1F3EAA",
"`P c #333F83",
"aP c #4A4A5E",
"bP c #7B7773",
"cP c #575755",
"dP c #2F2D31",
"eP c #1C1627",
"fP c #0F1543",
"gP c #062A86",
"hP c #002F92",
"iP c #011A5E",
"jP c #04092D",
"kP c #262423",
"lP c #001343",
"mP c #0041A9",
"nP c #1444A6",
"oP c #1F4192",
"pP c #28428A",
"qP c #2D498E",
"rP c #2C4A93",
"sP c #2047A0",
"tP c #0148B2",
"uP c #072461",
"vP c #161E3E",
"wP c #2F303B",
"xP c #434140",
"yP c #51504F",
"zP c #777775",
"{P c #94908C",
"|P c #61606B",
"}P c #3D4770",
"~P c #23428B",
" Q c #2D366A",
"!Q c #4F4B57",
"#Q c #9D9B9B",
"$Q c #767673",
"%Q c #434240",
"&Q c #2E292D",
"'Q c #1B1A30",
"(Q c #0C144B",
")Q c #03227E",
"*Q c #002D8F",
"+Q c #02185B",
",Q c #05092C",
"-Q c #0F0C19",
".Q c #242325",
"/Q c #1A1920",
"0Q c #09081D",
"1Q c #001447",
"2Q c #0044B0",
"3Q c #082A74",
"4Q c #212540",
"5Q c #302C34",
"6Q c #B3B4B3",
"7Q c #C6C3C2",
"8Q c #655B5C",
"9Q c #363A57",
":Q c #234A9E",
";Q c #243A90",
"<Q c #3C406B",
"=Q c #777578",
">Q c #9B9B98",
"?Q c #23212C",
"@Q c #120E31",
"AQ c #071860",
"BQ c #002C8D",
"CQ c #021658",
"DQ c #05092B",
"EQ c #191821",
"FQ c #08081E",
"GQ c #001549",
"HQ c #0143AC",
"IQ c #0C1C4F",
"JQ c #32303C",
"KQ c #444141",
"LQ c #494846",
"MQ c #6B6B6A",
"NQ c #ABACAB",
"OQ c #A19E9F",
"PQ c #4D4A5E",
"QQ c #27396D",
"RQ c #2A419B",
"SQ c #595662",
"TQ c #B6B3AE",
"UQ c #575754",
"VQ c #2C2A2E",
"WQ c #191327",
"XQ c #0C164D",
"YQ c #033CB4",
"ZQ c #002B8A",
"[Q c #021656",
"]Q c #100D1A",
"^Q c #282727",
"_Q c #181721",
"`Q c #080820",
"aQ c #00154D",
"bQ c #0145B0",
"cQ c #022F81",
"dQ c #111737",
"eQ c #3E3B3F",
"fQ c #595654",
"gQ c #686767",
"hQ c #8F8F90",
"iQ c #344379",
"jQ c #1E459C",
"kQ c #40446A",
"lQ c #8B8888",
"mQ c #BEBCB7",
"nQ c #6B6B67",
"oQ c #373434",
"pQ c #221A25",
"qQ c #121741",
"rQ c #04339F",
"sQ c #002A89",
"tQ c #021555",
"uQ c #05092A",
"vQ c #212122",
"wQ c #171720",
"xQ c #080821",
"yQ c #00164F",
"zQ c #023286",
"{Q c #092157",
"|Q c #212232",
"}Q c #474544",
"~Q c #B9B9B9",
" R c #AFABAA",
"!R c #4A4C5F",
"#R c #224595",
"$R c #2B3F90",
"%R c #514F5B",
"&R c #868077",
"'R c #7A7876",
"(R c #444040",
")R c #2C252B",
"*R c #191B3B",
"+R c #062B89",
",R c #002987",
"-R c #021452",
".R c #050929",
"/R c #100D19",
"0R c #151520",
"1R c #070721",
"2R c #001751",
"3R c #0144A8",
"4R c #021F55",
"5R c #141930",
"6R c #4C4C49",
"7R c #A4A19B",
"8R c #716D71",
"9R c #38446F",
":R c #184FB3",
";R c #1C3FB1",
"<R c #30345A",
"=R c #5D585D",
">R c #ACA9A8",
"?R c #939290",
"@R c #5D5A59",
"AR c #383234",
"BR c #1E1E36",
"CR c #09277B",
"DR c #002884",
"ER c #02134F",
"FR c #060928",
"GR c #110E19",
"HR c #14141F",
"IR c #070722",
"JR c #001753",
"KR c #043485",
"LR c #0B193A",
"MR c #201D22",
"NR c #9A9B99",
"OR c #77716D",
"PR c #484857",
"QR c #29448A",
"RR c #283684",
"SR c #434166",
"TR c #68646A",
"UR c #9B9891",
"VR c #81807E",
"WR c #464240",
"XR c #212234",
"YR c #0D2675",
"ZR c #002680",
"[R c #02124C",
"]R c #070A27",
"^R c #110F1A",
"_R c #242425",
"`R c #1C1D20",
"aR c #12121F",
"bR c #060622",
"cR c #001754",
"dR c #002B83",
"eR c #0A1D54",
"fR c #1D2135",
"gR c #2D2A2B",
"hR c #53524F",
"iR c #AEADAC",
"jR c #BDBCB9",
"kR c #8D8988",
"lR c #585053",
"mR c #353A5B",
"nR c #1D3DAE",
"oR c #2D3A83",
"pR c #3E3E56",
"qR c #6A6565",
"rR c #B1AEAE",
"sR c #534F4C",
"tR c #242433",
"uR c #10266F",
"vR c #00257E",
"wR c #03114A",
"xR c #080A27",
"yR c #12101A",
"zR c #242626",
"{R c #1B1B1F",
"|R c #11111F",
"}R c #060624",
"~R c #001757",
" S c #0146B3",
"!S c #031C60",
"#S c #101235",
"$S c #272732",
"%S c #3C3A39",
"&S c #938F8B",
"'S c #626066",
"(S c #3F415D",
")S c #253C79",
"*S c #283883",
"+S c #3F4065",
",S c #5C5966",
"-S c #8A8686",
".S c #C9C7C6",
"/S c #BFBEBC",
"0S c #605D59",
"1S c #282835",
"2S c #13266B",
"3S c #00227B",
"4S c #030F46",
"5S c #080A26",
"6S c #13101A",
"7S c #262525",
"8S c #19181E",
"9S c #0E0E20",
":S c #05062B",
";S c #00195F",
"<S c #043996",
"=S c #0B1847",
">S c #1A1425",
"?S c #302D31",
"@S c #575654",
"AS c #C6C6C2",
"BS c #979595",
"CS c #5C5860",
"DS c #353E62",
"ES c #23489A",
"FS c #2241AF",
"GS c #33386C",
"HS c #504B5A",
"IS c #7A7879",
"JS c #ABAAA6",
"KS c #CBCAC8",
"LS c #66635F",
"MS c #2B2A37",
"NS c #15276C",
"OS c #002077",
"PS c #030D42",
"QS c #090A25",
"RS c #14121A",
"SS c #262326",
"TS c #19161D",
"US c #0E0D23",
"VS c #050A36",
"WS c #001D6A",
"XS c #023A9E",
"YS c #09296F",
"ZS c #161B39",
"[S c #3C3A3B",
"]S c #70706E",
"^S c #C5C2BF",
"_S c #4B4A56",
"`S c #32437B",
"aS c #1E469F",
"bS c #243994",
"cS c #383B6C",
"dS c #514E5C",
"eS c #7C7775",
"fS c #66625E",
"gS c #2B2B39",
"hS c #152A74",
"iS c #001F76",
"jS c #030C41",
"kS c #090B25",
"lS c #14121B",
"mS c #17151D",
"nS c #0C0D25",
"oS c #040C3C",
"pS c #002070",
"qS c #043089",
"rS c #0D2159",
"sS c #1C1E34",
"tS c #343032",
"uS c #555554",
"vS c #8C8D8C",
"wS c #C9C6C2",
"xS c #969192",
"yS c #534E57",
"zS c #2B345B",
"{S c #1F459C",
"|S c #263EA1",
"}S c #39385D",
"~S c #544A4D",
" T c #918E8B",
"!T c #635F5B",
"#T c #292A3D",
"$T c #142E80",
"%T c #0A0C26",
"&T c #14131C",
"'T c #2C2B2B",
"(T c #242426",
")T c #15131D",
"*T c #030F42",
"+T c #002276",
",T c #08297A",
"-T c #121C4A",
".T c #212130",
"/T c #454241",
"0T c #7F7E7E",
"1T c #B5B5B5",
"2T c #535058",
"3T c #38416E",
"4T c #23408F",
"5T c #253582",
"6T c #37375E",
"7T c #64616A",
"8T c #B4B2B1",
"9T c #5B5352",
":T c #262741",
";T c #123393",
"<T c #001E73",
"=T c #040B3E",
">T c #0B0C25",
"?T c #15131C",
"@T c #222325",
"AT c #13121C",
"BT c #080C27",
"CT c #031148",
"DT c #00257C",
"ET c #0B2771",
"FT c #161B42",
"GT c #25242F",
"HT c #A2A1A0",
"IT c #B8B5B2",
"JT c #23418E",
"KT c #243FA5",
"LT c #424366",
"MT c #6B6767",
"NT c #9B9992",
"OT c #C8C8C5",
"PT c #4C4142",
"QT c #222345",
"RT c #0E3AAC",
"ST c #00196C",
"TT c #040736",
"UT c #0B0C22",
"VT c #16151C",
"WT c #262527",
"XT c #12111B",
"YT c #070C28",
"ZT c #02134D",
"[T c #002781",
"]T c #0D296F",
"^T c #191D40",
"_T c #2A2831",
"`T c #615D5A",
"aT c #BEBCBB",
"bT c #3C4064",
"cT c #263D83",
"dT c #293883",
"eT c #3F3E55",
"fT c #686469",
"gT c #A19F9A",
"hT c #6B686A",
"iT c #3C3547",
"jT c #1D265F",
"kT c #001869",
"lT c #040533",
"mT c #0B0C21",
"nT c #16161C",
"oT c #222123",
"pT c #11101A",
"qT c #060C29",
"rT c #021552",
"sT c #002986",
"tT c #102A70",
"uT c #1D2042",
"vT c #2E2B34",
"wT c #686461",
"xT c #CCCBCA",
"yT c #A19D9C",
"zT c #47495C",
"{T c #1B48AC",
"|T c #2D377C",
"}T c #423E5E",
"~T c #5B555A",
" U c #7D7770",
"!U c #A6A49F",
"#U c #CCCBC8",
"$U c #C6C3BE",
"%U c #756E67",
"&U c #413D49",
"'U c #2A2E64",
"(U c #172F8E",
")U c #001A6B",
"*U c #040836",
"+U c #0C0D23",
",U c #17161D",
"-U c #2B2B28",
".U c #222124",
"/U c #100E1B",
"0U c #050A2C",
"1U c #021657",
"2U c #002B8B",
"3U c #122A73",
"4U c #202246",
"5U c #312F37",
"6U c #6B6864",
"7U c #C7C5C1",
"8U c #867F77",
"9U c #575358",
":U c #324075",
";U c #184CB4",
"<U c #1D39A7",
"=U c #26327D",
">U c #2D315A",
"?U c #464558",
"@U c #716F77",
"AU c #999697",
"BU c #C2BFB9",
"CU c #979291",
"DU c #504A52",
"EU c #262A50",
"FU c #1B318B",
"GU c #001A67",
"HU c #040832",
"IU c #0D0D22",
"JU c #17161E",
"KU c #100C1B",
"LU c #05092D",
"MU c #02185C",
"NU c #122D79",
"OU c #21254D",
"PU c #32303A",
"QU c #C3C1BD",
"RU c #525058",
"SU c #2D3453",
"TU c #204296",
"UU c #243E9E",
"VU c #353F7D",
"WU c #43446A",
"XU c #4E4D66",
"YU c #5F5D6E",
"ZU c #787783",
"[U c #797983",
"]U c #6A6A76",
"^U c #535161",
"_U c #283274",
"`U c #173396",
"aU c #00175E",
"bU c #050528",
"cU c #212023",
"dU c #0E0B1A",
"eU c #04092F",
"fU c #011A62",
"gU c #003096",
"hU c #0F368E",
"iU c #1C2C61",
"jU c #2D2D3C",
"kU c #655F5D",
"lU c #BBB9B6",
"mU c #949192",
"nU c #64626A",
"oU c #424765",
"pU c #2D4282",
"qU c #1D44A0",
"rU c #1F3FB0",
"sU c #2740A5",
"tU c #31449D",
"uU c #32459D",
"vU c #2C42A0",
"wU c #213DA4",
"xU c #173DB1",
"yU c #00165D",
"zU c #050527",
"{U c #0E0F20",
"|U c #181A20",
"}U c #0D0B1A",
"~U c #020A32",
" V c #011D69",
"!V c #00329C",
"#V c #0B43B4",
"$V c #173786",
"%V c #262841",
"&V c #584E4C",
"'V c #ABA9A6",
"(V c #AFADA9",
")V c #847F7A",
"*V c #645A57",
"+V c #484559",
",V c #314280",
"-V c #1F45A2",
".V c #00165C",
"/V c #0E1020",
"0V c #191A20",
"1V c #2A2A26",
"2V c #0C0B1A",
"3V c #020B33",
"4V c #01206D",
"5V c #0034A0",
"6V c #123EA1",
"7V c #212955",
"8V c #48404B",
"9V c #868382",
":V c #BCBBB6",
";V c #7C797B",
"<V c #53525D",
"=V c #393B54",
">V c #27366C",
"?V c #1D44A5",
"@V c #00155A",
"AV c #050626",
"BV c #0F1120",
"CV c #1A1B20",
"DV c #292926",
"EV c #0B0A1A",
"FV c #010B35",
"GV c #002272",
"HV c #0037A5",
"IV c #1B3078",
"JV c #323355",
"KV c #514E52",
"LV c #88847D",
"MV c #D0D0CB",
"NV c #ABA9A2",
"OV c #4B4659",
"PV c #373F6D",
"QV c #264498",
"RV c #060626",
"SV c #111120",
"TV c #000C37",
"UV c #002579",
"VV c #003AAC",
"WV c #133CA0",
"XV c #213375",
"YV c #30324B",
"ZV c #B7B3B2",
"[V c #9C9A9B",
"]V c #76757B",
"^V c #40425B",
"_V c #2A366C",
"`V c #213E90",
"aV c #001659",
"bV c #060625",
"cV c #000E39",
"dV c #002980",
"eV c #003EB3",
"fV c #1344AB",
"gV c #23316B",
"hV c #39344E",
"iV c #928C85",
"jV c #938D86",
"kV c #746C67",
"lV c #635B5C",
"mV c #564E5B",
"nV c #454668",
"oV c #2A4491",
"pV c #001658",
"qV c #121120",
"rV c #000F3B",
"sV c #002C85",
"tV c #163A95",
"uV c #1F2F6D",
"vV c #2F3456",
"wV c #4E5067",
"xV c #5A5D72",
"yV c #5B5E72",
"zV c #50546A",
"{V c #3B3F59",
"|V c #2E3457",
"}V c #293364",
"~V c #233980",
" W c #001557",
"!W c #13121F",
"#W c #282825",
"$W c #0A0A1B",
"%W c #000F3D",
"&W c #002C88",
"'W c #1E42A2",
"(W c #2D479D",
")W c #324A9D",
"*W c #324B9C",
"+W c #2E4A9D",
",W c #2747A0",
"-W c #2047A9",
".W c #001556",
"/W c #060623",
"0W c #282724",
"1W c #1D1D20",
"2W c #001040",
"3W c #002F8D",
"4W c #003DB4",
"5W c #001455",
"6W c #070623",
"7W c #262624",
"8W c #001143",
"9W c #003498",
":W c #003BB3",
";W c #001453",
"<W c #252524",
"=W c #1A1A20",
">W c #09091D",
"?W c #001246",
"@W c #003BB1",
"AW c #001452",
"BW c #15151F",
"CW c #2A2928",
"DW c #1A1921",
"EW c #09081E",
"FW c #001249",
"GW c #0037A0",
"HW c #003AAE",
"IW c #001351",
"JW c #16151F",
"KW c #292827",
"LW c #191720",
"MW c #08081F",
"NW c #00134C",
"OW c #003AA8",
"PW c #080721",
"QW c #171520",
"RW c #232122",
"SW c #181720",
"TW c #00144F",
"UW c #003CAE",
"VW c #0039AF",
"WW c #001350",
"XW c #161620",
"YW c #222022",
"ZW c #171621",
"[W c #080722",
"]W c #001552",
"^W c #003EB1",
"_W c #0038AD",
"`W c #00134F",
"aW c #171721",
"bW c #161521",
"cW c #070724",
"dW c #001555",
"eW c #0036A8",
"fW c #00124D",
"gW c #141421",
"hW c #0036A6",
"iW c #00124B",
"jW c #1D1C21",
"kW c #131221",
"lW c #181821",
"mW c #29292B",
"nW c #101121",
"oW c #050627",
"pW c #00175C",
"qW c #00339F",
"rW c #001148",
"sW c #282928",
"tW c #2B2C2C",
"uW c #2A2B2B",
"vW c #191820",
"wW c #0E0E24",
"xW c #050732",
"yW c #001867",
"zW c #00329D",
"{W c #18171E",
"|W c #0D0E25",
"}W c #040939",
"~W c #001A6E",
" X c #00329F",
"!X c #09091E",
"#X c #1A1A21",
"$X c #16151D",
"%X c #0B0C26",
"&X c #040B3F",
"'X c #001D75",
"(X c #00319E",
")X c #001047",
"*X c #0A0C27",
"+X c #030D45",
",X c #001F7B",
"-X c #00309B",
".X c #001046",
"/X c #14111C",
"0X c #090B29",
"1X c #030E4A",
"2X c #002180",
"3X c #002F98",
"4X c #001044",
"5X c #09091C",
"6X c #12101C",
"7X c #080A2B",
"8X c #031152",
"9X c #002387",
":X c #002C96",
";X c #000F43",
"<X c #120F1C",
"=X c #070B2E",
">X c #02145A",
"?X c #00278F",
"@X c #002C95",
"AX c #000F42",
"BX c #110E1C",
"CX c #060A30",
"DX c #021760",
"EX c #002A95",
"FX c #002C94",
"GX c #0F0B1B",
"HX c #050932",
"IX c #021967",
"JX c #002D9B",
"KX c #00278B",
"LX c #000D40",
"MX c #242326",
"NX c #0E0B1C",
"OX c #040934",
"PX c #011B6D",
"QX c #002FA1",
"RX c #002689",
"SX c #000D3E",
"TX c #0A0A1C",
"UX c #0D0B1C",
"VX c #020A36",
"WX c #011D71",
"XX c #0030A5",
"YX c #292A29",
"ZX c #232425",
"[X c #0B0B1C",
"]X c #010A36",
"^X c #001D73",
"_X c #0031A7",
"`X c #002688",
"aX c #000D3D",
"bX c #0A0B1C",
"cX c #000B38",
"dX c #002079",
"eX c #0034AD",
"fX c #0033B3",
"gX c #00207E",
"hX c #000B3B",
"iX c #0B0A1B",
"jX c #000D3B",
"kX c #002684",
"lX c #0031AF",
"mX c #001E7B",
"nX c #000A3A",
"oX c #0A0A1D",
"pX c #1D1D22",
"qX c #000E3E",
"rX c #00298A",
"sX c #0032B2",
"tX c #001F7D",
"uX c #000A3B",
"vX c #000E3F",
"wX c #00298C",
"xX c #0032B3",
"yX c #212124",
"zX c #000E41",
"{X c #002B92",
"|X c #0031B2",
"}X c #001E7D",
"~X c #00309D",
" Y c #002EAD",
"!Y c #001C78",
"#Y c #000939",
"$Y c #1F1E23",
"%Y c #09091F",
"&Y c #00114A",
"'Y c #0033A1",
"(Y c #002EAB",
")Y c #001B75",
"*Y c #000937",
"+Y c #1E1D24",
",Y c #090821",
"-Y c #0035A6",
".Y c #002DAC",
"/Y c #001A76",
"0Y c #272828",
"1Y c #1D1D23",
"2Y c #080822",
"3Y c #001352",
"4Y c #0038B1",
"5Y c #002EAC",
"6Y c #001B76",
"7Y c #1C1B23",
"8Y c #080823",
"9Y c #001355",
":Y c #002FAB",
";Y c #001C75",
"<Y c #000938",
"=Y c #1A1A23",
">Y c #001356",
"?Y c #001C76",
"@Y c #181823",
"AY c #070725",
"BY c #001458",
"CY c #002DAD",
"DY c #001B77",
"EY c #010938",
"FY c #0B0A1C",
"GY c #171722",
"HY c #161623",
"IY c #06062A",
"JY c #001660",
"KY c #002BA9",
"LY c #001973",
"MY c #010836",
"NY c #141324",
"OY c #050737",
"PY c #00176E",
"QY c #002AA7",
"RY c #001770",
"SY c #010835",
"TY c #242525",
"UY c #121224",
"VY c #040942",
"WY c #001979",
"XY c #0029A6",
"YY c #00176F",
"ZY c #101125",
"[Y c #030B48",
"]Y c #001C7E",
"^Y c #011770",
"_Y c #020835",
"`Y c #0C0A1B",
"aY c #0F0F26",
"bY c #030E4E",
"cY c #001F84",
"dY c #0D0A1B",
"eY c #0E0E28",
"fY c #031054",
"gY c #00228B",
"hY c #030836",
"iY c #0D0A1C",
"jY c #0C0D29",
"kY c #02125C",
"lY c #002492",
"mY c #212024",
"nY c #0B0D2A",
"oY c #021463",
"pY c #002699",
"qY c #040835",
"rY c #0E0A1B",
"sY c #090C2C",
"tY c #01166C",
"uY c #0029A1",
"vY c #0029A4",
"wY c #01176E",
"xY c #202023",
"yY c #080C2D",
"zY c #011872",
"{Y c #002BA7",
"|Y c #00269F",
"}Y c #011468",
"~Y c #040733",
" Z c #0E0A1C",
"!Z c #2A2926",
"#Z c #1F1F23",
"$Z c #060C30",
"%Z c #001C7A",
"&Z c #002FAF",
"'Z c #00259E",
"(Z c #021367",
")Z c #050733",
"*Z c #0F0B1C",
"+Z c #2A2827",
",Z c #201E23",
"-Z c #070E32",
".Z c #00249D",
"/Z c #021366",
"0Z c #050833",
"1Z c #0F0C1C",
"2Z c #060E33",
"3Z c #00268E",
"4Z c #00239A",
"5Z c #021163",
"6Z c #050832",
"7Z c #100D1D",
"8Z c #282927",
"9Z c #1E1F23",
":Z c #060F35",
";Z c #002791",
"<Z c #002298",
"=Z c #021161",
">Z c #050831",
"?Z c #100E1D",
"@Z c #1D1E23",
"AZ c #060F37",
"BZ c #002A97",
"CZ c #002297",
"DZ c #02105F",
"EZ c #060930",
"FZ c #282929",
"GZ c #061039",
"HZ c #002E9F",
"IZ c #002194",
"JZ c #02105C",
"KZ c #07092F",
"LZ c #110F1C",
"MZ c #06103A",
"NZ c #002FA4",
"OZ c #001F8F",
"PZ c #030E56",
"QZ c #08092D",
"RZ c #222024",
"SZ c #1C1C23",
"TZ c #06103B",
"UZ c #002FA6",
"VZ c #001D8A",
"WZ c #030C52",
"XZ c #08092B",
"YZ c #1B1B23",
"ZZ c #06103D",
"[Z c #0030A9",
"]Z c #001B87",
"^Z c #030B4E",
"_Z c #13111D",
"`Z c #191A22",
"aZ c #051040",
"bZ c #0032B1",
"cZ c #001982",
"dZ c #030949",
"eZ c #0A0A2A",
"fZ c #14121E",
"gZ c #232225",
"hZ c #181723",
"iZ c #051043",
"jZ c #00187F",
"kZ c #030846",
"lZ c #0A0A29",
"mZ c #14131E",
"nZ c #171723",
"oZ c #051045",
"pZ c #00177C",
"qZ c #040844",
"rZ c #0B0B29",
"sZ c #15141E",
"tZ c #232325",
"uZ c #2A2B29",
"vZ c #051046",
"wZ c #001677",
"xZ c #04073F",
"yZ c #0B0C28",
"zZ c #232525",
"{Z c #2A2C29",
"|Z c #051048",
"}Z c #00146F",
"~Z c #040537",
" [ c #0D0D26",
"![ c #141424",
"#[ c #04104A",
"$[ c #001368",
"%[ c #050530",
"&[ c #0E0E23",
"'[ c #131324",
"([ c #04104C",
")[ c #001364",
"*[ c #05052C",
"+[ c #0F0F23",
",[ c #001361",
"-[ c #060629",
".[ c #111122",
"/[ c #1B1B21",
"0[ c #1C1B22",
"1[ c #111125",
"2[ c #041050",
"3[ c #001261",
"4[ c #1C1C21",
"5[ c #1B1A20",
"6[ c #100F26",
"7[ c #031059",
"8[ c #00115E",
"9[ c #060628",
":[ c #131323",
";[ c #19181F",
"<[ c #03105F",
"=[ c #00115B",
">[ c #070727",
"?[ c #141422",
"@[ c #18171F",
"A[ c #0E0D29",
"B[ c #031062",
"C[ c #001159",
"D[ c #070726",
"E[ c #252325",
"F[ c #18151E",
"G[ c #0D0C29",
"H[ c #031165",
"I[ c #001057",
"J[ c #080725",
"K[ c #171622",
"L[ c #17151E",
"M[ c #0C0C2B",
"N[ c #03136A",
"O[ c #001056",
"P[ c #080824",
"Q[ c #16141E",
"R[ c #0B0C2D",
"S[ c #02166F",
"T[ c #001054",
"U[ c #181722",
"V[ c #15131E",
"W[ c #0A0B2F",
"X[ c #021773",
"Y[ c #002EB0",
"Z[ c #000F52",
"[[ c #191822",
"][ c #2C2C28",
"^[ c #14121F",
"_[ c #090B30",
"`[ c #021876",
"a[ c #002CAB",
"b[ c #000F50",
"c[ c #090822",
"d[ c #1A1922",
"e[ c #13111F",
"f[ c #080A31",
"g[ c #021878",
"h[ c #0028A4",
"i[ c #000D4B",
"j[ c #1B1B22",
"k[ c #12101E",
"l[ c #070A32",
"m[ c #01197C",
"n[ c #00259C",
"o[ c #000C48",
"p[ c #1C1C22",
"q[ c #110F1D",
"r[ c #060934",
"s[ c #011B84",
"t[ c #002296",
"u[ c #000B45",
"v[ c #0A0A1F",
"w[ c #110E1D",
"x[ c #011B86",
"y[ c #000A42",
"z[ c #0A0A1E",
"{[ c #222125",
"|[ c #100E1E",
"}[ c #050935",
"~[ c #001C89",
" ] c #000940",
"!] c #1D1E22",
"#] c #100D1E",
"$] c #050835",
"%] c #011C88",
"&] c #001983",
"'] c #00083F",
"(] c #1E1D23",
")] c #0F0C1E",
"*] c #050838",
"+] c #011E8D",
",] c #00177F",
"-] c #00083E",
".] c #2B2B27",
"/] c #011E8E",
"0] c #0027B3",
"1] c #00177B",
"2] c #00083C",
"3] c #292A2B",
"4] c #2A2B28",
"5] c #2A2C27",
"6] c #0E0B1E",
"7] c #040738",
"8] c #011D8D",
"9] c #293577",
":] c #2C3670",
";] c #2E376A",
"<] c #313861",
"=] c #32385C",
">] c #0026AF",
"?] c #001577",
"@] c #01073A",
"A] c #0B0A1E",
"B] c #040739",
"C] c #011D8F",
"D] c #68626F",
"E] c #6A6366",
"F] c #6B6362",
"G] c #0023A9",
"H] c #011270",
"I] c #030637",
"J] c #0E0B1D",
"K] c #202024",
"L] c #0D0B1E",
"M] c #02083B",
"N] c #001F95",
"O] c #D3D1D2",
"P] c #D2D0D0",
"Q] c #001FA3",
"R] c #02106A",
"S] c #050735",
"T] c #0F0C1D",
"U] c #0C0B1F",
"V] c #02083C",
"W] c #001F96",
"X] c #001E9E",
"Y] c #020E65",
"Z] c #0F0D1D",
"[] c #02083D",
"]] c #002098",
"^] c #001E99",
"_] c #020E60",
"`] c #050731",
"a] c #01093E",
"b] c #00229D",
"c] c #001B92",
"d] c #020B58",
"e] c #06072F",
"f] c #110E1E",
"g] c #01093F",
"h] c #00239E",
"i] c #001788",
"j] c #03074F",
"k] c #08082C",
"l] c #12111E",
"m] c #202025",
"n] c #0B0B20",
"o] c #00093F",
"p] c #00229E",
"q] c #001582",
"r] c #030649",
"s] c #09092A",
"t] c #1F1F25",
"u] c #0A0A20",
"v] c #000941",
"w] c #0024A1",
"x] c #001581",
"y] c #040748",
"z] c #0B0A2B",
"{] c #16141F",
"|] c #1E1E24",
"}] c #000B43",
"~] c #0028A9",
" ^ c #00147A",
"!^ c #040741",
"#^ c #000C44",
"$^ c #002AAC",
"%^ c #001268",
"&^ c #0E0E25",
"'^ c #1E1E23",
"(^ c #000B44",
")^ c #0028AB",
"*^ c #001164",
"+^ c #101023",
",^ c #0B0A1F",
"-^ c #000C46",
".^ c #0029AE",
"/^ c #001163",
"0^ c #06062B",
"1^ c #111123",
"2^ c #0B0A20",
"3^ c #002BB2",
"4^ c #001060",
"5^ c #121223",
"6^ c #1F1F24",
"7^ c #0A0A21",
"8^ c #000C4A",
"9^ c #00105E",
":^ c #070728",
";^ c #141423",
"<^ c #000D4A",
"=^ c #000F5E",
">^ c #1F1E24",
"?^ c #000F5B",
"@^ c #080827",
"A^ c #222223",
"B^ c #000E56",
"C^ c #080825",
"D^ c #181822",
"E^ c #1D1E24",
"F^ c #000D4D",
"G^ c #000E53",
"H^ c #191922",
"I^ c #28292A",
"J^ c #000E4E",
"K^ c #000D4F",
"L^ c #090922",
"M^ c #28282A",
"N^ c #1D1D24",
"O^ c #0A0A22",
"P^ c #000E4F",
"Q^ c #000C4B",
"R^ c #090920",
"S^ c #292829",
"T^ c #282726",
"U^ c #0026B1",
"V^ c #000B47",
"W^ c #0A0A23",
"X^ c #000E50",
"Y^ c #0020A3",
"Z^ c #000842",
"[^ c #1D1C25",
"]^ c #0A0924",
"^^ c #000E52",
"_^ c #001D9B",
"`^ c #00073F",
"a^ c #1C1C25",
"b^ c #090924",
"c^ c #1B35A3",
"d^ c #001C98",
"e^ c #00073D",
"f^ c #1B1C25",
"g^ c #000E54",
"h^ c #E7E7E7",
"i^ c #001B95",
"j^ c #01063A",
"k^ c #252627",
"l^ c #1A1C25",
"m^ c #D4D4D3",
"n^ c #001990",
"o^ c #020638",
"p^ c #0D0A1D",
"q^ c #1B1B25",
"r^ c #828281",
"s^ c #7D7D7C",
"t^ c #011685",
"u^ c #201F23",
"v^ c #1B1B24",
"w^ c #090923",
"x^ c #010F6F",
"y^ c #05042C",
"z^ c #1B1A23",
"{^ c #010C64",
"|^ c #050628",
"}^ c #10101E",
"~^ c #222225",
" _ c #1A1A22",
"!_ c #000E51",
"#_ c #020D5D",
"$_ c #161721",
"%_ c #232426",
"&_ c #000D50",
"'_ c #050F56",
"(_ c #18182B",
")_ c #222226",
"*_ c #1C1B24",
"+_ c #051051",
",_ c #1A1B2B",
"-_ c #252628",
"._ c #1F1E26",
"/_ c #040E51",
"0_ c #141429",
"1_ c #1F2027",
"2_ c #2E2E2C",
"3_ c #25232A",
"4_ c #0C0C25",
"5_ c #030D51",
"6_ c #222129",
"7_ c #0B0B25",
"8_ c #000D52",
"9_ c #030C50",
":_ c #0D0C23",
";_ c #171620",
"<_ c #171623",
"=_ c #080724",
">_ c #000E55",
"?_ c #030D4F",
"@_ c #17171F",
"A_ c #131320",
"B_ c #000E58",
"C_ c #040D4F",
"D_ c #121225",
"E_ c #202123",
"F_ c #171724",
"G_ c #040D4D",
"H_ c #141425",
"I_ c #171726",
"J_ c #080829",
"K_ c #000F5D",
"L_ c #040D4C",
"M_ c #151524",
"N_ c #212125",
"O_ c #161626",
"P_ c #07072A",
"Q_ c #000F60",
"R_ c #050D4B",
"S_ c #161624",
"T_ c #151526",
"U_ c #07072B",
"V_ c #001062",
"W_ c #050E4A",
"X_ c #171725",
"Y_ c #141426",
"Z_ c #07072D",
"[_ c #001064",
"]_ c #050D49",
"^_ c #171625",
"__ c #272526",
"`_ c #141427",
"a_ c #07072E",
"b_ c #001065",
"c_ c #050D48",
"d_ c #1D1C23",
"e_ c #121227",
"f_ c #060631",
"g_ c #001068",
"h_ c #050D47",
"i_ c #1B1C23",
"j_ c #111128",
"k_ c #060636",
"l_ c #00116E",
"m_ c #050D45",
"n_ c #191823",
"o_ c #272729",
"p_ c #0F1029",
"q_ c #05053A",
"r_ c #001172",
"s_ c #0024B4",
"t_ c #050D42",
"u_ c #1A1923",
"v_ c #0E0E2B",
"w_ c #050542",
"x_ c #00117A",
"y_ c #0023B0",
"z_ c #060D41",
"{_ c #181621",
"|_ c #0D0B2D",
"}_ c #04064B",
"~_ c #001283",
" ` c #0022AD",
"!` c #060D40",
"#` c #161420",
"$` c #0B0B2F",
"%` c #040852",
"&` c #00148A",
"'` c #0020AA",
"(` c #050C3F",
")` c #151220",
"*` c #0A0931",
"+` c #030958",
",` c #001691",
"-` c #001FA7",
".` c #060C3E",
"/` c #232326",
"0` c #141220",
"1` c #090932",
"2` c #030A5C",
"3` c #001795",
"4` c #001EA5",
"5` c #060C3D",
"6` c #222326",
"7` c #03095B",
"8` c #001794",
"9` c #001DA1",
":` c #060C3C",
";` c #252427",
"<` c #0B0C32",
"=` c #04095B",
">` c #001693",
"?` c #001D9F",
"@` c #060D3C",
"A` c #1F2025",
"B` c #292B28",
"C` c #2F2F2C",
"D` c #1C1924",
"E` c #101035",
"F` c #050B5C",
"G` c #001594",
"H` c #001A99",
"I` c #070C3A",
"J` c #202026",
"K` c #222023",
"L` c #191722",
"M` c #001593",
"N` c #001590",
"O` c #060B39",
"P` c #1E1E25",
"Q` c #222221",
"R` c #0D0D0E",
"S` c #0C0C13",
"T` c #080A34",
"U` c #03095D",
"V` c #001695",
"W` c #060A38",
"X` c #0D0D0C",
"Y` c #060606",
"Z` c #040405",
"[` c #050407",
"]` c #05040D",
"^` c #040317",
"_` c #020635",
"`` c #010C66",
"a` c #001A9E",
"b` c #00158E",
"c` c #060A37",
"d` c #222120",
"e` c #1B1A1A",
"f` c #070707",
"g` c #030303",
"h` c #010101",
"i` c #000000",
"j` c #010102",
"k` c #020203",
"l` c #030306",
"m` c #03030D",
"n` c #040318",
"o` c #030636",
"p` c #010D69",
"q` c #001BA1",
"r` c #001389",
"s` c #050936",
"t` c #040404",
"u` c #020202",
"v` c #000001",
"w` c #000002",
"x` c #010105",
"y` c #04030D",
"z` c #09061B",
"{` c #080A39",
"|` c #030D68",
"}` c #001A9F",
"~` c #001387",
" a c #11111B",
"!a c #111213",
"#a c #040403",
"$a c #0C0C0B",
"%a c #080809",
"&a c #03020C",
"'a c #08061A",
"(a c #030E69",
")a c #001488",
"*a c #010535",
"+a c #050613",
",a c #07070C",
"-a c #060607",
".a c #090908",
"/a c #242422",
"0a c #08080B",
"1a c #01010A",
"2a c #030215",
"3a c #030736",
"4a c #010F6D",
"5a c #001DA6",
"6a c #000434",
"7a c #00000F",
"8a c #010107",
"9a c #343434",
":a c #373737",
";a c #393939",
"<a c #3A3A3A",
"=a c #383838",
">a c #30302F",
"?a c #0C0C12",
"@a c #060616",
"Aa c #020630",
"Ba c #010C5F",
"Ca c #001A98",
"Da c #001183",
"Ea c #000433",
"Fa c #020210",
"Ga c #030207",
"Ha c #020103",
"Ia c #0A0A09",
"Ja c #333333",
"Ka c #323231",
"La c #31312E",
"Ma c #0C0C26",
"Na c #040638",
"Oa c #00117F",
"Pa c #020532",
"Qa c #0A0815",
"Ra c #0A080D",
"Sa c #030304",
"Ta c #0B0B0A",
"Ua c #20201F",
"Va c #353535",
"Wa c #333334",
"Xa c #323232",
"Ya c #333332",
"Za c #292A2A",
"[a c #1D1D27",
"]a c #0A0A27",
"^a c #000A50",
"_a c #01107F",
"`a c #040732",
"aa c #0B0A16",
"ba c #0D0C10",
"ca c #0A090B",
"da c #363636",
"ea c #353536",
"fa c #343435",
"ga c #30302C",
"ha c #242428",
"ia c #010744",
"ja c #001DA5",
"ka c #02107F",
"la c #070833",
"ma c #080712",
"na c #0C0C0F",
"oa c #131314",
"pa c #303031",
"qa c #31312D",
"ra c #262528",
"sa c #0F0D21",
"ta c #03063C",
"ua c #011895",
"va c #001CB4",
"wa c #02107D",
"xa c #060731",
"ya c #05050E",
"za c #0C0D0E",
"{a c #313030",
"|a c #32312E",
"}a c #282629",
"~a c #131122",
" b c #070834",
"!b c #01147C",
"#b c #001BAF",
"$b c #010E78",
"%b c #04052F",
"&b c #02020A",
"'b c #222220",
"(b c #2E2E2B",
")b c #313130",
"*b c #32322F",
"+b c #2A292B",
",b c #191825",
"-b c #0C0D2B",
".b c #03105C",
"/b c #001BAD",
"0b c #010E76",
"1b c #01032E",
"2b c #010008",
"3b c #232321",
"4b c #2F2F2D",
"5b c #1F1E27",
"6b c #121126",
"7b c #040D4A",
"8b c #001CB0",
"9b c #000E79",
":b c #000009",
";b c #242427",
"<b c #001CB3",
"=b c #010F7C",
">b c #010430",
"?b c #01000A",
"@b c #09090A",
"Ab c #1C1C1A",
"Bb c #1D1D26",
"Cb c #060D43",
"Db c #0020AF",
"Eb c #011186",
"Fb c #030536",
"Gb c #01010F",
"Hb c #08080C",
"Ib c #171715",
"Jb c #22221F",
"Kb c #222228",
"Lb c #080C37",
"Mb c #001489",
"Nb c #01179D",
"Ob c #010540",
"Pb c #010018",
"Qb c #050512",
"Rb c #262629",
"Sb c #0B0C2F",
"Tb c #010B6A",
"Ub c #0018A2",
"Vb c #001FB1",
"Wb c #00064B",
"Xb c #000022",
"Yb c #030319",
"Zb c #0A0A14",
"[b c #161618",
"]b c #32322E",
"^b c #0F0E2B",
"_b c #030753",
"`b c #00148B",
"ab c #000858",
"bb c #00002E",
"cb c #020223",
"db c #060718",
"eb c #121319",
"fb c #141428",
"gb c #050638",
"hb c #001170",
"ib c #001584",
"jb c #000857",
"kb c #01053F",
"lb c #030524",
"mb c #0E0F1B",
"nb c #2F2F30",
"ob c #323233",
"pb c #31312F",
"qb c #191927",
"rb c #00189C",
"sb c #000D6E",
"tb c #010637",
"ub c #0C0D1E",
"vb c #212224",
"wb c #2D2D29",
"xb c #1F1F27",
"yb c #090929",
"zb c #000D5B",
"{b c #001490",
"|b c #000745",
"}b c #232428",
"~b c #0A0A26",
" c c #000A52",
"!c c #001FAA",
"#c c #001AA5",
"$c c #00094F",
"%c c #26272A",
"&c c #0B0C23",
"'c c #00148D",
"(c c #000B58",
")c c #181724",
"*c c #313230",
"+c c #0E0E22",
",c c #02063C",
"-c c #010E77",
".c c #001CAF",
"/c c #000D67",
"0c c #121127",
"1c c #1E1C24",
"2c c #151323",
"3c c #080934",
"4c c #030A5D",
"5c c #000F82",
"6c c #03044A",
"7c c #09092D",
"8c c #151522",
"9c c #262728",
":c c #2E302C",
";c c #1C1C24",
"<c c #11122A",
"=c c #060839",
">c c #001295",
"?c c #02055C",
"@c c #050633",
"Ac c #111021",
"Bc c #242527",
"Cc c #2D2F2B",
"Dc c #181920",
"Ec c #0F1022",
"Fc c #050529",
"Gc c #000E5F",
"Hc c #0017A6",
"Ic c #010A6E",
"Jc c #030539",
"Kc c #0E0D21",
"Lc c #2D2D2A",
"Mc c #19191A",
"Nc c #0C0C14",
"Oc c #050518",
"Pc c #020225",
"Qc c #000C5B",
"Rc c #010E7F",
"Sc c #020540",
"Tc c #0C0B22",
"Uc c #212025",
"Vc c #0A0910",
"Wc c #060516",
"Xc c #030223",
"Yc c #010953",
"Zc c #001CA6",
"[c c #001392",
"]c c #010647",
"^c c #0B0B23",
"_c c #121214",
"`c c #070522",
"ac c #020647",
"bc c #01128A",
"cc c #0018A5",
"dc c #000850",
"ec c #0A0925",
"fc c #1D1C24",
"gc c #050505",
"hc c #121213",
"ic c #10101A",
"jc c #07051F",
"kc c #02043F",
"lc c #010C78",
"mc c #001AAF",
"nc c #000A5A",
"oc c #161523",
"pc c #19181C",
"qc c #090911",
"rc c #010437",
"sc c #000B6E",
"tc c #001AA7",
"uc c #000C61",
"vc c #05052A",
"wc c #111119",
"xc c #111112",
"yc c #0E0E0D",
"zc c #060605",
"{c c #0A0A0B",
"|c c #090910",
"}c c #060617",
"~c c #04072F",
" d c #010A59",
"!d c #001792",
"#d c #000F6E",
"$d c #010335",
"%d c #040422",
"&d c #0C0C1A",
"'d c #181A1B",
"(d c #111116",
")d c #0E0E26",
"*d c #050632",
"+d c #000F66",
",d c #001495",
"-d c #02095D",
".d c #050634",
"/d c #08071B",
"0d c #0B0B0F",
"1d c #1B1C1E",
"2d c #171824",
"3d c #00084E",
"4d c #001DB1",
"5d c #0018AC",
"6d c #020D75",
"7d c #05083E",
"8d c #05040C",
"9d c #1C1C1E",
":d c #151516",
";d c #121112",
"<d c #141314",
"=d c #1B1C1B",
">d c #090825",
"?d c #010546",
"@d c #00169D",
"Ad c #010E84",
"Bd c #020645",
"Cd c #03031F",
"Dd c #060611",
"Ed c #0E0E10",
"Fd c #161615",
"Gd c #141313",
"Hd c #13131B",
"Id c #080620",
"Jd c #02043E",
"Kd c #001492",
"Ld c #001DB4",
"Md c #001AAA",
"Nd c #00169F",
"Od c #001290",
"Pd c #001086",
"Qd c #000F7B",
"Rd c #00106C",
"Sd c #000F65",
"Td c #000E62",
"Ud c #010E60",
"Vd c #020D5E",
"Wd c #030C5C",
"Xd c #040C5B",
"Yd c #050D5B",
"Zd c #050D5A",
"[d c #040D5B",
"]d c #010E5D",
"^d c #001061",
"_d c #00106B",
"`d c #00117D",
"ad c #001796",
"bd c #001296",
"cd c #00064D",
"dd c #030323",
"ed c #101013",
"fd c #131319",
"gd c #050736",
"hd c #01117D",
"id c #0221B1",
"jd c #021CA5",
"kd c #031592",
"ld c #031287",
"md c #041384",
"nd c #04137E",
"od c #051073",
"pd c #060D68",
"qd c #070959",
"rd c #08084F",
"sd c #080745",
"td c #080836",
"ud c #08082F",
"vd c #090930",
"wd c #09092F",
"xd c #09092C",
"yd c #0A092A",
"zd c #0C0929",
"{d c #0D0929",
"|d c #0E0929",
"}d c #09092B",
"~d c #080834",
" e c #050646",
"!e c #030A5F",
"#e c #01137F",
"$e c #001F9F",
"%e c #001AAC",
"&e c #000956",
"'e c #10101D",
"(e c #181816",
")e c #131321",
"*e c #0C0E2D",
"+e c #030E5E",
",e c #0019AA",
"-e c #001397",
".e c #00108A",
"/e c #000F7E",
"0e c #000F73",
"1e c #000F6A",
"2e c #000E64",
"3e c #010E61",
"4e c #020C5A",
"5e c #060B55",
"6e c #070B50",
"7e c #080A4A",
"8e c #090B47",
"9e c #0C0E46",
":e c #0D0F43",
";e c #0E0F3E",
"<e c #10103A",
"=e c #141435",
">e c #161632",
"?e c #171730",
"@e c #18182D",
"Ae c #19192B",
"Be c #1A1A2B",
"Ce c #1B1B2B",
"De c #1A1B2A",
"Ee c #1A1B28",
"Fe c #1A1A26",
"Ge c #1B1A26",
"He c #1B1B27",
"Ie c #1A1A28",
"Je c #17172B",
"Ke c #101030",
"Le c #0A0B38",
"Me c #030943",
"Ne c #001C92",
"Oe c #000B62",
"Pe c #060630",
"Qe c #151518",
"Re c #181817",
"Se c #191A1B",
"Te c #171922",
"Ue c #111227",
"Ve c #030C4C",
"We c #021FB2",
"Xe c #021BA7",
"Ye c #03179A",
"Ze c #03148F",
"[e c #041286",
"]e c #04117E",
"^e c #050F73",
"_e c #070A60",
"`e c #070753",
"ae c #080848",
"be c #08083D",
"ce c #090834",
"de c #09082F",
"ee c #09092E",
"fe c #0B0928",
"ge c #0E0926",
"he c #0F0A25",
"ie c #100C26",
"je c #110E26",
"ke c #141025",
"le c #151224",
"me c #161323",
"ne c #181622",
"oe c #1C1A23",
"pe c #1E1C22",
"qe c #201F25",
"re c #212126",
"se c #202122",
"te c #0D0D25",
"ue c #08082A",
"ve c #030333",
"we c #000C5D",
"xe c #000D71",
"ye c #06063C",
"ze c #151427",
"{e c #1A1A1F",
"|e c #040C46",
"}e c #0019B1",
"~e c #0016A8",
" f c #00139C",
"!f c #001192",
"#f c #001089",
"$f c #000F7D",
"%f c #020D5F",
"&f c #030C5B",
"'f c #040B56",
"(f c #060A52",
")f c #070B4D",
"*f c #090C4A",
"+f c #0B0D47",
",f c #0D0F44",
"-f c #0F103F",
".f c #131138",
"/f c #151334",
"0f c #161631",
"1f c #18182E",
"2f c #1A1A2A",
"3f c #1B1B29",
"4f c #1A1A25",
"5f c #1B1A24",
"6f c #1D1C22",
"7f c #1E1E20",
"8f c #1F1F20",
"9f c #1E1F1F",
":f c #1F1E1F",
";f c #1F1E1E",
"<f c #1E1F20",
"=f c #1D1E21",
">f c #171626",
"?f c #080729",
"@f c #00043B",
"Af c #001479",
"Bf c #001083",
"Cf c #05074C",
"Df c #12132B",
"Ef c #11111A",
"Ff c #030837",
"Gf c #001892",
"Hf c #021DAE",
"If c #03189F",
"Jf c #031593",
"Kf c #031184",
"Lf c #050F7A",
"Mf c #060E71",
"Nf c #070B65",
"Of c #07095B",
"Pf c #080852",
"Qf c #080746",
"Rf c #080838",
"Sf c #080831",
"Tf c #0A092B",
"Uf c #0C0927",
"Vf c #0E0A26",
"Wf c #100C25",
"Xf c #120E25",
"Yf c #131025",
"Zf c #151225",
"[f c #171423",
"]f c #1B1723",
"^f c #1D1A23",
"_f c #201F24",
"`f c #202121",
"af c #1E1E1D",
"bf c #242421",
"cf c #080828",
"df c #02094C",
"ef c #0023AC",
"ff c #00149F",
"gf c #030968",
"hf c #0B0B2E",
"if c #070706",
"jf c #080807",
"kf c #08080E",
"lf c #06071C",
"mf c #050E48",
"nf c #060E49",
"of c #090D46",
"pf c #0B0C43",
"qf c #0C0D40",
"rf c #0D0D3D",
"sf c #0F0E39",
"tf c #121136",
"uf c #141334",
"vf c #161431",
"wf c #18152E",
"xf c #19182D",
"yf c #1B1B2A",
"zf c #1C1C29",
"{f c #1D1D28",
"|f c #1C1C26",
"}f c #1E1E1C",
"~f c #191923",
" g c #090B31",
"!g c #020955",
"#g c #001687",
"$g c #0018AE",
"%g c #020B75",
"&g c #05042B",
"'g c #050507",
"(g c #050506",
")g c #151415",
"*g c #18191B",
"+g c #1A1B25",
",g c #1B1B26",
"-g c #1C1A25",
".g c #1C1A24",
"/g c #181825",
"0g c #000B55",
"1g c #0020A6",
"2g c #01128E",
"3g c #020961",
"4g c #040424",
"5g c #04030A",
"6g c #1C1B1B",
"7g c #1D1B1C",
"8g c #1E1D1D",
"9g c #212222",
":g c #212021",
";g c #1D1D1E",
"<g c #1E1D1C",
"=g c #1D1E1E",
">g c #0C0C23",
"?g c #030A41",
"@g c #01157D",
"Ag c #0022B4",
"Bg c #0015B2",
"Cg c #0014AB",
"Dg c #0012A1",
"Eg c #000E8E",
"Fg c #000D7A",
"Gg c #000D70",
"Hg c #000D6B",
"Ig c #000D66",
"Jg c #000D63",
"Kg c #010B59",
"Lg c #020648",
"Mg c #040534",
"Ng c #08080A",
"Og c #0A0A08",
"Pg c #1E1F1E",
"Qg c #0A0B31",
"Rg c #030A4A",
"Sg c #001781",
"Tg c #0319B3",
"Ug c #0316A8",
"Vg c #031199",
"Wg c #030E8D",
"Xg c #040D84",
"Yg c #050D7C",
"Zg c #060C75",
"[g c #060B6B",
"]g c #070858",
"^g c #080844",
"_g c #08083A",
"`g c #090935",
"ag c #0A0929",
"bg c #0B0924",
"cg c #0C0B1E",
"dg c #0F0F16",
"eg c #111110",
"fg c #111127",
"gg c #06062E",
"hg c #0012AD",
"ig c #00109C",
"jg c #000F8E",
"kg c #000E7D",
"lg c #000D72",
"mg c #000C6C",
"ng c #000C69",
"og c #000B68",
"pg c #010B65",
"qg c #04095D",
"rg c #070A57",
"sg c #080A53",
"tg c #090A4E",
"ug c #0A0B4A",
"vg c #0C0C47",
"wg c #0E0D43",
"xg c #101040",
"yg c #12123C",
"zg c #151436",
"{g c #171731",
"|g c #19192E",
"}g c #1A1A2D",
"~g c #1A1B29",
" h c #1A1B26",
"!h c #191925",
"#h c #000A4F",
"$h c #001D9E",
"%h c #0215A9",
"&h c #03119B",
"'h c #030F91",
"(h c #040E8A",
")h c #050D84",
"*h c #060B77",
"+h c #070966",
",h c #090937",
"-h c #090933",
".h c #0A092F",
"/h c #0D092B",
"0h c #0F0B28",
"1h c #100C27",
"2h c #110D27",
"3h c #120F27",
"4h c #141026",
"5h c #161325",
"6h c #181624",
"7h c #1A1823",
"8h c #1D1B23",
"9h c #212225",
":h c #212223",
";h c #222121",
"<h c #0D0D24",
"=h c #040941",
">h c #01127C",
"?h c #001FB3",
"@h c #0012AF",
"Ah c #000FA0",
"Bh c #000D92",
"Ch c #000D86",
"Dh c #000D7B",
"Eh c #000C70",
"Fh c #000C6A",
"Gh c #000C68",
"Hh c #020B64",
"Ih c #05095A",
"Jh c #070955",
"Kh c #080A50",
"Lh c #0A0B4D",
"Mh c #0B0C4A",
"Nh c #0D0E47",
"Oh c #111042",
"Ph c #13123B",
"Qh c #151337",
"Rh c #161633",
"Sh c #181830",
"Th c #1A1A2C",
"Uh c #1C1A26",
"Vh c #1C1D21",
"Wh c #1F1E1D",
"Xh c #131322",
"Yh c #0B0C34",
"Zh c #040957",
"[h c #0214AA",
"]h c #030E93",
"^h c #050C85",
"_h c #060B79",
"`h c #070869",
"ah c #07075B",
"bh c #080850",
"ch c #080845",
"dh c #09083B",
"eh c #090835",
"fh c #0A092E",
"gh c #0B092B",
"hh c #0D0A29",
"ih c #100D28",
"jh c #120F28",
"kh c #131027",
"lh c #151226",
"mh c #1B1824",
"nh c #1D1B25",
"oh c #1E1E26",
"ph c #212127",
"qh c #1F201E",
"rh c #1E201E",
"sh c #11112C",
"th c #000F70",
"uh c #0211A7",
"vh c #030F90",
"wh c #050D73",
"xh c #050C63",
"yh c #050D58",
"zh c #050D51",
"{h c #050C50",
"|h c #060C4D",
"}h c #080B48",
"~h c #0A0C43",
" i c #0D0D3E",
"!i c #131237",
"#i c #161333",
"$i c #181630",
"%i c #1B1A2C",
"&i c #1C1B2B",
"'i c #1D1C2A",
"(i c #041FA0",
")i c #001091",
"*i c #000C75",
"+i c #050753",
",i c #09084B",
"-i c #0D0D42",
".i c #141237",
"/i c #171631",
"0i c #19192D",
"1i c #1A1B27",
"2i c #1B1A25",
"3i c #1F1D1E",
"4i c #1C1D1D",
"5i c #0F101F",
"6i c #0B0E33",
"7i c #10175E",
"8i c #141D7A",
"9i c #182287",
":i c #1D237C",
";i c #1D2176",
"<i c #1B2079",
"=i c #162499",
">i c #0015AC",
"?i c #020E88",
"@i c #05095C",
"Ai c #070740",
"Bi c #080833",
"Ci c #0E0B2A",
"Di c #110D28",
"Ei c #1D1E1D",
"Fi c #1D1C1D",
"Gi c #14151E",
"Hi c #111226",
"Ii c #151439",
"Ji c #272555",
"Ki c #4C4B7F",
"Li c #58547C",
"Mi c #514A6D",
"Ni c #40375D",
"Oi c #2C2E76",
"Pi c #000F8B",
"Qi c #00075C",
"Ri c #040849",
"Si c #0D0E3A",
"Ti c #141430",
"Ui c #1C1B21",
"Vi c #1A1A1D",
"Wi c #17171E",
"Xi c #151521",
"Yi c #414151",
"Zi c #ABAABC",
"[i c #C8C6D3",
"]i c #AFACB5",
"^i c #7C797E",
"_i c #4E5074",
"`i c #243197",
"ai c #0016B0",
"bi c #020759",
"ci c #070730",
"di c #0D0D28",
"ei c #202120",
"fi c #3F3F3F",
"gi c #4C4C4C",
"hi c #515151",
"ii c #4D4D4D",
"ji c #424242",
"ki c #1C1B1C",
"li c #171617",
"mi c #464646",
"ni c #BDBDBD",
"oi c #E3E3E3",
"pi c #C8C7C4",
"qi c #8D8B81",
"ri c #58586A",
"si c #292F7D",
"ti c #0E21A4",
"ui c #001399",
"vi c #010966",
"wi c #06093C",
"xi c #161629",
"yi c #4B4B4B",
"zi c #606060",
"{i c #858585",
"|i c #969696",
"}i c #676767",
"~i c #505050",
" j c #434343",
"!j c #A9A9AA",
"#j c #716E68",
"$j c #4A4858",
"%j c #26276B",
"&j c #0F2097",
"'j c #000A6C",
"(j c #03043C",
")j c #0E0F2C",
"*j c #3D3D3D",
"+j c #414141",
",j c #444444",
"-j c #474747",
".j c #4A4A4A",
"/j c #484848",
"0j c #454545",
"1j c #3C3C3C",
"2j c #5C5C5C",
"3j c #686868",
"4j c #5E5E5E",
"5j c #7E7E7E",
"6j c #949494",
"7j c #9B9B9B",
"8j c #848484",
"9j c #626262",
":j c #212221",
";j c #1F201F",
"<j c #555556",
"=j c #747475",
">j c #737272",
"?j c #605F5B",
"@j c #484651",
"Aj c #292756",
"Bj c #141F7F",
"Cj c #000F9C",
"Dj c #000556",
"Ej c #080830",
"Fj c #191A27",
"Gj c #4F4F4F",
"Hj c #575757",
"Ij c #808080",
"Jj c #868686",
"Kj c #656565",
"Lj c #5D5D5D",
"Mj c #535353",
"Nj c #AEAEAE",
"Oj c #A3A3A3",
"Pj c #5B5B5B",
"Qj c #D0D0D0",
"Rj c #DBDBDB",
"Sj c #E8E8E8",
"Tj c #EDEDED",
"Uj c #E9E9E9",
"Vj c #DEDEDE",
"Wj c #D4D4D4",
"Xj c #CCCCCC",
"Yj c #A9A9A9",
"Zj c #4F4F4E",
"[j c #5C5C59",
"]j c #525053",
"^j c #312C3E",
"_j c #1B1F5E",
"`j c #122AB3",
"aj c #020880",
"bj c #050747",
"cj c #0E0E29",
"dj c #494949",
"ej c #5F5F5F",
"fj c #7B7B7B",
"gj c #8A8A8A",
"hj c #919191",
"ij c #B4B4B4",
"jj c #BABABA",
"kj c #999999",
"lj c #7D7D7D",
"mj c #646464",
"nj c #A2A2A2",
"oj c #E0E0E0",
"pj c #FBFBFB",
"qj c #F4F4F4",
"rj c #636363",
"sj c #7C7C7C",
"tj c #D3D3D3",
"uj c #F1F1F1",
"vj c #FAFAFA",
"wj c #FFFFFF",
"xj c #FDFDFD",
"yj c #F9F9F9",
"zj c #D9D9D9",
"{j c #9C9C9C",
"|j c #838482",
"}j c #534E4E",
"~j c #34335A",
" k c #1D2A9B",
"!k c #3944A7",
"#k c #000D95",
"$k c #050760",
"%k c #10113B",
"&k c #545454",
"'k c #929292",
"(k c #E4E4E4",
")k c #E5E5E5",
"*k c #EAEAEA",
"+k c #EFEFEF",
",k c #F0F0F0",
"-k c #EEEEEE",
".k c #EBEBEB",
"/k c #E6E6E6",
"0k c #DFDFDF",
"1k c #979797",
"2k c #525252",
"3k c #585858",
"4k c #616161",
"5k c #696969",
"6k c #565656",
"7k c #DDDDDD",
"8k c #FEFEFE",
"9k c #F6F6F6",
":k c #D5D5D5",
";k c #FCFCFC",
"<k c #F7F7F7",
"=k c #313132",
">k c #959596",
"?k c #B4B3B0",
"@k c #87847E",
"Ak c #58586D",
"Bk c #292D7C",
"Ck c #0F20A2",
"Dk c #3642AE",
"Ek c #3B46A6",
"Fk c #41499D",
"Gk c #444A97",
"Hk c #464B90",
"Ik c #494C87",
"Jk c #4C4E7A",
"Kk c #4E5073",
"Lk c #505170",
"Mk c #585874",
"Nk c #6D6C83",
"Ok c #7E7C8E",
"Pk c #8A8895",
"Qk c #97979D",
"Rk c #000B77",
"Sk c #080842",
"Tk c #171832",
"Uk c #CECECE",
"Vk c #D8D8D8",
"Wk c #F2F2F2",
"Xk c #F3F3F3",
"Yk c #3E3E3E",
"Zk c #CFCFCF",
"[k c #BFBFBF",
"]k c #A4A4A4",
"^k c #D7D7D7",
"_k c #52504C",
"`k c #3B3A47",
"ak c #222355",
"bk c #151E80",
"ck c #1B2CAE",
"dk c #1E2CA9",
"ek c #202CA3",
"fk c #212C9C",
"gk c #232C92",
"hk c #242D85",
"ik c #272D76",
"jk c #2D3066",
"kk c #373968",
"lk c #414370",
"mk c #4F5179",
"nk c #5C5D81",
"ok c #676886",
"pk c #75758F",
"qk c #84849A",
"rk c #9292A5",
"sk c #A5A5B4",
"tk c #B8B8C0",
"uk c #C1C1C9",
"vk c #C7C6D2",
"wk c #CAC9D4",
"xk c #CBCACF",
"yk c #CDCBCC",
"zk c #D0CECD",
"{k c #D7D5D3",
"|k c #DDDBD8",
"}k c #E0DFDC",
"~k c #E3E2E0",
" l c #E0E0DF",
"!l c #D7D7D8",
"#l c #090939",
"$l c #222227",
"%l c #4E4E4E",
"&l c #F8F8F8",
"'l c #F5F5F5",
"(l c #3B3B3B",
")l c #8D8D8D",
"*l c #D1D1D1",
"+l c #3C3C3B",
",l c #4D4D4C",
"-l c #555453",
".l c #47464E",
"/l c #2F2F4D",
"0l c #242969",
"1l c #2C38A7",
"2l c #3E46A3",
"3l c #484D99",
"4l c #4E529A",
"5l c #545698",
"6l c #5A5A94",
"7l c #5E5D8D",
"8l c #5F5E83",
"9l c #615E76",
":l c #666166",
";l c #706A69",
"<l c #7A7572",
"=l c #959188",
">l c #A09C93",
"?l c #ACA89F",
"@l c #B9B7AE",
"Al c #C4C2B9",
"Bl c #D0CEC5",
"Cl c #DBDACF",
"Dl c #E0DFD6",
"El c #E1E0DE",
"Fl c #DFDFE0",
"Gl c #DBDADB",
"Hl c #D7D6D6",
"Il c #D2D2D2",
"Jl c #C4C4C4",
"Kl c #BBBBBC",
"Ll c #ACACAD",
"Ml c #9E9E9F",
"Nl c #919192",
"Ol c #000A70",
"Pl c #09093B",
"Ql c #1B1B30",
"Rl c #DADADA",
"Sl c #D6D6D6",
"Tl c #B3B3B3",
"Ul c #6F6F6F",
"Vl c #E2E2E2",
"Wl c #A7A7A7",
"Xl c #ECECEC",
"Yl c #949392",
"Zl c #838285",
"[l c #514F5A",
"]l c #3E3D51",
"^l c #555775",
"_l c #7E7F95",
"`l c #9595A6",
"al c #A3A3B3",
"bl c #B1B1BE",
"cl c #BFBEC8",
"dl c #C7C6CF",
"el c #C9C8D2",
"fl c #CBC9D2",
"gl c #CFCECD",
"hl c #D3D1D0",
"il c #D8D6D4",
"jl c #DCDAD8",
"kl c #DFDEDB",
"ll c #E2E1DD",
"ml c #E3E2DE",
"nl c #DEDDDA",
"ol c #CFCFCC",
"pl c #C1C1BD",
"ql c #B7B7B4",
"rl c #A09FA0",
"sl c #939192",
"tl c #858485",
"ul c #787778",
"vl c #595959",
"wl c #DCDCDC",
"xl c #797979",
"yl c #767676",
"zl c #555555",
"{l c #9F9F9F",
"|l c #909090",
"}l c #6F6E6E",
"~l c #6F6B64",
" m c #ADABA0",
"!m c #C9C8BD",
"#m c #D0CFC4",
"$m c #D8D7CC",
"%m c #E1E0D5",
"&m c #E5E3DB",
"'m c #E2E2DE",
"(m c #DEDFDE",
")m c #C5C5C6",
"*m c #777778",
"+m c #6D6D6E",
",m c #656465",
"-m c #5D5C5D",
".m c #5A5A5A",
"/m c #000A6E",
"0m c #1A1A2E",
"1m c #E1E1E1",
"2m c #B2B2B2",
"3m c #CDCDCD",
"4m c #666564",
"5m c #767574",
"6m c #C9C8C5",
"7m c #E4E3E0",
"8m c #D4D4D0",
"9m c #C8C8C4",
":m c #BFBFBB",
";m c #B5B5B2",
"<m c #A8AAA8",
"=m c #9C9D9C",
">m c #575758",
"?m c #565657",
"@m c #535354",
"Am c #4E4E4D",
"Bm c #4A4A49",
"Cm c #474746",
"Dm c #484849",
"Em c #5E5F5F",
"Fm c #090938",
"Gm c #828282",
"Hm c #404040",
"Im c #9D9D9D",
"Jm c #89898A",
"Km c #B7B7B8",
"Lm c #646465",
"Mm c #A7A7A9",
"Nm c #818181",
"Om c #767776",
"Pm c #525253",
"Qm c #4C4C4D",
"Rm c #4B4B4C",
"Sm c #4E4E4F",
"Tm c #515152",
"Um c #5D5D5B",
"Vm c #5F5F5D",
"Wm c #60605F",
"Xm c #777879",
"Ym c #878888",
"Zm c #D9D9DA",
"[m c #E0E0E1",
"]m c #A0A0A1",
"^m c #959595",
"_m c #3E3E3F",
"`m c #353537",
"am c #48484A",
"bm c #4F4F51",
"cm c #59595A",
"dm c #8B8B8C",
"em c #D7D8D8",
"fm c #DCDDDD",
"gm c #3F3F3E",
"hm c #373739",
"im c #AAAAAA",
"jm c #39393A",
"km c #3D3D3E",
"lm c #818182",
"mm c #A7A7A6",
"nm c #B2B2B3",
"om c #BEBEBF",
"pm c #DADAD9",
"qm c #DFDFDE",
"rm c #C4C4C3",
"sm c #8B8B8B",
"tm c #000A71",
"um c #09093C",
"vm c #1B1A31",
"wm c #7A7A7A",
"xm c #838384",
"ym c #C4C4C5",
"zm c #616160",
"{m c #666667",
"|m c #C2C2C3",
"}m c #C8C9C9",
"~m c #010B71",
" n c #1A1A30",
"!n c #ACACAC",
"#n c #AEAEAF",
"$n c #DDDDDC",
"%n c #9E9E9E",
"&n c #040C6E",
"'n c #0A0938",
"(n c #666666",
")n c #5C5C5D",
"*n c #4F4F50",
"+n c #7E7E7F",
",n c #C7C7C8",
"-n c #D8D8D9",
".n c #090D66",
"/n c #0D0B30",
"0n c #1A182A",
"1n c #4A4A4B",
"2n c #545455",
"3n c #DBDBDC",
"4n c #2932B0",
"5n c #1C1D5D",
"6n c #17152F",
"7n c #1C1A27",
"8n c #7C7C7D",
"9n c #E4E4E5",
":n c #E5E5E6",
";n c #1D23A7",
"<n c #22269B",
"=n c #262991",
">n c #292C88",
"?n c #2B2E7D",
"@n c #323470",
"An c #414175",
"Bn c #4E4D7E",
"Cn c #5B5C87",
"Dn c #545678",
"En c #3B3B51",
"Fn c #292835",
"Gn c #B5B5B6",
"Hn c #D3D3D4",
"In c #464647",
"Jn c #49494A",
"Kn c #1A22B4",
"Ln c #2D2E9D",
"Mn c #4647A1",
"Nn c #55569F",
"On c #5C5B98",
"Pn c #605E90",
"Qn c #636188",
"Rn c #65637D",
"Sn c #6B6870",
"Tn c #797675",
"Un c #86827E",
"Vn c #949187",
"Wn c #87847D",
"Xn c #5E5D5E",
"Yn c #3D3D41",
"Zn c #999998",
"[n c #5C5D5D",
"]n c #2A2B82",
"^n c #555173",
"_n c #9796A9",
"`n c #BDBCC9",
"an c #C6C5D4",
"bn c #CACAD8",
"cn c #CBCBD7",
"dn c #CCCBD4",
"en c #CECDCF",
"fn c #D2D1D1",
"gn c #D7D6D4",
"hn c #DCDBD7",
"in c #C0C0BD",
"jn c #858584",
"kn c #484747",
"ln c #585959",
"mn c #7E7F7F",
"nn c #888989",
"on c #31306A",
"pn c #67625F",
"qn c #BCBBAD",
"rn c #E8E8D9",
"sn c #E9E9E2",
"tn c #E9E9E7",
"un c #515150",
"vn c #616060",
"wn c #6A6969",
"xn c #808181",
"yn c #A6A5A5",
"zn c #BDBEBE",
"{n c #2A2B6B",
"|n c #58545A",
"}n c #A09F9A",
"~n c #BCBCB5",
" o c #ADADAA",
"!o c #373736",
"#o c #ABAAAA",
"$o c #8A8B8B",
"%o c #6E6E6F",
"&o c #1B1D6A",
"'o c #312E41",
"(o c #504F53",
")o c #4A4949",
"*o c #4D4E4E",
"+o c #535355",
",o c #5C5C5E",
"-o c #161868",
".o c #2D2840",
"/o c #4E4D53",
"0o c #6A6A6B",
"1o c #605F5F",
"2o c #707171",
"3o c #7B7B7C",
"4o c #888889",
"5o c #B8B8B7",
"6o c #E3E3E2",
"7o c #E1E1E0",
"8o c #181A68",
"9o c #433E53",
":o c #8E8C8E",
";o c #BABAB5",
"<o c #444445",
"=o c #C9C8C8",
">o c #E8E8E7",
"?o c #191B68",
"@o c #4A465A",
"Ao c #A3A1A3",
"Bo c #D6D6D0",
"Co c #E3E3E1",
"Do c #E2E2E3",
"Eo c #585857",
"Fo c #5E5E5F",
"Go c #181C6B",
"Ho c #423F56",
"Io c #8D8C8F",
"Jo c #B5B5B0",
"Ko c #BABAB8",
"Lo c #A2A2A4",
"Mo c #9C9C9D",
"No c #414143",
"Oo c #404041",
"Po c #171A70",
"Qo c #373452",
"Ro c #706F75",
"So c #8C8C87",
"To c #767677",
"Uo c #707072",
"Vo c #3A3A3B",
"Wo c #676768",
"Xo c #585859",
"Yo c #151878",
"Zo c #28264F",
"[o c #4D4D56",
"]o c #5B5B55",
"^o c #50504E",
"_o c #4B4B4A",
"`o c #747473",
"ao c #727271",
"bo c #9D9D9E",
"co c #505051",
"do c #5B5B5C",
"eo c #4D4D4E",
"fo c #1C1E6C",
"go c #2A294D",
"ho c #494850",
"io c #5B5B56",
"jo c #60605D",
"ko c #69696A",
"lo c #A8A8A7",
"mo c #50504F",
"no c #808081",
"oo c #353BC0",
"po c #3C40BA",
"qo c #4043B5",
"ro c #4346AC",
"so c #4749A4",
"to c #4A4B9B",
"uo c #4C4D8F",
"vo c #4F4E7E",
"wo c #535177",
"xo c #545472",
"yo c #444456",
"zo c #4A4B54",
"{o c #676769",
"|o c #D1D1D0",
"}o c #D0D0CF",
"~o c #616162",
" p c #ADADAC",
"!p c #2327AC",
"#p c #2528A1",
"$p c #292B8D",
"%p c #2D2E74",
"&p c #32336E",
"'p c #393A73",
"(p c #43447A",
")p c #505183",
"*p c #5E5E8C",
"+p c #6D6C93",
",p c #7A799B",
"-p c #8C8BA7",
".p c #A2A1B7",
"/p c #B0AFC1",
"0p c #C5C4D0",
"1p c #C9C8D6",
"2p c #CBCAD6",
"3p c #CCCBD0",
"4p c #CDCCCE",
"5p c #C2C1C1",
"6p c #8F8E8E",
"7p c #7F7F80",
"8p c #C9C9CA",
"9p c #CBCBCC",
":p c #4143BE",
";p c #4648B7",
"<p c #4C4CB1",
"=p c #5151AC",
">p c #5656A8",
"?p c #5C5BA4",
"@p c #605F9D",
"Ap c #63618C",
"Bp c #666474",
"Cp c #6A686E",
"Dp c #716F73",
"Ep c #7B797A",
"Fp c #888683",
"Gp c #96948E",
"Hp c #A4A399",
"Ip c #B1B0A5",
"Jp c #C1C0B7",
"Kp c #D4D3C8",
"Lp c #DEDDD1",
"Mp c #E6E4D8",
"Np c #E9E8DF",
"Op c #E8E7E4",
"Pp c #E6E6E5",
"Qp c #626263",
"Rp c #7F7E9F",
"Sp c #8A89A6",
"Tp c #9696AF",
"Up c #A3A3B8",
"Vp c #B1B1C2",
"Wp c #C2C1CF",
"Xp c #CAC9D6",
"Yp c #CBCAD7",
"Zp c #CCCCD1",
"[p c #CDCDCF",
"]p c #D0CFD0",
"^p c #D3D2D3",
"_p c #D8D7D6",
"`p c #DCDCD9",
"ap c #E1E1DD",
"bp c #E5E5E1",
"cp c #E8E8E5",
"dp c #E6E6E2",
"ep c #DFDFDB",
"fp c #D4D4D1",
"gp c #C9C9C6",
"hp c #858587",
"ip c #605F61",
"jp c #949495",
"kp c #828283",
"lp c #696968",
"mp c #B6B5AB",
"np c #C1C0B6",
"op c #CBCAC0",
"pp c #D4D3C9",
"qp c #DEDED2",
"rp c #E9E9DD",
"sp c #EDEDE3",
"tp c #E6E6E4",
"up c #D0D0D1",
"vp c #CDCDCE",
"wp c #CACACB",
"xp c #B0B0B1",
"yp c #A2A2A3",
"zp c #878786",
"{p c #5E5E60",
"|p c #3F3F40",
"}p c #C8C8C9",
"~p c #7D7D7E",
" q c #D2D2D3",
"!q c #DDDDDE",
"#q c #E7E6E3",
"$q c #EAEAE7",
"%q c #E9E9E6",
"&q c #E4E4E0",
"'q c #DCDCD8",
"(q c #D3D3CF",
")q c #C7C7C5",
"*q c #B4B4B5",
"+q c #A3A3A4",
",q c #8B8B8A",
"-q c #727273",
".q c #68686A",
"/q c #555557",
"0q c #515153",
"1q c #ADADAF",
"2q c #BCBCBD",
"3q c #D6D6D7",
"4q c #AAAAAB",
"5q c #B9B9BA",
"6q c #ADADAE",
"7q c #6F6F70",
"8q c #5C5C5B",
"9q c #6C6C6B",
":q c #CECECF",
";q c #DEDEE0",
"<q c #E8E8E9",
"=q c #EBEBEC",
">q c #8E8E8D",
"?q c #454547",
"@q c #D2D2D1",
"Aq c #454546",
"Bq c #DEDEDD",
"Cq c #DBDBDA",
"Dq c #C1C1C2",
"Eq c #686869",
"Fq c #A6A6A7",
"Gq c #EEEEEF",
"Hq c #DCDCDD",
"Iq c #626261",
"Jq c #595958",
"Kq c #878788",
"Lq c #40403F",
"Mq c #545453",
"Nq c #8A8A89",
"Oq c #606061",
"Pq c #979798",
"Qq c #A4A4A5",
"Rq c #636362",
"Sq c #757576",
"Tq c #949493",
"Uq c #9F9F9E",
"Vq c #3C3C3D",
"Wq c #F0F0F1",
"Xq c #EDEDEE",
"Yq c #AFAFB0",
"Zq c #CCCCCD",
"[q c #AEAEAC",
"]q c #E9E9EA",
"^q c #E1E1E2",
"_q c #9A9A99",
"`q c #CFCFCE",
"aq c #E2E2E0",
"bq c #EDEDEB",
"cq c #F0F0EF",
"dq c #909091",
"eq c #ECECEB",
"fq c #636364",
"gq c #D5D5D6",
"hq c #DADADB",
"iq c #939394",
"jq c #B3B3B4",
"kq c #959597",
"lq c #8E8E8F",
"mq c #9C9C9E",
"nq c #A9A9AB",
"oq c #6C6C6D",
"pq c #D1D1D2",
"qq c #D4D4D5",
"rq c #646463",
"sq c #BDBDBE",
"tq c #8A8A8B",
"uq c #5A5A5B",
"vq c #F1F1F2",
"wq c #939392",
"xq c #969697",
"yq c #A5A5A6",
"zq c #D7D7D6",
"{q c #959696",
"|q c #48494A",
"}q c #1F2020",
"~q c #3C3D3E",
" r c #2D2D2F",
"!r c #686867",
"#r c #A4A4A7",
"$r c #B3B3B5",
"%r c #E3E3E4",
"&r c #434344",
"'r c #9A9A9B",
"(r c #DBDBDD",
")r c #9F9FA1",
"*r c #868687",
"+r c #F3F3F4",
",r c #F2F2F3",
"-r c #D3D3D2",
".r c #4C4C4E",
"/r c #929293",
"0r c #454544",
"1r c #484847",
"2r c #5F5F60",
"3r c #787879",
"4r c #7E7E7D",
"5r c #424241",
"6r c #424243",
"7r c #8C8C8D",
"8r c #B4B4B2",
"9r c #C0C0BE",
":r c #6B6B6C",
";r c #8F8F8E",
"<r c #9E9E9D",
"=r c #DEDEDF",
">r c #B8B8B9",
"?r c #C3C3C4",
"@r c #474748",
"Ar c #3E3E3D",
"Br c #B6B6B8",
"Cr c #434342",
"Dr c #BFBFC0",
"Er c #D9D9DB",
"Fr c #414140",
"Gr c #9D9D9C",
"Hr c #ABABAA",
"Ir c #D6D6D5",
"Jr c #919190",
"Kr c #737374",
"Lr c #545456",
"Mr c #2E2E2F",
"Nr c #AFAFAE",
"Or c #A0A09F",
"Pr c #535352",
"Qr c #C3C3C5",
"Rr c #CFCFD0",
"Sr c #F7F7F8",
"Tr c #858586",
"Ur c #4C4C4B",
"Vr c #B1B1B0",
"Wr c #717170",
"Xr c #444443",
"Yr c #41413F",
"Zr c #9B9B9C",
"[r c #A7A7A8",
"]r c #CBCBCA",
"^r c #79797A",
"_r c #494948",
"`r c #3D3D3C",
"ar c #5F5F5E",
"br c #3B3B3C",
"cr c #323236",
"dr c #2A2A2D",
"er c #A1A1A2",
"fr c #606063",
"gr c #4E4E51",
"hr c #4A4A4C",
"ir c #C6C6C7",
"jr c #EFEFEE",
"kr c #5D5D5E",
"lr c #D8D8D7",
"mr c #7A7A7B",
"nr c #C5C5C3",
"or c #8C8C8B",
"pr c #B8B8BA",
"qr c #414142",
"rr c #8F8F8D",
"sr c #656567",
"tr c #666668",
"ur c #737372",
"vr c #D5D5D3",
"wr c #DCDCDB",
"xr c #0C0C0D",
"yr c #07070B",
"zr c #1E1F1D",
"{r c #15141B",
"|r c #16161D",
"}r c #3F3F41",
"~r c #666664",
" s c #5D5D5C",
"!s c #0A0920",
"#s c #0C0B30",
"$s c #131223",
"%s c #49484D",
"&s c #3A3A39",
"'s c #080919",
"(s c #03062F",
")s c #070D5D",
"*s c #0C105E",
"+s c #121133",
",s c #49464E",
"-s c #C0C0C1",
".s c #FAFAF9",
"/s c #F4F4F3",
"0s c #EDEDEC",
"1s c #03041B",
"2s c #02084A",
"3s c #0616A4",
"4s c #0C1AA5",
"5s c #14154E",
"6s c #3D3943",
"7s c #878684",
"8s c #93938E",
"9s c #252527",
":s c #FCFCFB",
";s c #F0F0EE",
"<s c #DEDFDB",
"=s c #C7C8C4",
">s c #1B1B1A",
"?s c #010123",
"@s c #010A5D",
"As c #041DC9",
"Bs c #13176E",
"Cs c #2D2948",
"Ds c #58565D",
"Es c #6E6E6A",
"Fs c #ABABA9",
"Gs c #D5D5D2",
"Hs c #D2D2CF",
"Is c #CFCFCD",
"Js c #CDCCCC",
"Ks c #C9C8C7",
"Ls c #BCBBB9",
"Ms c #919091",
"Ns c #ABABAC",
"Os c #07070D",
"Ps c #02021E",
"Qs c #000031",
"Rs c #0F1894",
"Ss c #18175F",
"Ts c #22223E",
"Us c #919187",
"Vs c #808177",
"Ws c #75766D",
"Xs c #7F7F78",
"Ys c #807F78",
"Zs c #77766F",
"[s c #6F6E68",
"]s c #656260",
"^s c #5E5A5A",
"_s c #545056",
"`s c #4A4655",
"as c #03030E",
"bs c #010128",
"cs c #000350",
"ds c #000F86",
"es c #0A1AB9",
"fs c #0C1080",
"gs c #09093D",
"hs c #2E2B3B",
"is c #817F81",
"js c #7E7D82",
"ks c #696873",
"ls c #545366",
"ms c #46455D",
"ns c #3D3E58",
"os c #363755",
"ps c #303056",
"qs c #2C2C58",
"rs c #27285E",
"ss c #232463",
"ts c #202269",
"us c #0D0E13",
"vs c #02043D",
"ws c #000B8E",
"xs c #0016C3",
"ys c #0615BB",
"zs c #0B0E76",
"{s c #151359",
"|s c #232467",
"}s c #242670",
"~s c #22257B",
" t c #20248A",
"!t c #1F2498",
"#t c #1E26A3",
"$t c #1D26AD",
"%t c #1A25B7",
"&t c #1724C4",
"'t c #0C0C18",
"(t c #05061F",
")t c #01064B",
"*t c #0017BE",
"+t c #191917",
",t c #030327",
"-t c #01065B",
".t c #0E0D18",
"/t c #070521",
"0t c #020134",
"1t c #000670",
"2t c #171718",
"3t c #141515",
"4t c #0F1014",
"5t c #050324",
"6t c #020244",
"7t c #000A93",
"8t c #0E0E15",
"9t c #08081A",
":t c #010557",
";t c #0013C1",
"<t c #02022F",
"=t c #000767",
">t c #121217",
"?t c #030328",
"@t c #01013B",
"At c #000A72",
"Bt c #0E0E17",
"Ct c #020234",
"Dt c #010253",
"Et c #000C8A",
"Ft c #717172",
"Gt c #707071",
"Ht c #111115",
"It c #030326",
"Jt c #00034C",
"Kt c #00098B",
"Lt c #0013BF",
"Mt c #03032D",
"Nt c #000761",
"Ot c #0016BC",
"Pt c #03033B",
"Qt c #000973",
"Rt c #3E3D3B",
"St c #121226",
"Tt c #080835",
"Ut c #030353",
"Vt c #000A89",
"Wt c #E7E7E8",
"Xt c #4B4B49",
"Yt c #151329",
"Zt c #0B0B45",
"[t c #04087A",
"]t c #000EB0",
"^t c #19142C",
"_t c #0E0D57",
"`t c #0511B0",
"at c #969695",
"bt c #D8D8D6",
"ct c #666562",
"dt c #2E2C3A",
"et c #1F1B4B",
"ft c #12157E",
"gt c #DFDEDD",
"ht c #706E67",
"it c #383751",
"jt c #262788",
"kt c #1620BB",
"lt c #525251",
"mt c #E4E4E1",
"nt c #85847A",
"ot c #4E4E6B",
"pt c #3134A6",
"qt c #E8E8E6",
"rt c #B7B6AD",
"st c #828195",
"tt c #47469C",
"ut c #2127B8",
"vt c #FEFEFD",
"wt c #FAFAF8",
"xt c #686866",
"yt c #0E0E0F",
"zt c #E9E9E8",
"{t c #E8E8E1",
"|t c #B4B3B8",
"}t c #5B587B",
"~t c #272985",
" u c #7A7A7C",
"!u c #E4E4E2",
"#u c #E0E0DE",
"$u c #DBDBD9",
"%u c #D7D7D4",
"&u c #D2D2D0",
"'u c #C4C4C2",
"(u c #595957",
")u c #E7E7E6",
"*u c #FAFAF6",
"+u c #C7C6C6",
",u c #64616D",
"-u c #2C2C70",
".u c #363637",
"/u c #C9C9C5",
"0u c #BCBCB6",
"1u c #AFAFA9",
"2u c #A1A19B",
"3u c #93938C",
"4u c #85857E",
"5u c #787871",
"6u c #FEFEFC",
"7u c #6B676D",
"8u c #31316E",
"9u c #939292",
":u c #78777D",
";u c #6A6A74",
"<u c #5B5B6B",
"=u c #4D4D64",
">u c #403F5F",
"?u c #36355C",
"@u c #22214D",
"Au c #1D1C40",
"Bu c #010104",
"Cu c #B6B5B5",
"Du c #656266",
"Eu c #33336E",
"Fu c #A4A4A6",
"Gu c #6A6B6A",
"Hu c #4C4B51",
"Iu c #444352",
"Ju c #403E5F",
"Ku c #3A396B",
"Lu c #333276",
"Mu c #2D2D85",
"Nu c #282898",
"Ou c #2424A4",
"Pu c #1D1FA7",
"Qu c #17189A",
"Ru c #121379",
"Su c #0B0C45",
"Tu c #020212",
"Uu c #010109",
"Vu c #040406",
"Wu c #999997",
"Xu c #858384",
"Yu c #565258",
"Zu c #323270",
"[u c #1A23CB",
"]u c #CBCBCD",
"^u c #DADADC",
"_u c #3F3F4A",
"`u c #252659",
"au c #1E1F6B",
"bu c #1D1E7C",
"cu c #1C1D8C",
"du c #191B9C",
"eu c #171AB0",
"fu c #1619C7",
"gu c #0A0DA4",
"hu c #030459",
"iu c #00002A",
"ju c #000019",
"ku c #01010D",
"lu c #040408",
"mu c #888884",
"nu c #7A7878",
"ou c #4B4751",
"pu c #29296C",
"qu c #141EC9",
"ru c #949492",
"su c #969694",
"tu c #4D4D69",
"uu c #1F23A9",
"vu c #030BC2",
"wu c #01046B",
"xu c #000036",
"yu c #000021",
"zu c #010112",
"{u c #020209",
"|u c #0D0D0B",
"}u c #2F2F31",
"~u c #AAAAA2",
" v c #969492",
"!v c #45414F",
"#v c #171862",
"$v c #0D1BC9",
"%v c #A2A29F",
"&v c #A9A8A6",
"'v c #55547A",
"(v c #000477",
")v c #00003F",
"*v c #000028",
"+v c #010117",
",v c #070708",
"-v c #B7B7AF",
".v c #979698",
"/v c #3F3B57",
"0v c #101269",
"1v c #E6E6E7",
"2v c #464644",
"3v c #8B8B87",
"4v c #595880",
"5v c #000485",
"6v c #00004E",
"7v c #01011C",
"8v c #02020D",
"9v c #BEBDBC",
":v c #A5A39F",
";v c #716F82",
"<v c #363479",
"=v c #141997",
">v c #444442",
"?v c #525254",
"@v c #7E7E7C",
"Av c #5F6084",
"Bv c #0004A2",
"Cv c #00006C",
"Dv c #00003E",
"Ev c #01011F",
"Fv c #06060A",
"Gv c #0F0F10",
"Hv c #42426C",
"Iv c #282BB1",
"Jv c #606062",
"Kv c #393938",
"Lv c #78787A",
"Mv c #878789",
"Nv c #807F7E",
"Ov c #656587",
"Pv c #2629C6",
"Qv c #0005B9",
"Rv c #000183",
"Sv c #000048",
"Tv c #010122",
"Uv c #777779",
"Vv c #626064",
"Wv c #2C2D67",
"Xv c #1F26C8",
"Yv c #3A3A3C",
"Zv c #39393B",
"[v c #7C7B7A",
"]v c #6B6B89",
"^v c #282BBA",
"_v c #000299",
"`v c #000152",
"av c #010126",
"bv c #020215",
"cv c #CECECD",
"dv c #514E5F",
"ev c #22236C",
"fv c #3B3B3A",
"gv c #FFFFFE",
"hv c #A0A09E",
"iv c #8D8D89",
"jv c #82817E",
"kv c #6D6C88",
"lv c #292AB2",
"mv c #0003AA",
"nv c #00015B",
"ov c #01012B",
"pv c #020218",
"qv c #06060F",
"rv c #D6D6D4",
"sv c #413F6E",
"tv c #1A1D86",
"uv c #FBFBF8",
"vv c #E7E7E2",
"wv c #C2C2BB",
"xv c #ABABA2",
"yv c #A2A297",
"zv c #939289",
"{v c #6A6982",
"|v c #2626AF",
"}v c #0005B7",
"~v c #000266",
" w c #000033",
"!w c #01011E",
"#w c #050513",
"$w c #C5C5C1",
"%w c #787885",
"&w c #323394",
"'w c #161EB9",
"(w c #C9C9CB",
")w c #D7D7D9",
"*w c #FBFBFA",
"+w c #F7F7F6",
",w c #F2F2F1",
"-w c #DFDFDD",
".w c #DBDBD8",
"/w c #D4D4D2",
"0w c #878688",
"1w c #7A7881",
"2w c #525185",
"3w c #1D1EBB",
"4w c #0008C3",
"5w c #00036E",
"6w c #000039",
"7w c #010124",
"8w c #0F0F11",
"9w c #121210",
":w c #B2B1B1",
";w c #B1B0AD",
"<w c #69687A",
"=w c #2E30A5",
">w c #FDFDFC",
"?w c #F3F3EF",
"@w c #D8D8D3",
"Aw c #C9C9C4",
"Bw c #ACACA6",
"Cw c #9F9F97",
"Dw c #919189",
"Ew c #7D7D77",
"Fw c #666669",
"Gw c #626267",
"Hw c #5A5963",
"Iw c #4D4C5D",
"Jw c #43425B",
"Kw c #3E3B5D",
"Lw c #363468",
"Mw c #262590",
"Nw c #000375",
"Ow c #01013F",
"Pw c #02022A",
"Qw c #06061C",
"Rw c #A5A4A4",
"Sw c #6D6D7E",
"Tw c #3536A3",
"Uw c #1A21C9",
"Vw c #F7F7F4",
"Ww c #EFEFED",
"Xw c #EAEAE8",
"Yw c #E5E5E3",
"Zw c #E1E1DF",
"[w c #DCDCDA",
"]w c #D8D8D5",
"^w c #D3D3D1",
"_w c #CBCACB",
"`w c #939397",
"aw c #84848C",
"bw c #757581",
"cw c #686777",
"dw c #5A596F",
"ew c #454466",
"fw c #34335F",
"gw c #2C2D60",
"hw c #292A66",
"iw c #24256B",
"jw c #1F206E",
"kw c #1A1A72",
"lw c #151575",
"mw c #111184",
"nw c #0C0FAF",
"ow c #000489",
"pw c #010152",
"qw c #020235",
"rw c #060621",
"sw c #AEAEAD",
"tw c #ADACA9",
"uw c #8B8B96",
"vw c #434395",
"ww c #1F25B1",
"xw c #D9D9D7",
"yw c #C6C5C3",
"zw c #A2A2A5",
"{w c #96969A",
"|w c #898990",
"}w c #7C7C87",
"~w c #6F6F7E",
" x c #626277",
"!x c #585873",
"#x c #505072",
"$x c #484973",
"%x c #434473",
"&x c #3E3E74",
"'x c #3A3977",
"(x c #35357E",
")x c #313186",
"*x c #2C2C91",
"+x c #27279F",
",x c #2122B5",
"-x c #1B1EBC",
".x c #181BC5",
"/x c #0005B8",
"0x c #000185",
"1x c #04042B",
"2x c #0D0D1A",
"3x c #EEEEEB",
"4x c #CDCDCC",
"5x c #5F5E76",
"6x c #2A2C7E",
"7x c #626268",
"8x c #585764",
"9x c #464666",
":x c #41406B",
";x c #3B3A77",
"<x c #35358A",
"=x c #2F2F99",
">x c #2A28A5",
"?x c #2524AD",
"@x c #1F20B5",
"Ax c #1B1CC7",
"Bx c #0005BA",
"Cx c #000268",
"Dx c #040437",
"Ex c #101014",
"Fx c #181819",
"Gx c #71706F",
"Hx c #393A70",
"Ix c #2A2968",
"Jx c #25256E",
"Kx c #212276",
"Lx c #1E207E",
"Mx c #1C1E87",
"Nx c #1A1D97",
"Ox c #191CB0",
"Px c #181AC4",
"Qx c #000382",
"Rx c #03034D",
"Sx c #0F0F19",
"Tx c #111113",
"Ux c #85847D",
"Vx c #4E4E79",
"Wx c #3235C6",
"Xx c #1C1EC2",
"Yx c #0004A3",
"Zx c #020170",
"[x c #07053D",
"]x c #121218",
"^x c #151513",
"_x c #181718",
"`x c #A4A39B",
"ax c #6E6D8C",
"bx c #3F40B2",
"cx c #0008C6",
"dx c #010398",
"ex c #0A0A2D",
"fx c #141418",
"gx c #3D3D3F",
"hx c #C3C3BA",
"ix c #8E8EA1",
"jx c #4C4B9C",
"kx c #2328B3",
"lx c #0009C5",
"mx c #010370",
"nx c #03033E",
"ox c #161619",
"px c #18191A",
"qx c #1A1A1B",
"rx c #E3E3DC",
"sx c #AFAEB6",
"tx c #595783",
"ux c #27298F",
"vx c #00059B",
"wx c #000166",
"xx c #03034C",
"yx c #0F0F2D",
"zx c #15142A",
"{x c #141321",
"|x c #141420",
"}x c #171820",
"~x c #F7F7F1",
" y c #656374",
"!y c #2E2F79",
"#y c #0003A3",
"$y c #01017C",
"%y c #06053D",
"&y c #090839",
"'y c #0C0A34",
"(y c #100F2A",
")y c #16162A",
"*y c #161628",
"+y c #191928",
",y c #1C1C28",
"-y c #202027",
".y c #2C2C2F",
"/y c #6F6E70",
"0y c #383971",
"1y c #0004AF",
"2y c #000388",
"3y c #020267",
"4y c #04035F",
"5y c #070658",
"6y c #0A0A53",
"7y c #0F0F4E",
"8y c #101047",
"9y c #101045",
":y c #131344",
";y c #171744",
"<y c #1D1D43",
"=y c #282842",
">y c #37373F",
"?y c #D6D6D3",
"@y c #83837C",
"Ay c #4C4D77",
"By c #3034C5",
"Cy c #0106C8",
"Dy c #0105BD",
"Ey c #0204B9",
"Fy c #0305B3",
"Gy c #0406A6",
"Hy c #030697",
"Iy c #030691",
"Jy c #040790",
"Ky c #090C91",
"Ly c #141694",
"My c #212381",
"Ny c #313256",
"Oy c #6B6B6F",
"Py c #B3B3A9",
"Qy c #7D7D95",
"Ry c #4445A7",
"Sy c #2026C4",
"Ty c #1B20C1",
"Uy c #2A2B7A",
"Vy c #64637E",
"Wy c #FFFFFC",
"Xy c #F6F6F3",
"Yy c #E4E3DB",
"Zy c #B0AEB6",
"[y c #242593",
"]y c #5B598B",
"^y c #CFCFD2",
"_y c #FAFAF7",
"`y c #FCFCFA",
"ay c #1F20AC",
"by c #4E4D9A",
"cy c #B7B6BE",
"dy c #F1F1EE",
"ey c #8F9091",
"fy c #6F6E6F",
"gy c #1A1BBF",
"hy c #3D3CA2",
"iy c #8D8D9B",
"jy c #C6C6C3",
"ky c #C6C7C7",
"ly c #A7A8A8",
"my c #393A3A",
"ny c #2928A2",
"oy c #53546A",
"py c #787977",
"qy c #E1E0DD",
"ry c #A4A29A",
"sy c #6D6C8C",
"ty c #3D3FB3",
"uy c #2222A4",
"vy c #474861",
"wy c #EBEBE8",
"xy c #C4C2BA",
"yy c #8E8DA1",
"zy c #4B4B9D",
"{y c #2227B4",
"|y c #2929A9",
"}y c #696980",
"~y c #3E3E40",
" z c #E4E3DC",
"!z c #B0AEB7",
"#z c #595784",
"$z c #2E2EAD",
"%z c #7C7C91",
"&z c #DDDDDB",
"'z c #C5C4C4",
"(z c #666375",
")z c #2E2E7A",
"*z c #3433AF",
"+z c #848395",
",z c #DFDFDC",
"-z c #D2D1D0",
".z c #444477",
"/z c #3435B0",
"0z c #858497",
"1z c #E0DFDD",
"2z c #3034C3",
"3z c #3434B0",
"4z c #848497",
"5z c #D9D9D8",
"6z c #8F8DA0",
"7z c #3A3DAC",
"8z c #3333B0",
"9z c #838397",
":z c #848485",
";z c #E4E3DA",
"<z c #B0AEB5",
"=z c #454592",
">z c #3030B0",
"?z c #79798E",
"@z c #BEBEBC",
"Az c #F7F7F0",
"Bz c #4F4E82",
"Cz c #2D2CB1",
"Dz c #66657E",
"Ez c #7D7D7B",
"Fz c #CDCCCB",
"Gz c #59587D",
"Hz c #2E2EB2",
"Iz c #696983",
"Jz c #7F7E7D",
"Kz c #6D6C85",
"Lz c #3134C6",
"Mz c #3535B5",
"Nz c #84839C",
"Oz c #FAFAFB",
"Pz c #89889A",
"Qz c #3E3FB4",
"Rz c #3738BD",
"Sz c #8C8CA6",
"Tz c #E2E2E1",
"Uz c #A8A8A9",
"Vz c #A7A6B0",
"Wz c #4C4B9E",
"Xz c #2327B5",
"Yz c #3435CF",
"Zz c #7C7D9B",
"[z c #F9F9F6",
"]z c #5F5D7F",
"^z c #2B2C88",
"_z c #68678C",
"`z c #D5D4D6",
"az c #D8D8DA",
"bz c #383974",
"cz c #5E5C88",
"dz c #D1D1D4",
"ez c #85837D",
"fz c #4E4D79",
"gz c #585789",
"hz c #CFCFD4",
"iz c #C2C2C0",
"jz c #F5F5F4",
"kz c #A4A39A",
"lz c #6D6D8C",
"mz c #54538B",
"nz c #CECDD3",
"oz c #FFFFFD",
"pz c #ECECEA",
"qz c #C4C3B9",
"rz c #8F8EA0",
"sz c #4C4B9F",
"tz c #2327B6",
"uz c #505090",
"vz c #CDCCD0",
"wz c #FFFFF8",
"xz c #B0AFB6",
"yz c #595887",
"zz c #272A93",
"{z c #4C4C9A",
"|z c #C6C6CC",
"}z c #FAFAEF",
"~z c #FDFDFA",
" { c #C5C4C5",
"!{ c #666478",
"#{ c #2E2F7D",
"${ c #4847AB",
"%{ c #BBBAC6",
"&{ c #EFEFE3",
"'{ c #383874",
"({ c #4342B8",
"){ c #ADACBE",
"*{ c #E1E1D4",
"+{ c #F5F5F1",
",{ c #3133C6",
"-{ c #3C3CC1",
".{ c #CBCBC1",
"/{ c #EEEEEA",
"0{ c #E6E6E3",
"1{ c #B3B3AA",
"2{ c #7E7E97",
"3{ c #4545AA",
"4{ c #2125C6",
"5{ c #3537C5",
"6{ c #8586A5",
"7{ c #BCBCB4",
"8{ c #E4E4DA",
"9{ c #B0B0B6",
":{ c #595986",
";{ c #272A92",
"<{ c #7A7A9F",
"={ c #B1B1AB",
">{ c #666477",
"?{ c #2E307C",
"@{ c #6D6C9A",
"A{ c #A4A39F",
"B{ c #E1E0DF",
"C{ c #5D5D91",
"D{ c #959492",
"E{ c #DCDBDB",
"F{ c #85837E",
"G{ c #4E4D7A",
"H{ c #3133C7",
"I{ c #4B4B84",
"J{ c #838385",
"K{ c #A4A49A",
"L{ c #6E6E8D",
"M{ c #3E3FB6",
"N{ c #3F3F7E",
"O{ c #77777E",
"P{ c #D2D2D4",
"Q{ c #38387F",
"R{ c #70707F",
"S{ c #323282",
"T{ c #6B6B81",
"U{ c #CECED4",
"V{ c #2D2D90",
"W{ c #67658D",
"X{ c #CAC9D1",
"Y{ c #FCFCF6",
"Z{ c #2829AC",
"[{ c #5F5FA3",
"]{ c #BEBECA",
"^{ c #F2F2E6",
"_{ c #FBFBF7",
"`{ c #2527BC",
"a{ c #5959AF",
"b{ c #E6E6D8",
"c{ c #F7F7F2",
"d{ c #2325C8",
"e{ c #5252B6",
"f{ c #A1A1B7",
"g{ c #D6D6CA",
"h{ c #F1F1ED",
"i{ c #FDFDFE",
"j{ c #4C4CB9",
"k{ c #9393AE",
"l{ c #C8C8BE",
"m{ c #EDEDE9",
"n{ c #4746B9",
"o{ c #8887A6",
"p{ c #BEBEB6",
"q{ c #4242BE",
"r{ c #7D7DA0",
"s{ c #B3B3AD",
"t{ c #3C3DCB",
"u{ c #71719C",
"v{ c #A8A8A3",
"w{ c #3738D2",
"x{ c #626293",
"y{ c #9A9997",
"z{ c None",
"                                                                                                                                                                                                                                                                                                      ! #                                                                                                                                                                                                                                                                                                     ",
"                                                                                                                                                                                                                                                                                                                                                                                                                                                                                                                                                                                                              ",
"                                                                                                                                                                                                                                                                                                                    !                                                                                                                                                                                                                                                                                         ",
"                                                                                                                                                                                                                                                                                                                                                                                                                                                                                                                                                                                                              ",
"                                                                                                                                                                                                                                                                                                                  !                                                                                                                                                                                                                                                                                           ",
"                                                                                                                                                                                                                                                                                                                            # #                                                                                                                                                                                                                                                                               ",
"                                                                                                                                                                                                                                                                                                                          !                                                                                                                                                                                                                                                                                   ",
"                                                                                                                                                                                                                                                                                                                                            $                                                                                                                                                                                                                                                                 ",
"                                                                                                                                                                                                                                                                                                                                            #                                                                                                                                                                                                                                                                 ",
"                                                                                                                                                                                                                                                                                                                                            ! #                                                                                                                                                                                                                                                               ",
"                                                                                                                                                                            % & '                                                                                                                                                                                                                                                                                                                                                                                                                             ",
"                                                                                                                                                                          ( ) * + , - .                                                                                                                                                                                                                                                                                                                                                                                                                       ",
"                                                                                                                                                                    / 0 1 2 3 4 5 6 7 8 9                                                                                                                                                                                                                                                                                                                                                                                                                     ",
"                                                                                                                                                              : ; < = > ? @ A B C D E F G H I                                                                                                                                                                                                                                                                                                                                                                                                                 ",
"                                                                                                                                                          J K L M N O P Q R R R R R R S T U V                                                                                                                                                                                                                                                                                                                                                                                                                 ",
"                                                                                                                                                        W X Y Z [ ] ^ R R R R R R R R R _ ` a b                                                                                                                                                                                                                                                                                                                                                                                                               ",
"                                                                                                                                                        c d e f g h R R R R R R R R R R i j k l m                                                                                                                                                                                                                                                                                                                                                                                                             ",
"                                                                                                                                                      n o p q r R R R R R R R R R R R R R s t u v                                                                                                                                                                                                                                                                                                                                                                                                             ",
"                                                                                                                                                    w x y z R R R R R R R R R R R R R R R { | } ~  !                                                                                                                                                                                                          !!#!$!%!&!'!(!)!                                                                                                                                                                                ",
"                                                                                                                                                  *!+!,!-!R R R R R R R R R R R R R R R R R .!/!0!1!                                                                                                                                                                                                        2!3!4!5!6!7!8!9!:!;!                                                                                                                                                                              ",
"                                                                                                                                                <!=!>!?!@!R R R R R R R R R R R R R R R R R A!B!C!D!                                                                                                                                                                                                    E!F!G!H!I!J!K!L!M!N!O!P!Q!R!                                                                                                                                                                          ",
"                                                                                                                                              S!T!U!?!V!R R R R R R R R R R R R R R R R R R W!X!Y!Z!                                                                                                                                                                                                    [!]!^!_!R R R R R `!a!b!c!d!                                                                                                                                                                          ",
"                                                                                                                                            e!f!g!h!@!R R R R R R R R R R R R R R R R R R R i!j!k!l!                                                                                                                                                                                                m!n!o!p!q!R R R R R R R R R r!s!t!u!                                                                                                                                                                      ",
"                                                                                                                                        v!w!x!y!z!R R R R R R R R R R R R R R R R R R R R R {!|!}!~!                                                                                                                                                                                             #!###$#%#&#R R R R R R R R R R R '#(#)#*#+#                                                                                                                                                                  ",
"                                                                                                                                        ,#-#.#/#R R R R R R R R R R R R R R R R R R R R R 0#1#2#3#4#                                                                                                                                                                                          5#6#7#8#9#:#;#R R R R R R R R R R R R <#=#>#?#                                                                                                                                                                  ",
"                                                                                                                                      @#A#B#C#D#R R R R R R R R R R R R R R R R R R R R R E#F#G#H#I#                                                                                                                                                                                          J#K#L#M#N#O#R R R R R R R R R R R R R R P#=#Q#R#S#                                                                                                                                                              ",
"                                                                                                                                      T#U#V#W#R R R R R R R R R R R R R R R R R R R R R X#Y#Z#[#]#^#                                                                                                                                                                                          _#`#a#b#c#d#R R R R R R R R R R R R R R R e#f#g#h#                                                                                                                                                              ",
"                                                                                                                                    i#j#k#l#R R R R R R R R R R R R R R R R R R R R R R m#n#o#p#q#r#                                                                                                                                                                                          s#t#u#v#w#x#R R R R R R R R R R R R R R R R y#z#{#|#                                                                                                                                                            ",
"                                                                                                                                    }#~# $!$R R R R R R R R R R R R R R R R R R R R R R #$$$%$&$'$                                                                                                                                                                                            ($)$*$+$,$-$R R R R R R R R R R R R R R R R R .$/$0$1$                                                                                                                                                          ",
"                                                                                                                                  2$3$4$5$R R R R R R R R R R R R R R R R R R R R R R 6$7$8$9$:$;$                                                                                                                                                                                            ($<$=$>$?$@$R R R R R R R R R R R R R R R R R R A$B$C$                                                                                                                                                          ",
"                                                                                                                                D$E$F$G$R R R R R R R R R R R R R R R R R R R R R R R H$I$J$K$L$                                                                                                                                                                                              ($M$N$O$P$Q$R R R R R R R R R R R R R R R R R R R R$S$;!                                                                                                                                                        ",
"                                                                                                                              T$U$V$W$R R R R R R R R R R R R R R R R R R R R R R R X$Y$Z$[$]$^$                                                                                                                                                                                              _$`$a$b$c$d$e$R R R R R R R R R R R R R R R R R R R f$g$                                                                                                                                                        ",
"                                                                                                                              h$i$j$k$R R R R R R R R R R R R R R R R R R R R R R l$m$n$o$p$q$                                                                                                                                                                                                r$s$t$u$v$w$x$R R R R R R R R R R R R R R R R R R R R y$z${$                                                                                                                                                    ",
"                                                                                                                            |$}$~$I!R R R R R R R R R R R R R R R R R R R R R R  %!%#%$%%%&%'%                                                                                                                                                                                                  (%)%*%+%,%-%R R R R R R R R R R R R R R R R R R R R .%/%0%                                                                                                                                                    ",
"                                                                                                                          1%2%3%4%5%R R R R R R R R R R R R R R R R R R R R R R 6%7%8%9%:%;%                                                                                                                                                                                                    <%=%>%?%@%A%R R R R R R R R R R R R R R R R R R R R B%C%D%                                                                                                                                                    ",
"                                                                                                                          E%F%G%H%R R R R R R R R R R R R R R R R R R R R R R I%J%K%L%M%N%O%                                                                                                                                                                                                    P%Q%R%S%T%U%V%R R R R R R R R R R R R R R R R R R R R W%X%Y%                                                                                                                                                  ",
"                                                                                                                        Z%[%]%^%R R R R R R R R R R R R R R R R R R R R R R _%`%a%b%c%d%e%                                                                                                                                                                                                        f%g%h%i%j%k%l%R R R R R R R R R R R R R R R R R R R m%n%o%p%                                                                                                                                                ",
"                                                                                                                        q%r%s%R R R R R R R R R R R R R R R R R R R R R R R t%u%v%w%x%y%z%                                                                                                                                                                                                        {%|%}%~% &!&#&R R R R R R R R R R R R R R R R R R R R $&%&&&                                                                                                                                                ",
"                                                                                                                      '&(&)&*&R R R R R R R R R R R R R R R R R R R R R R +&,&-&.&/&0&1&                                                                                                                                                                                                          2&3&4&5&6&7&8&R R R R R R R R R R R R R R R R R R R R 9&:&;&<&                                                                                                                                              ",
"                                                                                                                      =&>&?&@&R R R R R R R R R R R R R R R R R R R R R R A&B&C&D&E&F&G&                  H&I&J&K&L&M&                                                                                                                                                                            N&O&P&Q&R&S&T&U&R R R R R R R R R R R R R R R R R R R R V&W&X&Y&                                                                                                                                            ",
"                                                                                                                    Z%Z&[&]&R R R R R R R R R R R R R R R R R R R R R R ^&_&`&a&b&c&                d&e&f&g&h&i&j&k&l&m&n&                                                                                                                                                                            o&p&q&r&s&t&R R R R R R R R R R R R R R R R R R R R R u&v&w&                                                                                                                                            ",
"                                                                                                                    x&y&z&R R R R R R R R R R R R R R R R R R R R R R {&|&}&~& '!'              #'$'%'&'''(')'*'+','-'.'/'0'                                                                                                                                                                          1'2'3'4'5'6'7'R R R R R R R R R R R R R R R R R R R R R 8'9':'                                                                                                                                          ",
"                                                                                                                    ;'<'='R R R R R R R R R R R R R R R R R R R R R E#>'?'@'A'B'              C'D'E'F'4%G'R R R R H'I'J'K'L'M'                                                                                                                                              N'O'P'Q'R'                S'T'U'V'W'X'Y'R R R R R R R R R R R R R R R R R R R R R Z'[']'^'                                                                                                                                        ",
"                                                                                                                  _'`'a'R R R R R R R R R R R R R R R R R R R R R b'c'd'e'f'g'h'            i'j'k'l'm'n'R R R R R R o'p'q'r's'                                                                                                                                            t'u'v'w'x'y'z'{'                |'}'~' (!(#(R R R R R R R R R R R R R R R R R R R R R $(%(&(                                                                                                                                        ",
"                                                                                                                  '((()(R R R R R R R R R R R R R R R R R R R R R *(+(,(-(.(/(              0(1(2(3({ R R R R R R R 4(5(6(7(8(                                                                                                                                          9(:(;(<(=(>(?(@(A(B(              C(D(E(F(G(H(U&R R R R R R R R R R R R R R R R R R R R I(J(K(                                                                                                                                        ",
"                                                                                                                L(M(N(R R R R R R R R R R R R R R R R R R R R R ;#O(P(Q(R(S(              T(U(V(W(R R R R R R R R R X(Y(Z([(](                                                                                                                                        ^(_(`(a(b(c(d(e(f(g(h(i(            j(k(l(m(,(n(o(R R R R R R R R R R R R R R R R R R R R R p(q(                                                                                                                                        ",
"                                                                                                                r(s(t(R R R R R R R R R R R R R R R R R R R R u(v(w(x(y(z({(            |(}(~(W(R R R R R R R R R R  )!)#)$)%)                                                                                                                                      &)')()))*)+)R ,)-).)/)0)1)2)            3)4)5)6)7)8)9)R R R R R R R R R R R R R R R R R R R R :);)<)                                                                                                                                      ",
"                                                                                                                =)>)?)R R R R R R R R R R R R R R R R R R R R @)A)B)C)D)E)F)            G)H)I)R R R R R R R R R R R J)K)L)M)N)                                                                                                                                    O)P)Q)R)S)T)R R R R R U)V)W)X)              Y)Z)[)])^)_)R R R R R R R R R R R R R R R R R R R R R `)a)                                                                                                                                      ",
"                                                                                                                b)c)d)R R R R R R R R R R R R R R R R R R R e)f)g)h)i)j)k)            l)m)n)o)R R R R R R R R R R R p)q)r)s)t)                                                                                                                                    u)v)w)x)y)R R R R R R R *&z){)|)            })~) *!*#*$*%*R R R R R R R R R R R R R R R R R R R R &*'*                                                                                                                                      ",
"                                                                                                              (*)***R R R R R R R R R R R R R R R R R R R -$+*,*-*.*/*0*          1*2*3*4*5*R R R R R R R R R R R 6*7*8*9*:*;*                                                                                                                                    <*=*>*?*@*R R R R R R R R A*B*C*D*E*          F*G*H*I*m$_)J*R R R R R R R R R R R R R R R R R R R K*L*                                                                                                                                      ",
"                                                                                                            M*N*O*P*R R R R R R R R R R R R R R R R R R R Q*R*S*T*U*V*W*        X*Y*Z*[*]*R R R R R R R R R R R ^*_*`*a*b*c*                                                                                                                                      d*e*f*g*h*R R R R R R R R R i*j*k*l*m*        j(n*o*p*q*r*s*R R R R R R R R R R R R R R R R R R R R t*u*                                                                                                                                    ",
"                                                                                                            v*w*x*y*R R R R R R R R R R R R R R R R R R R z*{*|*}*~* +          !+#+$+%+R R R R R R R R R R R R &+'+(+)+*+++                                                                                                                                      ,+-+.+/+0+R R R R R R R R R R 1+2+3+4+          5+6+7+8+T%9+x#R R R R R R R R R R R R R R R R R R R :+;+<+                                                                                                                                  ",
"                                                                                                            =+>+?+@+R R R R R R R R R R R R R R R R R R A+B+C+D+E+F+          G+H+I+J+K+R R R R R R R R R R R L+M+N+O+P+Q+                                                                                                                                        R+S+T+U+V+R R R R R R R R R R W+X+Y+Z+[+        ]+^+_+`+a+b+c+d+R R R R R R R R R R R R R R R R R R e+f+g+                                                                                                                                  ",
"                                                                                                            h+i+j+R R R R R R R R R R R R R R R R R R R k+l+m+n+o+p+          q+r+s+t+R R R R R R R R R R R R u+v+w+x+y+z+                                                                                                                                        {+|+}+~+ ,!,R R R R R R R R R R #,$,%,&,          ',(,),*,+,f),,R R R R R R R R R R R R R R R R R R R -,.,                                                                                                                                  ",
"                                                                                                          /,0,1,2,R R R R R R R R R R R R R R R R R R R 3,4,R)5,6,          7,8,9,:,R R R R R R R R R R R R R ;,<,=,>,?,                                                                                                                                          @,A,B,C,D,E,R R R R R R R R R R F,G,H,I,J,        K,L,M,N,O,'+P,R R R R R R R R R R R R R R R R R R R Q,R,                                                                                                                                  ",
"                                                                                                          S,T,U,R R R R R R R R R R R R R R R R R R R V,W,X,Y,Z,[,          ],^,_,`,R R R R R R R R R R R R a,b,c,d,e,                                                                                                                                              f,g,h,i,6%R R R R R R R R R R R j,k,l,m,n,      o,p,q,r,v$s,t,R R R R R R R R R R R R R R R R R R R u,v,w,                                                                                                                                ",
"                                                                                                          x,y,z,R R R R R R R R R R R R R R R R R R R {,|,},~, -!-          #-$-%-R R R R R R R R R R R R &-'-(-)-*-                                                                                                                                                +-,---.-/-R R R R R R R R R R R R 0-1-2-3-        4-5-6-7-X'8-9-R R R R R R R R R R R R R R R R R R :-;-<-                                                                                                                                ",
"                                                                                                        =->-?-@-R R R R R R R R R R R R R R R R R R R A-B-C-D-E-          F-G-H-R R R R R R R R R R R R I-J-q*K-L-M-                                                                                                                                                  N-O-P-Q-R-R R R R R R R R R R R R S-T-U-V-        W-X-Y-Z-[-&#R R R R R R R R R R R R R R R R R R ]-^-_-                                                                                                                                ",
"                                                                                                        `-a-b-c-R R R R R R R R R R R R R R R R R R +&d-e-f-g-            h-i-j-R R R R R R R R R R R k-l-m-n-o-p-              q-r-s-t-u-v-                                          w-x-y-z-{-|-}-~- .                                                              !.#.$.%.&.'.R R R R R R R R R R R (.).*.+.        ,.-.../.0.1.R R R R R R R R R R R R R R R R R R R 2.3.4.                                                                                                                              ",
"                                                                                                        5.6.7.R R R R R R R R R R R R R R R R R R R 8.9.:.;.<.            =.>.R R R R R R R R R R R ?.@.A.B.C.D.              E.F.G.H.I.J.K.L.                                  M.N.O.P.Q.R.S.S.T.U.V.W.X.Y.Z.                                                            [.].^._.`.R R R R R R R R R R R a.b.c.d.        e.f.g.h.i.j.R R R R R R R R R R R R R R R R R R k.l.m.                                                                                                                              ",
"                                                                                                        n.o.p.R R R R R R R R R R R R R R R R R R q.r.s.t.u.v.          w.x.y.R R R R R R R R R R R z.{.|.}.~.               /!/#/$/%/&/'/(/)/*/                            +/,/-/.///0/1/2/3/3/4/1/5/6/7/8/9/:/                                    ;/</=/>/              ?/@/A/B/C/0#R R R R R R R R R R R D/E/F/        G/H/I/J/K/L/R R R R R R R R R R R R R R R R R R M/N/O/                                                                                                                              ",
"                                                                                                        P/Q/R/R R R R R R R R R R R R R R R R R R S/T/U/V/W/            X/Y/R R R R R R R R R R R Z/[/]/^/_/`/            a/b/c/d/R R e/f/g/h/i/                          M.j/W.k/l/m/n/o/p/p/p/q/r/s/t/u/v/P.w/x/                                y/z/{/|/}/~/               0!0+%,$#0R R R R R R R R R R R $0%0&0          '0(0)0*0+0,0R R R R R R R R R R R R R R R R R R -0.0                                                                                                                              ",
"                                                                                                        /000R R R R R R R R R R R R R R R R R R R 1020304050          607080R R R R R R R R R R R 90:0;0<0=0>0          ?0@0A0B0R R R R C0D0E0F0                        G0H0I0J0K0L0M0N0O0P0Q0Q0R0S0T0U0V0W0X0Y0Z0[0                            ]0^0_0`0a0b0c0d0            e0f0g0h0n#i0R R R R R R R R R R j0k0l0m0        n0o0p0q0r0+&R R R R R R R R R R R R R R R R R R s0t0                                                                                                                              ",
"                                                                                                      u0v0w0R R R R R R R R R R R R R R R R R R u(x0y0z0{0|0          }0~0b(R R R R R R R R R R  1!1#1$1%1&1          '1(1)1*1+1R R R ,1-1.1/101                      112131415161718191:1;1:1:1S&<1=1>1?1@1A1B1C1D1E1                        F1G1H1I1J1K1L1M1N1O1          P1Q1R1S1T1U1R R R R R R R R R R R V1W1X1        Y1Z1[1]1^1_1R R R R R R R R R R R R R R R R R R `1a1b1                                                                                                                            ",
"                                                                                                      c1d1e1R R R R R R R R R R R R R R R R R R f1g1h1i1j1            k1l1m1R R R R R R R R R R n1o1p1q1r1          s1t1u1v1w1R R R R x1y1z1{1|1                      x/}1~1 261!2#2$2:1%2&2'2'2&2&2(2(2)2*2+2,2-2.2/2                        02122232R R 4252627282          92:2;2<2=2E#R R R R R R R R R R >2?2@2        A2B2C2D2E2F2R R R R R R R R R R R R R R R R R R G2H2I2                                                                                                                            ",
"                                                                                                      J2K2L2R R R R R R R R R R R R R R R R R R M20+N2O2P2            Q2R2h R R R R R R R R R S2T2U2V2W2X2          Y2Z2[2]2R R R R ^2_2`2a2b2                        c2d2e2f2g2h2i2j2'2&2&2&2&2'2'2k2k2l2m2n2o2p2-2q2                        r2s2t2u2R R R v2w2x2y2z2        {2|2}2~2 3!3R R R R R R R R R R #3$3%3        &3'3(3)3*3+3R R R R R R R R R R R R R R R R R R ,3-3.3                                                                                                                            ",
"                                                                                                      /30313R R R R R R R R R R R R R R R R R R 2333435363          738393R R R R R R R R R R :3;3<3H1=3          >3?3@3A3R R R R R B3C3D3E3F3                      G3H3I3J3K3L3)2M3:1&2&2&2&2&2'2N3k2k2%2O3P3Q3R3S3T3U3                      V3W3X3Y3R R R R Y(Z3[3]3          ^3_3`3a3b30#R R R R R R R R R R c3d3e3        f3g3h3i3j3k3R R R R R R R R R R R R R R R R R l3m3n3                                                                                                                            ",
"                                                                                                      o3p3q3R R R R R R R R R R R R R R R R R R r3s3t3u3v3          w3x3y3R R R R R R R R R R z3{3|3}3~3         4!4#4$4R R R R R %4&4'4(4)4                        *4+4,4-4.4/40414'224242424&2'2S&3434&244546474,48494                      :4;4<4=4R R R R R ] >4?4@4        A4B4C4D4E4H$R R R R R R R R R R F4G4H4I4        J4K4L4M4N4R R R R R R R R R R R R R R R R R R O4P4Q4                                                                                                                          ",
"                                                                                                    R4S4T4U4R R R R R R R R R R R R R R R R R R V4W4X4Y4Z4        [4]4^4_4R R R R R R R R R 6$`4a4b4c4          d4e4f4g4R R R R h4i4j4k4l4                          m4n4V0o4p404q4r4'224242424&2'2'2&2&2&234s4t4u4v4u/w4x4                      y4z4{4|4}4R R R R R ~4 5!5        #5$5%5&5'5(5R R R R R R R R R )5*5+5,5        -5.5/5051525R R R R R R R R R R R R R R R R R 354555                                                                                                                          ",
"                                                                                                    65758595R R R R R R R R R R R R R R R R R R :5;5<5=5>5        ?5@5A5B5R R R R R R R R R C5D5E5F5G5          H5I5J5R R R R R K5L5M5N5                          O5P5Q5R5S5T5:1r4'2&22424242424&2'2&2&2&2'234U5V5W5X5Y5Z5                      [5]5^5_5`5R R R R R a5b5c5        d5e5f5g5h5X$R R R R R R R R R R i5j5k5        l5m5n5o5p5q5R R R R R R R R R R R R R R R R R r5s5t5                                                                                                                          ",
"                                                                                                    u5v5w5x5R R R R R R R R R R R R R R R R R y5!3z5{5|5}5        ~5 6!6#6R R R R R R R R R $6%6&6'6(6        )6*6+6R R R R R ,6-6.6/6                            0616263646T556'2&2&224&2&22424&2&2&2&2&2'2'2s466768696:6                      ;6<6=6>6?6R R R R R @6A6B6C6        D6E6F6G6H6R R R R R R R R R R I6J6K6        L6M6N6O6P6Q6R R R R R R R R R R R R R R R R R R6S6T6                                                                                                                          ",
"                                                                                                    U6V6W6X6R R R R R R R R R R R R R R R R R Y6Z6[6]6^6          _6`6a6b6R R R R R R R R R c6d6e6f6          g6H.h6R R R R R i6j6k6l6                            m6n6o6p6q6r6r4'2&2&224&2&22424&2&2&2&2&2'2'2;1s6t6u6v6y-                        w6x6y6z6{6R R R R R |6}6~6         7!7#7$7%7R R R R R R R R R R &7'7(7        )7*7+7,7-7.7R R R R R R R R R R R R R R R R R R /707                                                                                                                          ",
"                                                                                                    17273747R R R R R R R R R R R R R R R R R 5767/-7787          97:7;7R R R R R R R R R R <7=7>7?7          @7A7B7R R R R C7D7E7F7                            G7H7I7J7K7L7q4r4'2&2&2&22424&2&2&2&2&2&2&2'2r4:1M7N736O7P7                          Q7R7S7T7R R R R R R U7V7        W7X7Y7Z7[7R R R R R R R R R R ]7^7_7        `7a7b7c7d7e7R R R R R R R R R R R R R R R R R R f7g7                                                                                                                          ",
"                                                                                                    h7i7j7k7R R R R R R R R R R R R R R R R R l7m7n7o7p7          q7r7s7R R R R R R R R R R t7u7v7w7          x7y7z7R R R R {7|7}7~7                             8!8#8$8%8s6&8q4r4'2&2'22424&2'2&2&2&2&2&2r4q4:1'8#2(8)8*8+8                        ,8-8.8/8R R R R R R 0818          2838485868R R R R R R R R R 788898        :8;8$3<8=8>8R R R R R R R R R R R R R R R R R R ?8@8                                                                                                                          ",
"                                                                                                    A8B8C8D8R R R R R R R R R R R R R R R R R E8F8G8H8I8          J8K8L8R R R R R R R R R R M8N8O8P8          Q87.R R R R R R8S8T8                              U8V8W8X8O0s6Y8q4;1%2&2'22424&2&2&2&2'2'2'2r4q4q4'8Z8o/#8j/[8                          ]8^8_8R R R R R R `8a8b8        c8d8e8f8g8R R R R R R R R R h8i8j8k8      l8m8n8o8p8q8R R R R R R R R R R R R R R R R R R r8s8                                                                                                                        # ",
"                                                                                                    t8u8v8w8R R R R R R R R R R R R R R R R x8f1y8z8{8|8          }8~8 9R R R R R R R R R R !9#9$9            %9p.R R R R R &9'9(9                              )9*9+9,9-9s6&8.9'2&2&2'22424&2&2&2&2'2'2'2r4q4q4/9R009192939                          49596979R R R R R 8999:9        ;9<9=9>9?9R R R R R R R R R @9A9B9C9        D9E9F9G9H9R R R R R R R R R R R R R R R R R R I9J9                                                                                                                          ",
"                                                                                                    K9L9M9N9R R R R R R R R R R R R R R R R Y6O9P9Q9R9S9          T9U9V9R R R R R R R R R W9X9Y9Z9            [9R R R R R ]9^9_9`9                              a9b9c9p/d9M3:1;1;1r4'2&2&2&2'2'2&2&2'2r4'2r4r4q4M3)2e9f9g9h9                            i9j9k9M2R R R R l9m9n9        o9p9q9r9s9R R R R R R R R R t9u9v9w9        x9y9z9{9|9R R R R R R R R R R R R R R R R R R }9~9                                                                                                                          ",
"                                                                                                     :!:v8#:R R R R R R R R R R R R R R R R $:%:&:':(:):          *:+:R R R R R R R R R R e+,:-:.:            /:R R R R R 0:1:2:3:                              4:5:6:t6R0/9q4r4r4'2'2'2'2'2r4r4'2'2'2'2r4r4r4q4M3)2N07:8:h9                            9:::;:<:R R R R R =:>:          ?:@:A:=2R R R R R R R R R B:C:D:E:        F:G:H:I:J:R R R R R R R R R R R R R R R R R R K:L:                                                                                                                          ",
"                                                                                                    M:N:O:P:R R R R R R R R R R R R R R R R Q:R:&:':S:T:          U:V:R R R R R R R R R R W:X:Y:Z:            [:R R R R R e#]:^:_:                              `:a:b:c:d9r6q4q4r4'2'2r4r4r4'2'2r4r4'2'2q4r4r4q4M3d9d:e:f:g:                              h:i:j:R R R R R k:l:          m:n:o:p:R R R R R R R R R q:r:s:t:        u:v:w:I:x:R R R R R R R R R R R R R R R R R R K:y:                                                                                                                          ",
"                                                                                                    z:{:|:}:R R R R R R R R R R R R R R R R ~: ;!;#;$;%;          &;V:R R R R R R R R R R ';(;);*;            +;R R R R R ,;-;.;/;                              0;1;2;3;)2r6q4r4r4r4r4'2r4'2&2&2'2'2'2'2:1;1r4q4'8)2N04;5;6;                              7;8;9;R R R R R R :;          ;;<;=;>;R R R R R R R R R ?;@;A;B;        C;D;E;F;G;R R R R R R R R R R R R R R R R R R H;I;                                                                                                                          ",
"                                                                                                    z:J;K;L;R R R R R R R R R R R R R R R R M;N;O;P;Q;R;          *:+:S;R R R R R R R R R T;U;);*;            V;R R R R R ,;-;W;/;                              X;Y;Z;[;];r6q4r4r4r4r4'2r4'2&2&2'2'2'2'2q4r4r4q4'8)2t64;^;_;                              `;a;b;R R R R R R c;          d;e;f;<7R R R R R R R R R g;h;i;j;        k;l;m;n;G;R R R R R R R R R R R R R R R R R R o;I;                                                                                                                          ",
"                                                                                                    p;q;r;X6R R R R R R R R R R R R R R R R R s;t;u;v;w;          x;y;z;R R R R R R R R R {;|;};~;             <R R R R R !<]:#<$<                            %<&<'<(<)<*</9q4r4r4'2'2+<'2'2'2'2r4r4'2'2r4.9.9q4M3d9,<-<5;_;                              .</<0<R R R R R R 1<          2<<;3<4<R R R R R R R R R 5<6<7<j;        8<9<:<;<x:R R R R R R R R R R R R R R R R R R <<=<                                                                                                                          ",
"                                                                                                    ><?<@<A<R R R R R R R R R R R R R R R R R 10B<C<D<E<          F<G<H<R R R R R R R R R I<J<K<L<            M<R R R R R N<O<P<Q<                            R<S<T<U<V<];M7Y8q4r4'2'2'2'2'2'2'2r4r4'2'2r4.9.9q4M3d9,<-<5;_;                              W</<X<R R R R R R Y<          2<<;Z<[<R R R R R R R R R ]<^<_<j;        `<9<a<b<c<R R R R R R R R R R R R R R R R R R I9d<                                                                                                                          ",
"                                                                                                    e<f<g<h<R R R R R R R R R R R R R R R R R  1i<j<k<l<          m<n<L8R R R R R R R R R R o<p<q<            r<R R R R R s<t<u<v<                            w<x<T<y<z</9'8r6:1r4'2'2r4r4r4r4r4'2'2r4r4q4r4r4q4];R0{<|<f:}<                              ~< =!=R R R R R R #=          ;;$=%=&=R R R R R R R R R '=(=)=*=        +=,=*)-=.=R R R R R R R R R R R R R R R R R R /=0=                                                                                                                          ",
"                                                                                                    1=2=3=4=R R R R R R R R R R R R R R R R R 5=}46=7=8=          9=:=;=R R R R R R R R R R <===>=            ?=@=R R R R A=B=C=D=                            E=x<T<n/F=Y8'8r6:1r4'2'2r4r4r4r4r4'2'2r4r4q4r4r4q4];R0G=|<f:_;                              H=I=J=R R R R R K=L=          M=N=O=P=R R R R R R R R R Q=R=S=T=        U=V=W=X=Y=R R R R R R R R R R R R R R R R R R Z=[=                                                                                                                          ",
"                                                                                                      ]=^=_=R R R R R R R R R R R R R R R R R `=a=b=c=d=e=        f=g=h=R R R R R R R R R R i=j=k=l=          m=n=R R R R R o=p=q=                            r=s=t=u=46M7Y8q4r4r4q4r4'2r4r4r4r4q4q4Y8q4q4q4Y8Y8'8i2v=w=x=y=                            z={=|=}=R R R R R ~= >        !>#>$>%>&>R R R R R R R R R '>(>)>*>        +>,>->33q8R R R R R R R R R R R R R R R R R R /7.>                                                                                                                          ",
"                                                                                                      />0>1>R R R R R R R R R R R R R R R R R 2>3>|,4>5>6>        7>8>9>:>R R R R R R R R R ;><>=>>>          ?>@>A>R R R R :3B>C>D>                          E>F>G>H>46L7'8r6:1r4q4r4'2r4r4r4r4r4r4q4q4r4q4q4Y8M7O0I>J>K>L>                            M>N>O>P>R R R R Q>R>S>        T>U>V>W>X>R R R R R R R R R Y>Z>[>]>        ^>_>`>a>b>R R R R R R R R R R R R R R R R R c>d>e>                                                                                                                          ",
"                                                                                                      f>g>h>R R R R R R R R R R R R R R R R R R i>j>k>l>m>        n>o>p>q>R R R R R R R R R r>s>t>u>          v>w>x>R R R R y>z>{>|>                          E>F>}>H>46s6Y8q4r4r4.9r4'2r4r4q4q4r4r4q4q4r4q4q4Y8M7Z8o/~>!8 8                           ?!?#?$?R R R R R %?&?'?        (?)?*?+?,?R R R R R R R R R -?.?/?        0?1?2?3?T/4?R R R R R R R R R R R R R R R R R 5?6?7?                                                                                                                          ",
"                                                                                                      8?9?:?R R R R R R R R R R R R R R R R R R |9;?<?=?>?          ??@?A?R R R R R R R R R B?C?D?E?F?        G?H?I?R R R R R J?K?L?M?                        N?O?}>P?F=s6Q?&8.9r4R?S?'2'2'2r4r4q4q4r4r4r4q4q4Y8>1T?!2U?V?W?                          X?Y?Z?[?R R R R R U,]?^?        _?`?a?b?c?R R R R R R R R R d?e?f?        g?h?i?j?k?l?R R R R R R R R R R R R R R R R R m?n?o?                                                                                                                          ",
"                                                                                                        p?q?R R R R R R R R R R R R R R R R R R r?+,s?t?u?          v?w?x?R R R R R R R R R y?z?{?|?}?          ~? @!@R R R R R -6#@P2$@                      %@O?&@'@(@s6Y8q4r4r4S?S?'2'2'2r4r4q4q4r4r4r4q4q4Y8>1T?!2)@*@O5                          +@,@-@R R R R R R .@/@        0@1@2@3@4@5@R R R R R R R R R 6@7@8@        9@:@;@<@=@+&R R R R R R R R R R R R R R R R R >@?@@@                                                                                                                          ",
"                                                                                                        A@B@R R R R R R R R R R R R R R R R R R C@D@E@F@G@          H@I@J@R R R R R R R R R R K@L@M@N@          O@P@Q@R R R R R G;R@S@T@                      U@O?V@W@X@s6Y8q4r4r4'2'2'2'2'2r4q4r4r4r4r4r4q4q4Y891Y@U0)8Z@[@                        ]@^@_@`@R R R R R R a@b@        c@d@e@f@!1R R R R R R R R R R g@h@i@        j@k@l@m@$6n@R R R R R R R R R R R R R R R R R o@p@                                                                                                                            ",
"                                                                                                        q@r@s@R R R R R R R R R R R R R R R R R t@P=u@v@w@            x@y@R R R R R R R R R R z@{@|@}@~@         A!A#A$AR R R R %A&A'A(A)A                    *AO?&@+A,AY8q4q4r4r4r4r4'2'2'2r4q4r4r4r4r4r4q4q4Y8L7-AU0.A/A0A                      1A2A3A4A5AR R R R R 6A7A8A        9A:A;A<A=AR R R R R R R R R R >A?A@A        AABACADAEAu(R R R R R R R R R R R R R R R R FAGAHA                                                                                                                            ",
"                                                                                                        IAJAKAR R R R R R R R R R R R R R R R R A+%ALAMANA            OAPAR R R R R R R R R R QARASAb4TA        UAVAWAXAR R R R R YAZA[A]A                    ^A_A`Au=aAbAr6q4r4r4q4r4'2'2'2r4r4q4q4r4r4r4q4cA04dAT?I>eAfA                        gAhAiAjAR R R R R kAlAmA?0      nAoApAqArAsAR R R R R R R R R tAuAvAwA        xAyAzAM2{AR R R R R R R R R R R R R R R R R |A}A~A                                                                                                                            ",
"                                                                                                         B!B#BR R R R R R R R R R R R R R R R R $B%B&B'B(B)B          *B+B,BR R R R R R R R R -B.B/B0B1B2B        3B4B5B6BR R R R 7B8B9B:B;B                  <B=B>B?B@BQ0:1'2'2'2r4q4r4'2'2r4r4q4q4r4r4r4ABr456s6BBCBDB6;                      EBFBGBHBIBR R R R R JBKBLB        MBNBOBPBQBRBR R R R R R R R R SBTBUB        VBWBXBYBZB[BR R R R R R R R R R R R R R R R R ]B^B_B                                                                                                                            ",
"                                                                                                        `BaBbBcBR R R R R R R R R R R R R R R R R dBeBfBgBhB          iBjBkBR R R R R R R R R lBx$mBnBoBpB          qBrBsBtBR R R uBvBc=wBxByB                zB{B|B}B~B C!Cr4r4r4r4r4r4r4r4'2'2r4q4r4r4'2r4q4#C$C%C&C'C(C                  )C*C+C,Cm--CR R R R R .C/C0C1C      2C3C4C5CjA6ClBR R R R R R R R R 7C8C9C        :C;C<C=C>C$BR R R R R R R R R R R R R R R R R ?C@CAC                                                                                                                            ",
"                                                                                                        BCCCDCECR R R R R R R R R R R R R R R R R $B.=FCGCHCIC          JCKCR R R R R R R R R R i0LCMCNCOCPC          QCRCSCTCR R R UCVCWCXCYC                ZC[C]C^C_C`CaCbCcC46r4dCeCdCdCdCdCdCdCeCeC2446fCgChCiCjCkClC                  mCnCoCpCqCR R R R R rCsCtCuC        vCwCxC$7!15=R R R R R R R R R R yCzC{C        |C}C~C D!DR R R R R R R R R R R R R R R R R R #D$D%D                                                                                                                            ",
"                                                                                                          &D'D(DR R R R R R R R R R R R R R R R R R )DR*w2*D+D          ,D-D5$R R R R R R R R R R X$.D/D0D1D2D          3D4D5D6DR R 7D8D9D:D;D                <D=D>D?D~B@DADBD~BCDDD46(@919191919191P3P381EDFDBDGDHDIDJDKD                LDMDNDODPDR R R R R R QDRDSD        TDUDVDWDXDYDR R R R R R R R R R W:ZD[D        ]D^D_D`DaDbDR R R R R R R R R R R R R R R R R `!cDdDeD                                                                                                                            ",
"                                                                                                          fDgDhDR R R R R R R R R R R R R R R R R R iD0+jDkDlD            mDnDR R R R R R R R R R y?oDpDqDrDsD          tDuDvDwDxDR yD32zD{D|D                }D~D E!E#E$E%E&EAD'E(EBD)E*E+EbCbC+E~B,E)EBD-EBDbC.E/E0E1E2E                3E4E5E6ER R R R R 7E8E9E=&:E        ;E<E=E>E?E#(R R R R R R R R R R @EAEBE        CEDEEEFEGEHER R R R R R R R R R R R R R R R R IEJEKELE                                                                                                                            ",
"                                                                                                            MENEOER R R R R R R R R R R R R R R R R {APEQERESETE          UEVEWER R R R R R R R R R ,1>'XEYEZE            [E]E^E_E`EaEbEcEdE                  eEfEgEhEY@M3iEjE&EBD@DBD(EBD)EkEkE)E@D(E(EBDBDlECDmEnE0EoEU@                pEqErEsER R R R R tEuEvEwE          xEyE|.;<zE{ER R R R R R R R R |E}E~E           F!F#F$F(5%FR R R R R R R R R R R R R R R R R &F'F(F)F                                                                                                                            ",
"                                                                                                            *F+F,FR R R R R R R R R R R R R R R R R R E8-F.F/F0F          1Fb72FR R R R R R R R R R 3FA%4F5F6F7F            8F9F:F;F<F=F>F                    ?F@FAF-4BFCFDFEF3;46(@81cCFFGFHFIFIFGFJFcC3;81KFLFMFNFOFPFQF                RFSFTFUFR R R R VFWFXFYF          ZF[F]F^F_F-$R R R R R R R R R R `FaFbF        cFdFeFfFgFhFR R R R R R R R R R R R R R R R R iFjFkFlF:                                                                                                                             ",
"                                                                                                            mFnFoFpFR R R R R R R R R R R R R R R R R 0#qFrFsFtFuF        vFwFxFe+R R R R R R R R R R l$YByFzF{F                |F}F~F G!G                    #G$G%G&G CJF'G46q4&2&2r4(@DDcCDFfCfCcCBB(@q4r4(G)G*G+G,GPFw<                -G.G/G0GR R R R 1G2G3G            4G5G6G7G!3R R R R R R R R R R R 8G9G:G        ;G<G=G>G?GR R R R R R R R R R R R R R R R R R @GAGBGCG                                                                                                                              ",
"                                                                                                            DGEGFGGGR R R R R R R R R R R R R R R R R R `%])HGIGJG          KGLGMGR R R R R R R R R R R  ;T1NGOGPG                                            QGRGSGTG46UGVG91P3P3(@463;BBBBDDDDDDDDDDDDBB8146WGXGYGZG[G%<                ]G^G_G`GaGbGcGdGeGfG            gGhGiGjGsAkGR R R R R R R R R R 5%lGmGnG      oGpGqGrGsGtGR R R R R R R R R R R R R R R R R R uGvGwGxG                                                                                                                              ",
"                                                                                                            yGzG^4{GR R R R R R R R R R R R R R R R R R |G}G~G H!H          #H$H%H&HR R R R R R R R R R R 'H(H)H*H                                            +H,HSGp/-H.9q4Y8P346813;81(@(@(@(@(@4681BBDD#EWG)2.Hr//H0H                  >01H2H3H4H5H6H7H8H            9H:H;H<H=HS2R R R R R R R R R R R >H?H@H        AHBHCHDHEHFHR R R R R R R R R R R R R R R R R R GHHHIHJH                                                                                                                              ",
"                                                                                                              KHLHMHR R R R R R R R R R R R R R R R R R 4(NHOHPHQHRH        SHTHUHVHe+R R R R R R R R R R WHXHYHZHsD                                          [H]HSGp/L7q4r4r4q4q4q4q4r4q4q4q4q4q4q4q4q4Y8'8)2M3)<^H_H`H                      aHbHcHdHeHfH            gHhHiHjHqFkHR R R R R R R R R R R lHmHnHoH        pHqHrHsHtHuHR R R R R R R R R R R R R R R R R R vHwHxH                                                                                                                                ",
"                                                                                                                yHzH{HR R R R R R R R R R R R R R R R R R [-|H}H~H I!I        #I$I%I&I{ R R R R R R R R R R 'I(I)I*I+I                                        ,I$G-Ic:)2r6q4q4r4r4q4r4'2r4r4r4r4r4r4r4r4r4r6M3$2)<u6.I/I                                            0I1I2I3I4I5IR R R R R R R R R R R t+6I7I8I        9I:I;I<I=I>IR R R R R R R R R R R R R R R R R R ?I@IAIBI                                                                                                                                ",
"                                                                                                                CIDIEIR R R R R R R R R R R R R R R R R R FIGIHIIIJIKI          LIMINIOIR R R R R R R R R R R PIQIRISITI                                      UIVIWIXI(G:1r4r4r4r4q4q4r4r4r4r4r4r4r4r4r4r4q4r6j2)<YIZI[I                                          ]I^I_I`IG6eBR R R R R R R R R R R aIJ+bIcIdI      eIfIgIhIV+=CiIR R R R R R R R R R R R R R R R R R jIkIlI                                                                                                                                  ",
"                                                                                                                `BmInIR R R R R R R R R R R R R R R R R R n@oIpIqIrIsItI          uI0$vIwIR R R R R R R R R R O9xIyIzI{I                                      [H|IS3hE(@}I24&2r4q4q4q4r4q4q4q4q4q4q4q4q4q4S?'2U5~I J!J#J                                        $J%J&J'J(J)J*JR R R R R R R R R R R +J$+,J-J        .J/J0J1J2J3J4JR R R R R R R R R R R R R R R R R R 5J6J7J                                                                                                                                  ",
"                                                                                                                  8J9JR R R R R R R R R R R R R R R R R R R :J;J<J=J>J?J@J        AJBJCJDJR R R R R R R R R R `=EJFJGJHJ                                    IJJJKJLJMJNJ(@s6q4r4'2'2'2'2r4r4'2'2r4r4'2'2'2q4>1OJPJQJRJSJ                                        TJUJVJWJXJsAR R R R R R R R R R R YJZJ[J]J^J      _J`JgBaJw#bJcJ6$R R R R R R R R R R R R R R R R R R dJeJfJ                                                                                                                                  ",
"                                                                                                                  gJhJiJR R R R R R R R R R R R R R R R R R Q:jJkJlJmJnJoJ          pJqJhIrJR R R R R R R R R R sJtJuJvJwJ                                  xJyJzJ{J|J}JlECD81'2eCdCdC&22424dCdC2424dCeC24P3DF~J K!K#K$K                                      %K&K'KiG*3(KA+R R R R R R R R R R )K*K+K,K-K        .K/K0Ky)1K`%I-R R R R R R R R R R R R R R R R R R 2K3K4K                                                                                                                                    ",
"                                                                                                                    5Ku&R R R R R R R R R R R R R R R R R R R 6K7K8K9K:K;K            <K=K>K?KR R R R R R R R R @KAKBKCKDK                                  EKFKGKHKIKJKBDlEGFDDP3919191s6s6s6s69191s6s646 CKKBDLKMKNKOK                                      PKQKRKS*SKo(R R R R R R R R R R R TKUKVKWK          XKYKZK[K]K^KR R R R R R R R R R R R R R R R R R R _K`KaK                                                                                                                                    ",
"                                                                                                                    bKcKdKR R R R R R R R R R R R R R R R R R eK&#fKgKhKiKjK            kKlK&>R R R R R R R R R mKnKoKpKqK                                  rKsKtKuKvKwKxKyK'E(EkE*EbCFFCDCDCDCDFFFFGFbC)E-EBDzK{K|K}K~K                                     L!L#L$L%L!3R R R R R R R R R R R &L'L(L)L*L        +L,L-L.L?G/LEAR R R R R R R R R R R R R R R R R R 0L1L2L                                                                                                                                      ",
"                                                                                                                    3L4L5LR R R R R R R R R R R R R R R R R R R L+6L7L8L9L:L            ;L<L=L>LR R R R R R R R ?LD7@LALBL                                  CLDLELFLGLHLfClEBDBDBD@D)ElE*E*E*E*E*ElE,E)E(EBDILGF^CJLKLLL                                    MLNLOLPLQLRLR R R R R R R R R R R SLTLULVL          WLXLYL'+ZLY'R R R R R R R R R R R R R R R R R R R [L]L^L                                                                                                                                      ",
"                                                                                                                    _L`LaLbLR R R R R R R R R R R R R R R R R R R #(cLdLeLfLgL              hLiLjL'#R R R R R R kLlLmLnLoL                                  pLqLrLIDsL CtL81(@46DDJFHF+E+E+E+E+E+E+E~BIFcC)<$CuLvLwLxLyL                                    zL{L|L}L68R R R R R R R R R R R ~L M!M#M          $M%M&M'M(MoI)MR R R R R R R R R R R R R R R R R R *M+Mr+,M                                                                                                                                      ",
"                                                                                                                      -M.M/M0MR R R R R R R R R R R R R R R R R R R 1M2M3M4M5M6M              7M8M`89MR R R R R :M;M<M=M                                    >M?M@M%Gp/#2AM91(@3;DDDDDDBB8181813;BBDDDDDD'G@BBM#ECMSGDMEM                                  FMGMHM;3IMR R R R R R R R R R R JMKMLM            MMNMOMPMQMRMR R R R R R R R R R R R R R R R R R R SMTMUMVM                                                                                                                                        ",
"                                                                                                                      WMXMYMZMR R R R R R R R R R R R R R R R R R R R [M+(]M^M_M`M            aMbMcMdMeMfMR R gMhMiMjMkM                                    >MlMmMnMoM=1r691(@3;BB46P3s6Y8Y8Y8Y8s69191(@c:c:T0pMqMrMsMtM                                  uMvMwMxMyMR R R R R R R R R R eMzM{M|M          }M~M N!N%L#Ny5R R R R R R R R R R R R R R R R R R R $N%N&N'N                                                                                                                                        ",
"                                                                                                                        (N)N*NR R R R R R R R R R R R R R R R R R R R I-+N,N-N.N/N              0N1N2N3N4N8G5N6N7N8N9N                                      :N;N<NnM=N'8Y8Y8Y8s6Y8q4q4q4q4q4Y8s6s6s6Y8Y891>N91(G?N-I@NAN                                  BNCNDNENFNR R R R R R R R GNHNINJNKN          LNMNNNONPNQNRNR R R R R R R R R R R R R R R R R R R R SNTNUNVN                                                                                                                                        ",
"                                                                                                                        WNXN$-YNR R R R R R R R R R R R R R R R R R R R E#ZN[N]N^N_N              `NaNbNcNdNeNfNgNhN                                        iNjNY0nMkNs6Y8q4r4'2'2r4r4q4q4q4Y8Y8q4q4q4q4r4.9Y8(GlN-ImNnN                                    oNpNqNrNR R R R R R R sNtNuNvNwNxN        yNzN{N|N}N~N&-6$R R R R R R R R R R R R R R R R R R R  O!O#O$O                                                                                                                                          ",
"                                                                                                                          %O&O'O(OR R R R R R R R R R R R R R R R R R R R aD)O5C*O+O,O                -O.O/O0O1O2O                                          3O4O5O6O7O'8Y8r6q4r4r4q4q4r4r4r4q4q4r4r4r4r4q4:1M3pMlN8O9O:O                                    ;O<O=O>OR R R R R ?O@OAOBOCODOEO          FOGOHOIOJOZLdBR R R R R R R R R R R R R R R R R R R i KOLOMONO                                                                                                                                          ",
"                                                                                                                          OOPOQOROR R R R R R R R R R R R R R R R R R R R SOTOUOVOWOXO                                                                      YOZO5O[OL3'8Y8r6q4r4r4q4q4r4r4r4r4r4r4r4r4r4&8r6)2T?]O%G^O_O                                    `OaObOcOdOR R R W:eOfOgOhOiO            jOkOlOmOb<nOoOR R R R R R R R R R R R R R R R R R R R pOqOrOsO                                                                                                                                            ",
"                                                                                                                            tOuOvOwOR R R R R R R R R R R R R R R R R R R eKxOyOzO{O|O}O                                                                    ~O P!P#PL3'8Y8&8q4:1:1r4r4'2'2'2r4q4r4r4r4r4q4Y8L7%8U01/$P%P                                      &P'P(PQ,)P*P+P,P-P.P/P0P            1P2P3P4Pi35P7KY6R R R R R R R R R R R R R R R R R R R R 6P7P8PdI                                                                                                                                            ",
"                                                                                                                              9P:P;P<PR R R R R R R R R R R R R R R R R R R =P>P?P@PAPBP                                                                    CPDPEPFP[;'8Y8&8q4j2:1;1'2'2'2r4q4q4r4r4r4r4q4Y8L7GPHP%GIPJP                                      KPS9LPMPNPOPA7k&PPQPRP            SPTPUPV<VPWPXPYPR R R R R R R R R R R R R R R R R R R R ZP[P]P^P                                                                                                                                              ",
"                                                                                                                              _P`PaPbPR R R R R R R R R R R R R R R R R R R ?.Y#cPdPePfPgP                                                                  hPiPjPFPoM'8Y8&8&8r6:1;1'2'2'2r4q4q4r4r4r4r4q404i2kP76Q5lPmP                                          nPoPpPqPrPsP                tPuPvPwPxPyPzP5IR R R R R R R R R R R R R R R R R R R R {P|P}P~P                                                                                                                                                ",
"                                                                                                                                   Q!Q#QR R R R R R R R R R R R R R R R R R R ?.$Q%Q&Q'Q(Q)Q                                                                *Q+Q,Q-Q.Q'8Y8Y8q4r4r4'2'2'2r4q4r4r4r4r4r4r4q4Y8(G[;/Q0Q1Q2Q                                                                      3Q4Q5QI*pI#$6QR R R R R R R R R R R R R R R R R R R R 7Q8Q9Q:Q                                                                                                                                                  ",
"                                                                                                                                  ;Q<Q=QR R R R R R R R R R R R R R R R R R R R >Q7*a%?Q@QAQ                                                                BQCQDQ-Q.Q'8Y8Y8q4r4r4'2'2'2q4q4r4r4r4r4r4r4q4Y8AML3EQFQGQ                                                                      HQIQJQKQLQMQNQR R R R R R R R R R R R R R R R R R R R R OQPQQQ                                                                                                                                                    ",
"                                                                                                                                    RQSQTQR R R R R R R R R R R R R R R R R R R R cJUQVQWQXQYQ                                                              ZQ[QDQ]Q)<'8Y8q4q4r4r4'2'2'2q4q4r4r4r4r4r4r4q4Y8^Q$C_Q`QaQ                                                                    bQcQdQeQfQgQhQR R R R R R R R R R R R R R R R R R R R R R l'iQjQ                                                                                                                                                    ",
"                                                                                                                                      kQlQmQR R R R R R R R R R R R R R R R R R R hFnQoQpQqQrQ                                                              sQtQuQ]Q)<'8Y8q4q4r4r4'2'2'2q4q4r4r4r4r4r4r4q4Y8P3vQwQxQyQ                                                                    zQ{Q|Q}Q!16K~QR R R R R R R R R R R R R R R R R R R R R  R!R#R                                                                                                                                                      ",
"                                                                                                                                      $R%R&RR R R R R R R R R R R R R R R R R R R R 'R(R)R*R+R                                                              ,R-R.R/R)<'8Y8Y8q4r4r4'2'2'2q4q4r4r4r4r4r4r4q4Y8UGe90R1R2R                                                                  3R4R5RZ#6R!%L+R R R R R R R R R R R R R R R R R R R R R 7R8R9R:R                                                                                                                                                      ",
"                                                                                                                                      ;R<R=R>RR R R R R R R R R R R R R R R R R R R ?R@RARBRCR                                                              DRERFRGR)<'8Y8Y8q4r4r4'2'2'2q4q4r4r4r4r4r4r4q4Y8X@v=HRIRJR                                                                  KRLRMR,%cLNRR R R R R R R R R R R R R R R R R R R R R i*ORPRQR                                                                                                                                                        ",
"                                                                                                                                        RRSRTRURR R R R R R R R R R R R R R R R R R 9-VRWRXRYR                                                              ZR[R]R^R_R'8Y8q4q4q4r4'2'2'2q4q4r4r4r4r4r4r4q404X@`RaRbRcR                                                                dReRfRgRhRiRR R R R R R R R R R R R R R R R R R R R R jRkRlRmR_'                                                                                                                                                        ",
"                                                                                                                                        nRoRpRqRrRR R R R R R R R R R R R R R R R R R Z/sRtRuR                                                              vRwRxRyR46'8q4r4r4q4q4r4'2'2r4q4r4r4r4r4r4r4q404zR{R|R}R~R                                                               S!S#S$S%S}LR R R R R R R R R R R R R R R R R R R R R R &S'S(S)S                                                                                                                                                          ",
"                                                                                                                                            *S+S,S-S.SR R R R R R R R R R R R R R R R /S0S1S2S                                                              3S4S5S6S7S'8q4r4r4q4q4r4'2'2'2r4q4q4r4r4r4.9&8Y8_R8S9S:S;S                                                              <S=S>S?S@S:JR R R R R R R R R R R R R R R R R R R R ASBSCSDSES                                                                                                                                                            ",
"                                                                                                                                              FSGSHSISJSR R R R R R R R R R R R R R R KSLSMSNS                                                              OSPSQSRSWG'8q4r4r4q4r4'2'2'2'2r4q4q4r4r4r414Y8/9SSTSUSVSWS                                                            XSYSZS=J[S]SR R R R R R R R R R R R R R R R R R R R ^S*N_S`SaS                                                                                                                                                              ",
"                                                                                                                                                bScSdSeSKSR R R R R R R R R R R R R R B%fSgShS                                                              iSjSkSlSWG'8q4r4r4r4r4'2'2'2'2r4q4q4r4r4r414'8r6z<mSnSoSpS                                                            qSrSsStSuSvSR R R R R R R R R R R R R R R R R R R wSxSySzS{S                                                                                                                                                                ",
"                                                                                                                                                  |S}S~S TR R R R R R R R R R R R R R T;!T#T$T                                                              OSPS%T&T46'8q4r4r4'2'2'2'2'2r4r4q4q4r4r4r4'T'8r6(T)T%T*T+T                                                            ,T-T.T/T0T1TR R R R R R R R R R R R R R R R R R R h62T3T4T                                                                                                                                                                  ",
"                                                                                                                                                    5T6T7T8TR R R R R R R R R R R R R dO9T:T;T                                                              <T=T>T?TV5Y8q4r4r4r4r4r4r4r4r4r4q4q4r4r4r4'T'804@TATBTCTDT                                                            ETFTGTb<HTR R R R R R R R R R R R R R R R R R R IT~4vNJT                                                                                                                                                                    ",
"                                                                                                                                                      KTLTMTNTR R R R R R R R R R R OTTCPTQTRT                                                              STTTUTVTWTY8q4r4r4q4q4q4q4q4q4q4r4r4r4r4r4:1'8];=NXTYTZT[T                                                            ]T^T_T`TaTR R R R R R R R R R R R R R R R R R R lLbTcT                                                                                                                                                                      ",
"                                                                                                                                                        dTeTfT('R R R R R R R R R R gThTiTjT                                                                kTlTmTnTWTY8q4r4r4q4Y8q4q4q4q4q4r4r4r4r4r4:1'8Q0oTpTqTrTsT                                                            tTuTvTwTxTR R R R R R R R R R R R R R R R R R yTzTcT{T                                                                                                                                                                      ",
"                                                                                                                                                          |T}T~T U!U#UR R R R R R $U%U&U'U(U                                                                )U*U+U,UWT'8r6:1r4q4q4r4r4r4r4r4q4q4r4r4q4r6)2-U.U/U0U1U2U                                                            3U4U5U6UW9R R R R R R R R R R R R R R R R 7U8U9U:U;U                                                                                                                                                                        ",
"                                                                                                                                                          <U=U>U?U@UAU&*R R R R BUCUDUEUFU                                                                  GUHUIUJUWT'8r6:1r4q4q4r4r4'2'2r4q4q4r4r4q4q4'8-U.UKULUMU*Q                                                            NUOUPU6UW9R R R R R R R R R R R R R R R QUA3RUSUTU                                                                                                                                                                          ",
"                                                                                                                                                                UUVUWUXUYUZU[U]U^UJN_U`U                                                                    aUbU9SH>(@'8q4r4r4q4q4r4'2'2'2r4q4q4r4r4q4Y8Y8'8cUdUeUfUgU                                                            hUiUjUkU'#R R R R R R R R R R R R R lUmUnUoUpUqU                                                                                                                                                                            ",
"                                                                                                                                                                      rUsUtUuUvUwUxU                                                                        yUzU{U|Uq6-H&8.9r4q4r4'2'2'2r4r4q4q4r4r4q4q4Y8d9N0}U~U V!V                                                            #V$V%V&V'VR R R R R R R R R R R (V)V*V+V,V-V                                                                                                                                                                                ",
"                                                                                                                                                                                                                                                            .VzU/V0V!CY8q4r4r4r4r4'2'2'2r4r4q4q4r4r4q4q4'81Vd:2V3V4V5V                                                              6V7V8V9V:VR R R R R R R R R @!;V<V=V>V?V                                                                                                                                                                                  ",
"                                                                                                                                                                                                                                                            @VAVBVCVq6r6q4r4r4'2'2'2'2'2r4q4r4r4r4r4q4q4'8DVTGEVFVGVHV                                                                IVJVKVLVR R R R R R R MVNVq?OVPVQV                                                                                                                                                                                      ",
"                                                                                                                                                                                                                                                            @VRVSVnE(@r6q4r4r4'2'2'2'2'2q4q4r4r4r4r4q4q4'8DVq/8OTVUVVV                                                                WVXVYVj*ZVR R R R R !@[V]V^V_V`V                                                                                                                                                                                        ",
"                                                                                                                                                                                                                                                            aVbVSVg2!Cr6q4r4r4r4r4'2'2r4q4q4r4r4r4r4q4q4s6O0q/-IcVdVeV                                                                  fVgVhV1-%/iVjVR$kVlVmVnVoV                                                                                                                                                                                            ",
"                                                                                                                                                                                                                                                            pVbVqVg2!Cr6q4r4r4q4r4'2'2r4q4q4r4r4q4q4q4q4s6O0q/8OrVsV                                                                      tVuVvVwVxVyVzV{V|V}V~V                                                                                                                                                                                              ",
"                                                                                                                                                                                                                                                             W}R!W]OP3r6q4r4r4q4q4r4'2'2q4q4r4r4q4Y8q4q4s6#Wo/$W%W&W                                                                          'W(W)W*W+W,W-W                                                                                                                                                                                                  ",
"                                                                                                                                                                                                                                                            .W/W!W]OP3r6q4r4r4q4q4r4'2'2r4q4r4r4q4Y8q4q4s60W1W$W2W3W                                                                                                                                                                                                                                                                                          ",
"                                                                                                                                                                                                                                                          4W5W6W0EI>VGq4q4r4r4q4q4r4'2'2r4r4q4q4r4r4q4q4s67Wg2Q58W9W                                                                                                                                                                                                                                                                                          ",
"                                                                                                                                                                                                                                                          :W;WIRHRTGVGq4q4r4r4q4q4r4'2'2r4q4r4r4r4r4q4q4'8<W=W>W?WiN                                                                                                                                                                                                                                                                                          ",
"                                                                                                                                                                                                                                                          @WAW1RBWTGVGq4q4r4r4q4q4r4'2'2q4q4r4r4r4r4q4q4CW81DWEWFWGW                                                                                                                                                                                                                                                                                          ",
"                                                                                                                                                                                                                                                          HWIW1RJWp/VGq4q4r4r4q4q4r4'2r4q4q4r4r4r4r4q4r6KW$CLWMWNWOW                                                                                                                                                                                                                                                                                          ",
"                                                                                                                                                                                                                                                          HWIWPWQW,<66q4q4r4r4q4r4'2'2r4q4q4r4r4r4r4q4r6KWRWSW`QTWUW                                                                                                                                                                                                                                                                                          ",
"                                                                                                                                                                                                                                                          VWWW1RXWN091q4q4r4r4r4r4r4r4q4r4r4r4r4r4r4q4q491YWZW[W]W^W                                                                                                                                                                                                                                                                                          ",
"                                                                                                                                                                                                                                                          _W`W`QaWXG91q4q4r4r4r4r4r4r4q4r4r4r4r4r4r4q4q491N0bWcWdW                                                                                                                                                                                                                                                                                            ",
"                                                                                                                                                                                                                                                          eWfW`QaWkN91q4q4r4r4r4r4q4q4Y8r4r4r4r4r4r4q4r6P3q/gWcW W                                                                                                                                                                                                                                                                                            ",
"                                                                                                                                                                                                                                                          hWiWMWaWkN91q4q4r4r4r4r4q4Y8q4r4r4r4r4r4r4q4r6P3jWkW}RpV                                                                                                                                                                                                                                                                                            ",
"                                                                                                                                                                                                                                                          hWiWFQlW=N>1r6q4r4r4q4Y8Y8q4q4q4q4r4r4r4.9&8mWVGW@nWoWpW                                                                                                                                                                                                                                                                                            ",
"                                                                                                                                                                                                                                                          qWrWEWDW[;sWq4q4r4r4q4q4r4r4r4q4q4r4r4r4tWuWY8.HvWwWxWyW                                                                                                                                                                                                                                                                                            ",
"                                                                                                                                                                                                                                                          zWrWEWDWN7s6q4q4r4r4q4q4r4'2r4q4q4r4r4r4tWuWY8!C{W|W}W~W                                                                                                                                                                                                                                                                                            ",
"                                                                                                                                                                                                                                                           XrW!X#X81'8q4q4r4r4q4q4r4'2q4r4r4r4r4tWq4Y8];!C$X%X&X'X                                                                                                                                                                                                                                                                                            ",
"                                                                                                                                                                                                                                                          (X)X!X#X<W'8q4q4r4r4q4q4r4r4q4r4r4r4r4.9q4'8Q0q6?T*X+X,X                                                                                                                                                                                                                                                                                            ",
"                                                                                                                                                                                                                                                          -X.X>WnE7WM7q4q4r4r4q4q4r4r4q4r4r4r4r4q4Y8'8)2V5/X0X1X2X                                                                                                                                                                                                                                                                                            ",
"                                                                                                                                                                                                                                                          3X4X5XnEh2M7q4q4r4r4q4q4r4r4q4r4r4r4r4q4Y8'8)2V56X7X8X9X                                                                                                                                                                                                                                                                                            ",
"                                                                                                                                                                                                                                                          :X;XQ5r/h2s6q4q4r4r4r4r4q4q4Y8r4r4r4r4.9q4'8)2V5<X=X>X?X                                                                                                                                                                                                                                                                                            ",
"                                                                                                                                                                                                                                                          @XAXQ5r/h2s6q4q4r4r4'2'2r4q4q4r4r4r4r4r4:1M3)2F=BXCXDXEX                                                                                                                                                                                                                                                                                            ",
"                                                                                                                                                                                                                                                          FXAXQ5r/h2s6q4q4r4r4r4r4r4r4r4q4q4r4r4.9q4'8)2)<GXHXIXJX                                                                                                                                                                                                                                                                                            ",
"                                                                                                                                                                                                                                                          KXLX]C]O%8s6q4q4r4r4q4r4'2'2'2q4q4r4r4q4Y8Y8Y8MXNXOXPXQX                                                                                                                                                                                                                                                                                            ",
"                                                                                                                                                                                                                                                          RXSXTXlN#2s6q4q4r4r4q4q4r4'2'2q4q4r4r4q4Y8Y8Y8MXUXVXWXXX                                                                                                                                                                                                                                                                                            ",
"                                                                                                                                                                                                                                                          KXSX8OlN!Cs6q4q4r4r4q4r4'2'2r4q4q4r4r4q4q4Y8YXZX[X]X^X_X                                                                                                                                                                                                                                                                                            ",
"                                                                                                                                                                                                                                                          `XaX8OlN!Cs6q4q4r4r4r4r4'2'2r4q4q4r4r4q4cA-Hs6L3bXcXdXeX                                                                                                                                                                                                                                                                                            ",
"                                                                                                                                                                                                                                                        fXgXhXTXlNpMs6q4q4r4r4'2'2'2'2q4r4r4r4r4q4q4Y8s6L3iXjXkX                                                                                                                                                                                                                                                                                              ",
"                                                                                                                                                                                                                                                        lXmXnXoXpXpMs6q4q4r4r4'2'2r4r4q4r4r4r4r4q4q4Y8s6=N$WqXrX                                                                                                                                                                                                                                                                                              ",
"                                                                                                                                                                                                                                                        sXtXuXTXlN#Ws6q4q4r4r4'2'2r4q4Y8r4r4r4r4q4q4Y8s6.UTXvXwX                                                                                                                                                                                                                                                                                              ",
"                                                                                                                                                                                                                                                        xXgXhXoXpXpMs6q4q4r4r4'2r4q4Y8q4r4r4r4r4q4q4Y8s6yXTXzX{X                                                                                                                                                                                                                                                                                              ",
"                                                                                                                                                                                                                                                        |X}XuXoXpXpMs6q4q4r4r4r4r4q4q4r4q4q4r4r4q4q4Y891cU]C.X~X                                                                                                                                                                                                                                                                                              ",
"                                                                                                                                                                                                                                                         Y!Y#YTXpXpMs6q4q4r4r4q4q4r4r4r4r4r4q4q4q4q4r6L7$Y%Y&Y'Y                                                                                                                                                                                                                                                                                              ",
"                                                                                                                                                                                                                                                        (Y)Y*Y$WpXpMs6q4q4r4r4q4q4r4r4r4r4r4q4Y8q4q404sW+Y,YfW-Y                                                                                                                                                                                                                                                                                              ",
"                                                                                                                                                                                                                                                        .Y/Y*Y$W?NpMs6r6q4r4r4q4q4r4'2q4r4q4Y8Y8q4q4Y80Y1Y2Y3Y4Y                                                                                                                                                                                                                                                                                              ",
"                                                                                                                                                                                                                                                        5Y6Y*Y$W?NpMs6r6q4r4r4q4r4'2r4q4r4q4Y8Y8q4q4Y8P37Y8Y9Y                                                                                                                                                                                                                                                                                                ",
"                                                                                                                                                                                                                                                        :Y;Y<YTX?NpMs6q4q4r4r4r4r4r4r4q4r4q4Y8Y8q4r6'8!C=YcW>Y                                                                                                                                                                                                                                                                                                ",
"                                                                                                                                                                                                                                                        5Y?Y<YTX?NpMs6q4q4r4r4r4r4r4r4q4r4r4q4Y8q4r6)2(@@YAYBY                                                                                                                                                                                                                                                                                                ",
"                                                                                                                                                                                                                                                        CYDYEYFYe9DVQ?.9.9:1r4'2'2r4r4q4r4r4q4q4q4r6M3(@GYbV@V                                                                                                                                                                                                                                                                                                ",
"                                                                                                                                                                                                                                                        .Y/YEYFYe9DVQ?.9.9:1r4'2'2r4r4q4q4q4.9.9q4r6M3(@HYIYJY                                                                                                                                                                                                                                                                                                ",
"                                                                                                                                                                                                                                                        KYLYMYiXe9DV'8r6q4r4r4r4r4q4q4r4q4Y8mW&8q4r6'8)<NYOYPY                                                                                                                                                                                                                                                                                                ",
"                                                                                                                                                                                                                                                        QYRYSYiXe9DVYXq4q4r4r4q4q4r4r4r4q4q4Y8Q?&804T5TYUYVYWY                                                                                                                                                                                                                                                                                                ",
"                                                                                                                                                                                                                                                        XYYYSYiXe9DVYXq4q4r4r4q4q4r4r4r4r4q4Y8s6Y8r6$281ZY[Y]Y                                                                                                                                                                                                                                                                                                ",
"                                                                                                                                                                                                                                                        XY^Y_Y`Ye9DV'8r6q4r4r4r4r4r4r4r4r4q4Y8s6'8'8-UL3aYbYcY                                                                                                                                                                                                                                                                                                ",
"                                                                                                                                                                                                                                                        XY^Y_YdY?1DV'8M3r6:1r4r4r4r4r4r4r4r4q4Y8'8)2-U=NeYfYgY                                                                                                                                                                                                                                                                                                ",
"                                                                                                                                                                                                                                                        XY^YhYiY?1DV'8'8r6:1r4r4r4r4r4r4r4r4q4r6'8)2)2.UjYkYlY                                                                                                                                                                                                                                                                                                ",
"                                                                                                                                                                                                                                                        XY^YhYiY?1DV'8Y8q4r4r4r4r4r4r4r4r4r4q4q4Y8'8)2mYnYoYpY                                                                                                                                                                                                                                                                                                ",
"                                                                                                                                                                                                                                                        XY^YqYrY?1DV'8q4q4r4r4r4r4r4r4r4r4r4q4Y8Y8'8)2mYsYtYuY                                                                                                                                                                                                                                                                                                ",
"                                                                                                                                                                                                                                                        vYwYqYrY?1DVY8.9.9r4r4r4r4r4r4r4r4r4q4Y8Y8'8d9xYyYzY{Y                                                                                                                                                                                                                                                                                                ",
"                                                                                                                                                                                                                                                        |Y}Y~Y Z,<!ZY8r4r4r4r4r4r4r4r4r4r4r4q4q4Y8YXi2#Z$Z%Z&Z                                                                                                                                                                                                                                                                                                ",
"                                                                                                                                                                                                                                                        'Z(Z)Z*Zt61VY8r4r4r4r4r4r4r4r4r4r4r4q4q4Y8s6+Z,Z-Z9X                                                                                                                                                                                                                                                                                                  ",
"                                                                                                                                                                                                                                                        .Z/Z0Z1ZcUd9Y8r4r4r4r4r4r4r4r4r4r4r4q4q4Y8s6KW$Y2Z3Z                                                                                                                                                                                                                                                                                                  ",
"                                                                                                                                                                                                                                                        4Z5Z6Z7ZmY)2'8:1r4r4r4r4r4r4r4r4r4r4q4q4Y8s68Z9Z:Z;Z                                                                                                                                                                                                                                                                                                  ",
"                                                                                                                                                                                                                                                        <Z=Z>Z?ZyX)2'8:1r4r4r4r4r4r4r4r4r4r4q4q4Y8s6(G@ZAZBZ                                                                                                                                                                                                                                                                                                  ",
"                                                                                                                                                                                                                                                        CZDZEZBX.U'8Y8r4r4r4r4r4r4r4r4r4r4r4q4q4Y8FZ/41YGZHZ                                                                                                                                                                                                                                                                                                  ",
"                                                                                                                                                                                                                                                        IZJZKZLZ.U'8Y8r4r4r4r4r4r4r4r4r4r4r4q4q4Y8>N!CpXMZNZ                                                                                                                                                                                                                                                                                                  ",
"                                                                                                                                                                                                                                                        OZPZQZ<XRZM7&8r4r4r4r4q4q4r4r4r4r4r4q4q4Y8>N(@SZTZUZ                                                                                                                                                                                                                                                                                                  ",
"                                                                                                                                                                                                                                                        VZWZXZ6X.UM7&8r4r4r4r4q4q4r4r4r4r4r4q4q4Y8s6(@YZZZ[Z                                                                                                                                                                                                                                                                                                  ",
"                                                                                                                                                                                                                                                        ]Z^Z7X_ZkN'8q4r4r4q4q4r4r4q4q4r4r4r4q4q4r6L781`ZaZbZ                                                                                                                                                                                                                                                                                                  ",
"                                                                                                                                                                                                                                                        cZdZeZfZgZ'8q4r4r4q4q4r4'2r4r4q4r4r4q4q4Y866=NhZiZ                                                                                                                                                                                                                                                                                                    ",
"                                                                                                                                                                                                                                                        jZkZlZmZgZ'8q4r4r4q4q4r4'2'2r4q4r4r4q4q4Y8VG.UnZoZ                                                                                                                                                                                                                                                                                                    ",
"                                                                                                                                                                                                                                                        pZqZrZsZtZuZq4r4r4q4q4r4'2'2r4q4r4r4q4q4Y8P3XGnZvZ                                                                                                                                                                                                                                                                                                    ",
"                                                                                                                                                                                                                                                        wZxZyZu=zZ{Zq4r4r4q4q4r4'2r4r4q4.9.9q4q4Y8P3xYHY|Z                                                                                                                                                                                                                                                                                                    ",
"                                                                                                                                                                                                                                                        }Z~Z [P?46M3q4r4r4q4q4r4'2r4q4r4q4&8q4q4Y8UG$Y![#[                                                                                                                                                                                                                                                                                                    ",
"                                                                                                                                                                                                                                                        $[%[&['@)<];q4r4r4q4q4r4r4q4q4q4&8Y8q4q4Y8UG1Y'[([                                                                                                                                                                                                                                                                                                    ",
"                                                                                                                                                                                                                                                        )[*[+[#XF=uZq4r4r4q4q4r4r4q4q4q4Y8Y8q4q404UG1YUY([                                                                                                                                                                                                                                                                                                    ",
"                                                                                                                                                                                                                                                        ,[-[.[/[X@uZq4r4r4q4r4'2r4q4q4q4Y8Y8q4q4r6UG0[1[2[                                                                                                                                                                                                                                                                                                    ",
"                                                                                                                                                                                                                                                        3[-[.[4[(@M3q4r4r4'2'2'2r4q4q4q4Y8Y8q4q4r6V55[6[7[                                                                                                                                                                                                                                                                                                    ",
"                                                                                                                                                                                                                                                        8[9[:[pXUGY8q4r4r4'2'2r4r4q4q4q4Y8Y8q4q4Y8(T;[eY<[                                                                                                                                                                                                                                                                                                    ",
"                                                                                                                                                                                                                                                        =[>[?[e9UGY8q4r4r4'2'2r4r4q4q4r4q4Y8q4q4Y8(T@[A[B[                                                                                                                                                                                                                                                                                                    ",
"                                                                                                                                                                                                                                                        C[D[bWN0P3Y8q4r4r4'2'2r4q4r4r4q4q4q4q4r6];E[F[G[H[                                                                                                                                                                                                                                                                                                    ",
"                                                                                                                                                                                                                                                        I[J[K[cUVGY8q4r4r4'2'2r4r4'2r4q4r4r4q4r6M3_RL[M[N[                                                                                                                                                                                                                                                                                                    ",
"                                                                                                                                                                                                                                                        O[P[GYoTVGY8q4r4r4'2'2r4r4'2r4q4r4r4q4r6$2)<Q[R[S[                                                                                                                                                                                                                                                                                                    ",
"                                                                                                                                                                                                                                                        T[8YU[$C66Y8q4r4r4r4r4'2'2r4r4q4r4r4q4r6$2_RV[W[X[                                                                                                                                                                                                                                                                                                    ",
"                                                                                                                                                                                                                                                      Y[Z[8Y[[BM>1r6q4r4r4q4r4'2'2r4q4r4r4r4q4r6][[;^[_[`[                                                                                                                                                                                                                                                                                                    ",
"                                                                                                                                                                                                                                                      a[b[c[d[81L7r6q4r4r4q4q4r4r4q4q4r4r4r4q4r6][[;e[f[g[                                                                                                                                                                                                                                                                                                    ",
"                                                                                                                                                                                                                                                      h[i[%Yj[4691Y8q4r4r4q4q4r4r4q4q4r4r4.9&8Y8-UL3k[l[m[                                                                                                                                                                                                                                                                                                    ",
"                                                                                                                                                                                                                                                      n[o[%Yp[WG91Y8q4r4r4r4r4'2r4q4q4r4r4r4q4'8-UkNq[r[s[                                                                                                                                                                                                                                                                                                    ",
"                                                                                                                                                                                                                                                      t[u[v[pX#291Y8q4r4r4'2'2'2r4q4q4r4r4r4q4Y8M3.Uw[r[x[                                                                                                                                                                                                                                                                                                    ",
"                                                                                                                                                                                                                                                      OZy[z[lN#WL7Y8r6r4r4'2'2'2r4q4q4r4r4:1r6'8M3{[|[}[x[                                                                                                                                                                                                                                                                                                    ",
"                                                                                                                                                                                                                                                      ~[ ]z[!]pMs6Y8r6r4r4'2'2'2r4q4q4r4r4:1M3)2M3{[#]$]%]                                                                                                                                                                                                                                                                                                    ",
"                                                                                                                                                                                                                                                      &]']v[(]pMs6Y8q4q4r4'2'2'2r4q4q4r4r4:1M3)2-U{[)]*]+]                                                                                                                                                                                                                                                                                                    ",
"                                                                                                                                                                                                                                                      ,]-]v[(]pMs6Y8q4&8.9S?'2'2r4q4q4r4r4:1M3)2.].U)]*]/]                                                                                                                                                                                                                                                                                                    ",
"                                                                                                                                                                                                                                                    0]1]2]z[$YO0FZ3].9.9r4'2'2r4r4q4q4r4r4:1M34]5]yX6]7]8]                                                                                                                                                                                                                                                                                          9]:];]<]=]",
"                                                                                                                                                                                                                                                    >]?]@]A]#ZDVs6&8r4S?S?'2'2r4r4q4q4r4q4r6'84]5]yX6]B]C]                                                                                                                                                                                                                                                                                              D]E]F]",
"                                                                                                                                                                                                                                                    G]H]I]J]cUd9)2r6r4'2'2'2r4q4q4r4r4r4q4Y8'8'8)2K]L]M]N]                                                                                                                                                                                                                                                                                                O]P]",
"                                                                                                                                                                                                                                                    Q]R]S]T]cUd9'8q4r4'2'2'2r4q4q4r4r4r4q4r6'8)2d9K]U]V]W]                                                                                                                                                                                                                                                                                                    ",
"                                                                                                                                                                                                                                                    X]Y])ZZ]mY)2'8q4r4'2'2'2r4q4q4r4r4r4.9q4'8)2d9K]U][]]]                                                                                                                                                                                                                                                                                                    ",
"                                                                                                                                                                                                                                                    ^]_]`]|[{[Q0'8r6r4'2'2r4r4q4q4r4r4r4q4r6'8)2.]mYU]a]b]                                                                                                                                                                              mD                                                                                                                    ",
"                                                                                                                                                                                                                                                    c]d]e]f]{[];Y8q4r4'2'2r4r4q4q4r4r4r4q4r6'8)2.]mYU]g]h]                                                                                                                                                                                                                                                                                                    ",
"                                                                                                                                                                                                                                                    i]j]k]l]gZM3Y8&8r4'2'2r4q4r4r4q4q4r4q4r6'8)2d9m]n]o]p]                                                                                                                                                                                                                                                                                                    ",
"                                                                                                                                                                                                                                                    q]r]s]fZtZuZY8q4r4'2r4q4q4r4r4q4q4:1r6M3'8'8L7t]u]v]w]                                                                                                                                                                                                                                                                                                    ",
"                                                                                                                                                                                                                                                    x]y]z]{]tZ'8r6q4r4'2r4q4q4r4'2r4q4:1r6M3Y8'8L7|]v[}]~]                                                                                                                                                                                                                                                                                                    ",
"                                                                                                                                                                                                                                                     ^!^G[QWgZ'8r6q4r4r4r4q4r4'2'2r4r4r4r6M3Y8'8L7|]v[#^$^                                                                                                                                                                                                                                                                                                    ",
"                                                                                                                                                                                                                                                    %^%[&^lW(T'8r6q4r4q4q4r4r4'2'2'2'2r4r6r6&8Y8i2'^v[(^)^                                                                                                                                                                                                                                                                                                    ",
"                                                                                                                                                                                                                                                    *^*[+^#Xz<'8r6q4r4q4q4r4'2'2'2'2'2r4r6r6&8Y8R0,Z,^-^.^                                                                                                                                                                                                                                                                                                    ",
"                                                                                                                                                                                                                                                    /^0^1^4[F='8r6q4r4q4q4r4'2'2'2r4r4r4r6r6&8Y8R0,Z2^o[3^                                                                                                                                                                                                                                                                                                    ",
"                                                                                                                                                                                                                                                    4^-[5^pXWG-Uq4.9r4q4q4r4'2'2'2r4q4:1r6r6&8Q?i26^7^8^                                                                                                                                                                                                                                                                                                      ",
"                                                                                                                                                                                                                                                    9^:^;^?N!CM3q4.9r4q4q4r4'2'2r4q4q4:1r6r6&8Q?i26^7^<^                                                                                                                                                                                                                                                                                                      ",
"                                                                                                                                                                                                                                                    =^:^HYN0P3Y8q4.9r4q4q4r4'2'2r4q4q4:1r6r6&8Q?KW>^7^8^                                                                                                                                                                                                                                                                                                      ",
"                                                                                                                                                                                                                                                    ?^@^GYA^VG&8.9.9r4q4r4'2'2'2r4q4q4:1r6r6&8Q?(G+Y7^i[                                                                                                                                                                                                                                                                                                      ",
"                                                                                                                                                                                                                                                    B^C^D^@B^QY8q4.9:1r4r4'2'2'2r4q4q4:1r6r6&8Q?(GE^7^F^                                                                                                                                                                                                                                                                                                      ",
"                                                                                                                                                                                                                                                    G^8YH^3;(GY8q4.9:1;1'2'2'2'2r4q4q4:1r6r6&8I^AME^7^J^                                                                                                                                                                                                                                                                                                      ",
"                                                                                                                                                                                                                                                    K^L^=Y_R>1/9q4.9:1;1'2'2'2'2'2r4q4:1r6r6&8M^P3N^O^P^                                                                                                                                                                                                                                                                                                      ",
"                                                                                                                                                                                                                                                    Q^R^0[WGL7Y8q4.9q4;1'2'2'2'2'2'2'2:1q4q4Y8S^T^(]O^P^                                                                                                                                                                                                                                                                                                      ",
"                                                                                                                                                                                                                                                  U^V^v[pX#291Y8q4.9q4r4'2'2'2'2'2r4r4:1q4q4Y8S^T^N^W^X^                                                                                                                                                                                                                                                                                                      ",
"                                                                                                                                                                                                                                                  Y^Z^v[pX#WL7q4r4r4q4r4'2'2'2'2'2r4q4r4.9q4Y891q6[^]^^^                                                                                                                                                                                                                                                                                                      ",
"                                                                                                                                                                                                                                                  _^`^u]1YpMs6Y8q4q4q4'2'2'2'2'2r4q4q4r4.9q4'8>1UGa^b^G^                                                                                                                                                                                c^                                                                                                                    ",
"                                                                                                                                                                                                                                                  d^e^v[1YpMs6Y8Y8q4r4'2'2'2'2'2r4q4q4r4q4r6];>1UGf^b^g^                                                                                                                                                                                                                                                                                                    h^",
"                                                                                                                                                                                                                                                  i^j^A]'^DV'8Y8s6Y8r4'2'2'2'2'2r4q4q4r4q4r6];>1k^l^b^g^                                                                                                                                                                                                                                                                                                    m^",
"                                                                                                                                                                                                                                                  n^o^p^?1DV'8Y8s6Y8r4'2'2'2'2'2r4q4q4r4.9q4];KWV5q^b^g^                                                                                                                                                                                                                                                                                                  r^s^",
"                                                                                                                                                                                                                                                  t^lTNXu^i2'8Y8Y8q4'2'2'2'2'2'2'2r4q4r4.9q4];i2WGv^w^g^                                                                                                                                                                                                                                                                                                      ",
"                                                                                                                                                                                                                                                  x^y^Z]mY)2'8q4r4r4'2'2'2'2'2'2'2r4q4:1.9q4/9>1V<z^L^G^                                                                                                                                                                                                                                                                                                      ",
"                                                                                                                                                                                                                                                  {^|^}^~^M3Y8&8.9r4'2'2'2'2'2'2'2r4q4r4.9q4Y8(GN7 _L^!_                                                                                                                                                                                                                                                                                                      ",
"                                                                                                                                                                                                                                                  #_yZ$_%_'8Y8q4r4r4'2'2'2'2'2'2r4q4q4r4.9q4Y89146z^L^&_                                                                                                                                                                                                                                                                                                      ",
"                                                                                                                                                                                                                                                  '_(_)_UGL7Y8q4q4r4'2'2'2'2'2'2r4q4q4r4r4q4'8(G7S*_w^&_                                                                                                                                                                                                                                                                                                      ",
"                                                                                                                                                                                                                                                  +_,_-_sW'8Y8Y8q4r4'2'2'2'2'2'2r4q4q4r4r4q4'8L7KW._W^&_                                                                                                                                                                                                                                                                                                      ",
"                                                                                                                                                                                                                                                  /_0_1_&82_r6Y8q4r4'2'2'2'2'2'2r4q4Y8q4r4q4)2M3U53_4_&_                                                                                                                                                                                                                                                                                                      ",
"                                                                                                                                                                                                                                                  5_aYv^>N;1q4q4r4r4'2'2'2'2'2'2r4q4Y8q4r4r4q4=1<16_7_8_                                                                                                                                                                                                                                                                                                      ",
"                                                                                                                                                                                                                                                  9_:_;_tZ'8;1&2'2'2'2r4r4r4r4'2'2r4q4r4r4'2}IABgZ<_=_>_                                                                                                                                                                                                                                                                                                      ",
"                                                                                                                                                                                                                                                  ?_US@_A^i2:1'2r4r4'2r4r4r4r4'2'2r4r4r4r4;1%2s6?NA_bVB_                                                                                                                                                                                                                                                                                                      ",
"                                                                                                                                                                                                                                                  C_D_p[_R(G91s6Y8q4r4'2'2'2'2r4r4'2'2r4q4s6T^N7E_F_@^?^                                                                                                                                                                                                                                                                                                      ",
"                                                                                                                                                                                                                                                  G_H_#Z(@s6Y8Y8q4q4Y8s6s6Y8Y8Y8Y8s6s6s6Y8'8L7q6{[I_J_K_                                                                                                                                                                                                                                                                                                      ",
"                                                                                                                                                                                                                                                  L_M_#Z(@'8r6q4q4q4s6s6s6Y8Y8Y8Y8s691s6Y8Y8M3(GN_O_P_Q_                                                                                                                                                                                                                                                                                                      ",
"                                                                                                                                                                                                                                                  R_S_xY!C'8r6q4r4r4q4r4r4q4q4q4q4q4q4q4q4r6)2!CK]T_U_V_                                                                                                                                                                                                                                                                                                      ",
"                                                                                                                                                                                                                                                  W_X_yXP3'8q4.9r4r4q4'2'2r4r4r4r4r4r4r4q4r6)2(@6^Y_Z_[_                                                                                                                                                                                                                                                                                                      ",
"                                                                                                                                                                                                                                                  ]_^_RZ!C'8.9R?r4:1r4q4q4q4q4r4r4r4r4r4q4r6Q0__|]`_a_b_                                                                                                                                                                                                                                                                                                      ",
"                                                                                                                                                                                                                                                  c_F_.UP3'8q4.9:1r4r4q4Y8q4q4r4r4r4r4r4q4r6Q0V5d_e_f_g_                                                                                                                                                                                                                                                                                                      ",
"                                                                                                                                                                                                                                                  h_hZA^VGY8r6q4r4r4r4q4q4r4r4q4q4r4r4r4q4Y8)2F=i_j_k_l_                                                                                                                                                                                                                                                                                                      ",
"                                                                                                                                                                                                                                                  m_n_=No_&8r6q4r4r4r4q4r4'2r4q4q4r4r4r4&8Q?)246 _p_q_r_                                                                                                                                                                                                                                                                                                      ",
"                                                                                                                                                                                                                                                s_t_u_81L7r6q4q4r4r4q4r4'2'2r4q4q4r4r4r4uWY8Q0)<lWv_w_x_                                                                                                                                                                                                                                                                                                      ",
"                                                                                                                                                                                                                                                y_z_z^h2L7r6q4q4r4r4q4r4'2'2r4q4q4r4r4r4&8&8r6F={_|_}_~_                                                                                                                                                                                                                                                                                                      ",
"                                                                                                                                                                                                                                                 `!`j[7WL7r6q4q4r4r4q4r4'2r4r4q4q4r4r4r4&8Y8M3z<#`$`%`&`                                                                                                                                                                                                                                                                                                      ",
"                                                                                                                                                                                                                                                '`(` _<W91Y8q4q4r4r4q4'2'2r4q4r4r4r4r4r4/9'8M3MX)`*`+`,`                                                                                                                                                                                                                                                                                                      ",
"                                                                                                                                                                                                                                                -`.`j[<W91Y8q4q4r4r4r4'2'2r4q4r4r4r4r4:1];)2uZ/`0`1`2`3`                                                                                                                                                                                                                                                                                                      ",
"                                                                                                                                                                                                                                                4`5`d_Y@91Y8q4q4r4r4'2'2'2r4r4q4q4r4r4:1'8dAuZ6`!Wf[7`8`                                                                                                                                                                                                                                                                                                      ",
"                                                                                                                                                                                                                                                9`:`'^#WL7Y8q4q4r4r4r4'2'2r4r4q4q4r4r4r4q4r6j2;`bW<`=`>`                                                                                                                                                                                                                                                                                                      ",
"                                                                                                                                                                                                                                                ?`@`A`B`'8Y8Y8q4r4r4q4r4r4q4q4q4q4q4.9S?&2%2C`S^D`E`F`G`                                                                                                                                                                                                                                                                                                      ",
"                                                                                                                                                                                                                                                H`I`J`M3:1r4r4'2&2&2'2'2'2r4r4'2'2'2'2q491!C7WK`L`E`F`M`                                                                                                                                                                                                                                                                                                      ",
"                                                                                                                                                                                                                                                N`O`P`i2r6q4Y8s6Y8Y8q4q4q4q4q4r4r4q4L7Q`zKkER`S`[XT`U`V`                                                                                                                                                                                                                                                                                                      ",
"                                                                                                                                                                                                                                                N`W`+YY@81cC~B@D@D)E*EbCHFGFFFGFbC,EX`ADY`Z`[`]`^`_```a`                                                                                                                                                                                                                                                                                                      ",
"                                                                                                                                                                                                                                                b`c`0[d`e`*Ef`Y`kE,E'E-E(EBDBD(E'Eg`h`i`j`k`l`m`n`o`p`q`                                                                                                                                                                                                                                                                                                      ",
"                                                                                                                                                                                                                                                r`s`P?CD)Ef`t`lE&2&2(Eg`g`t`t`g`g`u`u`i`v`w`x`y`z`{`|`}`                                                                                                                                                                                                                                                                                                      ",
"                                                                                                                                                                                                                                                ~`hY a!af`#af`IF24'2(E'EBD@D)EkE,ElElEkE$a%al`&a'a{`(aq`                                                                                                                                                                                                                                                                                                      ",
"                                                                                                                                                                                                                                                )a*a+a,a-a.a,E+E+EkE-EGFBBP3Y8'2&2&2&2:1/aGF0a1a2a3a4a5a                                                                                                                                                                                                                                                                                                      ",
"                                                                                                                                                                                                                                                ~`6a7a8aZ`.a&ElE@D@DbCP3dC9a:a;a<a<a<a=a>a7WHF?a@aAaBaCa                                                                                                                                                                                                                                                                                                      ",
"                                                                                                                                                                                                                                                DaEaFaGaHat`Ia~B'Gs6eCJaJa9a9a9a9a9a9a9aJaKaLasWlWMaNal_                                                                                                                                                                                                                                                                                                      ",
"                                                                                                                                                                                                                                                OaPaQaRaSaTaUar4eC9aVa9a9a9a9a9a9a9aWaXaJaJaYa>aZa[a]a^a                                                                                                                                                                                                                                                                                                      ",
"                                                                                                                                                                                                                                                _a`aaabaca+Eq4daeafaJa9a9a9a9a9a9a9a9aXaXaXaeC>agaha:_iaja                                                                                                                                                                                                                                                                                                    ",
"                                                                                                                                                                                                                                                kalamanaoaEF&2Va9aJaJa9a9a9a9a9a9a9a9aJaXaeCpadCqarasataua                                                                                                                                                                                                                                                                                                    ",
"                                                                                                                                                                                                                                              vawaxayazafC(G}IXaKaXaJa9a9a9a9a9a9a9a9a9aJaXaeC{a|a}a~a b!b                                                                                                                                                                                                                                                                                                    ",
"                                                                                                                                                                                                                                              #b$b%b&b_C'b(b}IdCeCXaJa9a9a9a9a9a9a9a9a9aJaYaKa)b*b+b,b-b.b                                                                                                                                                                                                                                                                                                    ",
"                                                                                                                                                                                                                                              /b0b1b2b$a3b4b&224dCeCXa9a9a9a9a9a9a9a9a9aJaYaKa)b*bAB5b6b7b                                                                                                                                                                                                                                                                                                    ",
"                                                                                                                                                                                                                                              8b9b1b:b(EiEM3%2dCeCeCeCJaJa9a9a9a9a9a9a9aJaJaXaKa)b;1;bI_c_                                                                                                                                                                                                                                                                                                    ",
"                                                                                                                                                                                                                                              <b=b>b?b@bAb#W;1dCeCeCeCJaJa9a9a9a9a9a9a9aJaJaXaKa)b%2L7BbCbDb                                                                                                                                                                                                                                                                                                  ",
"                                                                                                                                                                                                                                                EbFbGbHbIbJb'824dCeCXaXaJa9a9a9a9a9a9a9aJaXaXaXaeC>a2_KbLbMb                                                                                                                                                                                                                                                                                                  ",
"                                                                                                                                                                                                                                                NbObPbQbhECD(G}I24dCXaJaJa9a9a9a9a9a9a9aJaJaXaeCpadCLaRbSbTbUb                                                                                                                                                                                                                                                                                                ",
"                                                                                                                                                                                                                                                VbWbXbYbZb[b!C4b&224XaJaJa9a9a9a9a9a9a9a9a9aJaXaeC)b]b>N^b_b`b                                                                                                                                                                                                                                                                                                ",
"                                                                                                                                                                                                                                                  abbbcbdbebX@(2}IdCeCJaJa9a9a9a9a9a9a9a9a9aJaJaXa)b*b&8fbgbhb                                                                                                                                                                                                                                                                                                ",
"                                                                                                                                                                                                                                                  ibjbkblbmbZX(b}InbpaobJa9a9a9a9a9a9a9a9a9aJaJaXa)bpb.9qb0^Q_                                                                                                                                                                                                                                                                                                ",
"                                                                                                                                                                                                                                                    rbsbtbubvbwb%224)bYaJaJaJa9a9a9a9a9a9a9aJaJaXaKa)b'2xbybzb                                                                                                                                                                                                                                                                                                ",
"                                                                                                                                                                                                                                                      {b|b7^6^)2'224)bXaXaXaJa9a9a9a9a9a9a9aJaJaXaKa)b%2}b~b c!c                                                                                                                                                                                                                                                                                              ",
"                                                                                                                                                                                                                                                      #c$cb^YZ#2r4nbeCeCeCeCXaJa9a9a9aJa9a9aJaXaeCeC)b>a%c&c|b'c                                                                                                                                                                                                                                                                                              ",
"                                                                                                                                                                                                                                                        (c@^)c.QcA24eCeCeCXaJa9a9a9a9a9aVaVa9aJaJaJaXa*c3]+c,c-c.c                                                                                                                                                                                                                                                                                            ",
"                                                                                                                                                                                                                                                        /cf_0c1cS^C`dCXaXaJaJaJaJaJaJaJaXaeCeCeCeCeCdC>acA2c3c4cV`                                                                                                                                                                                                                                                                                            ",
"                                                                                                                                                                                                                                                        5c6c7c8c9c:c}IeCJa9aVadaVaXa&2(@'GcCcCDFfCwKNJ'G(@;c<c=chb                                                                                                                                                                                                                                                                                            ",
"                                                                                                                                                                                                                                                        >c?c@cAcBcCc}IXaXaeC24&2r4q491BBJFFFGFGFHFHFFFCF'GDcEcFcGc                                                                                                                                                                                                                                                                                            ",
"                                                                                                                                                                                                                                                        HcIcJcKc)_Lc>a9aYa:146cCJFcCDD3;DDEFcCcC'GBB81#EMcNcOcPcQc                                                                                                                                                                                                                                                                                            ",
"                                                                                                                                                                                                                                                          RcScTcUcLc24'2s646'GFFbC+EIFJFJFCDFFFFfCcCEFDFoaVcWcXcYcZc                                                                                                                                                                                                                                                                                          ",
"                                                                                                                                                                                                                                                          [c]c^cm]$2:1fCGFEFBBDDJF,EADAD-E-E'E-EADAD(E$a)E_c/U`cacbc                                                                                                                                                                                                                                                                                          ",
"                                                                                                                                                                                                                                                          ccdcecfc7S3;GFbCGFJFfCIF(EY`f`Y`Y`gcgcY`Y`gcgcADhcicjckclcmc                                                                                                                                                                                                                                                                                        ",
"                                                                                                                                                                                                                                                            nc:^ocpcMFBBBBKK$aAD'Egc'ElE~BlEkEkE,E,E)E$a.ayKqcn`rcsctc                                                                                                                                                                                                                                                                                        ",
"                                                                                                                                                                                                                                                            ucvc_Hwcxc'GtLyczcf`-EADkEHFGFIF~B*EbCbCoaIL(E{c|c}c~c d!d                                                                                                                                                                                                                                                                                        ",
"                                                                                                                                                                                                                                                            #d$d%d&d'd&E-E'E(E~BGFFFFFGFHF+EkE)E~BbCbCbC+Ehc(d(<)d*d+d                                                                                                                                                                                                                                                                                        ",
"                                                                                                                                                                                                                                                            ,d-d.d/d0d(E&EFFwKxKbCIFGFCDJFbC-E'ElEbC+E+EbC*EMF1d2d@^3d4d                                                                                                                                                                                                                                                                                      ",
"                                                                                                                                                                                                                                                            5d6d7d>B8dBD~BNJ9d:dhc+EHFCDfCHFBDADlE+E~B~BbC;d<d=dlW>d?d@d                                                                                                                                                                                                                                                                                      ",
"                                                                                                                                                                                                                                                              AdBdCdDdEd*EoaMFMFbCFdjEGFGFIF~BlElElElE~BbCGdGdjEHdIdJdKd                                                                                  LdMdNdOdPdQdRdb_+dSdTdUdVdWdXdYdYdYdYdZd[d]d^d_d`dad                                                                                                                                                ",
"                                                                                                                                                                                                                                                              bdcddd4/edlE,ElE+E:dbCIFGFGFHF+E*ElE,ElE*EbCGdGdFdfdA]gdhd                                                                        idjdkdldmdndodpdqdrdsdtdudvdwd7cxdydzdzd{d{d{d{d|d{dyd}d~d e!e#e$e                                                                                                                                            ",
"                                                                                                                                                                                                                                                              %e&ebU'e_clElE*EzKFdzKbCFFJFHF,E)ElE~B*E*EKKhc~B(esL)e*e+e                                                    ,e-e.e/e0e1eSd2e3e4e5e6e7e8e9e:e;e<e=e>e?e@eAeBeCeDeEeFeGeGeFeFeGeGeGeGeHeIeJeKeLeMe cSdNe                                                                                                                                        ",
"                                                                                                                                                                                                                                                                OePe;^Qe+E~B+EFdIFbC:dFFJFFF*EkElE*E~BKK+EhcoaReSeTeUeVe                                        WeXeYeZe[e]e^e_e`eaebecedeeexdfegeheiejekelemeneoepe$Yqere~^~^vbvbXGoToTvQsevQvQE_XGkNkN6^@YUYteuevewe                                                                                                                                        ",
"                                                                                                                                                                                                                                                                xeyezeNJLFIFbCGFFFGFHFGFCDCDGFbC,E,E+EIFIFMFMFjEMc{e![|e                  }e~e f!f#f$f#d+d2e%f&f'f(f)f*f+f,f-f.f/f0f1fAe2f3fw%4f5fz^z^7Y6fjWg2g21W7f7f8f8fEFEF9f9f7f:f;fmEmEmEmEmEmEEFEF<f=fpX(]>f?f@fAf                                                                                                                                      ",
"                                                                                                                                                                                                                                                                BfCfDf9dAbHFIF%EED%EGFFFJFJFfCHF)E@D+EHF~B,E,ElEhc:dEfFfGf        HfIfJfKfLfMfNfOfPfQfRfSfwdTffeUfVfWfXfYfZf[f]f^f+Y_fUc{[kNkNvQ`f`f'G'GUaiEEFEFcCcCcCafafCFCFCFDFDFDFCFDFDFDFDFDFDFCFCFaftLKFbfG=1^cfdfef                                                                                                                                    ",
"                                                                                                                                                                                                                                                                ffgfhf%C*ElElEKKzKbCIFGFGFHFIFlE'E'ElE~BADf`ifjf'E-Ekflfc`CbmfnfofpfqfrfsftfufvfwfxfBeyfzf{f|fa^fc6fjW]Oo/o/!2X8X87f7fmEcCcCcCcCcCcCafaf}f}fafafcCafaf}f}f}f}f}f}faf}f}f}f}f}f}f}f}f}f}f}fafcCEF8fTG~f g!g#g                                                                                                                                  ",
"                                                                                                                                                                                                                                                                $g%g&g]`'g(ggcY`Y`Y`f`'Ef`f`f`Y`t`gc-E(EAD(E)ElE<d)gxK*gW@v^+g,g-g-g.g.g0[jW]O]O1WmEmEEFEFEF7f7fmEmEcCafafafafcCcCafaf}f}f}f}f}f}f}f}f}f}f}f}f}fafcCcCcCcCcCcCcCcCcCcCcCcCcCcCcCcCcCcCcCcCafafcCtLUa8f/gU_0g1g                                                                                                                                ",
"                                                                                                                                                                                                                                                                2g3g4g5gZ`gcgcY`Y`f`f`'E-E-E-EAD(EBD@D)ElE~BIFFF6g7g8giEQ`BB9g9gc:c::gd:UatLtLcCcCafaf}f}fCF;g;gDFDFCFCFCFCF<g=g=gafafafafafafafafafafafafafafafafcCcCcCcCcCcCcCcCcCcCcCcCcCcCcCcCcCcCcCcCafafcCcC;gEF!]>g?g@gAg                                                                                                                              ",
"                                                                                                                                                                                                                                            BgCgDgEgFgGgHgIgJgKgLgMgAFNgOgX`kE,E*EbCIFHFCDJFCDCDJFJFCDJFfCJFfCDFcC8gaf)GEF8f9f9f:f:fcCcCafafafcCcCcCcCaf}f}fafaf}f}f}f}f}f}f}fafafcCcCcCcCcCcCcCcCcCcCcCcCcCcCcCcCcCcCcCcCcCcCcCcCcCcCcCcCcCcCcCcCcCcCcCcCcCcCafafDFPgmE5^QgRgSg                                                                                                                              ",
"                                                                                                                                                                                                                                  TgUgVgWgXgYgZg[g]g^g_g`gvd7cagbgcgdg,EegKKIFHFFFfCcCEFDDBBDDDDBBBBDD'G'GEFEFEFEFcCcCaf;g;gDFDFDFDFDFDFCF<g8gcCcCcCcCafafafafafafafafafafafafafafcCcCcCcCcCcCcCcCcCcCcCcCcCcCcCcCcCcCcCcCcCcCcCcCcCcCcCcCcCcCcCcCcCcCcCcCcCcCafafCFaf9f~ffgggQ_                                                                                                                              ",
"                                                                                                                                                                                                              hgigjgkglgmgngogpgqgrgsgtgugvgwgxgygzg{g|g}gBe~g hz^5[XIJFJFfCfCDFDFcCcCcCEFEFcCcCEFEFcCcCcCcCcCcCcCcCcCcCafaf}f}f}f}f}f}f}f}f}fafafafafcCcCcCcCcCcCcCcCcCcCcCcCcCcCcCcCcCcCcCcCcCcCcCcCcCcCcCcCcCcCcCcCcCcCcCcCcCcCcCcCcCcCcCcCcCcCcCcCcCcCcCcCcCcCaf}fcCN0!h@^#h$h                                                                                                                            ",
"                                                                                                                                                                                                    %h&h'h(h)h*h+h]gaebe,h-h1`.h/h0h1h2h3h4h5h6h7h8ht]re)_)_9h:h;hd`Ua'G'GEFEFEFEFcCcCcCDFDFDFDFDFDFDFDFDFcCcCDFDFcCcCcCafafafafafafafafafafafafafafafcCcCcCcCcCcCcCcCcCcCcCcCcCcCcCcCcCcCcCcCcCcCcCcCcCcCcCcCcCcCcCcCcCcCcCcCcCcCcCcCcCcCcCcCcCcCcCcCcCcCcCcCcCcCaf}fcC#E1Y<h=h>h?h                                                                                                                          ",
"                                                                                                                                                                              @hAhBhChDhEhFhGhHh!eIhJhKhLhMhNhOhPhQhRhSh|gThCe3fUh5f5f7Y7Y6f6fVh1Wo/TGTG8f8f<f9f;fWhafmEmEcCcCcCcCcCcCcCcCcCcCcCcCcCcCcCcCcCcCcCcCcCcCcCcCcCcCcCcCcCcCcCcCcCcCcCcCcCcCcCcCcCcCcCcCcCcCcCcCcCcCcCcCcCcCcCcCcCcCcCcCcCcCcCcCcCcCcCcCcCcCcCcCcCcCDFDFDFDFDFDFDFcCcCcCcCcCcCcCcCcCcCcCafafcCKFlNXhYhZhb`                                                                                                                          ",
"                                                                                                                                                                        [h]h^h_h`hahbhchdheh1`fhghhh0hihjhkhlh6hmhnhohJ`ph)_~^kNc:t6N0d:'GUaUaqhrhcCcCcCDFDF;g;gDFCFDF;g;gcCcCcCcCcCcCcCcCcCcCcCcCcCcCcCcCcCcCcCcCcCcCcCcCcCcCcCcCcCcCcCcCcCcCcCcCcCcCcCcCcCcCcCcCcCcCcCcCcCcCcCcCcCcCcCcCcCcCcCcCcCcCcCcCcCcCcCcCcCcCcCcCcCcCDFDFfCfCfCDFDFcCcCcCcCcCcCcCcCcCcCcCafaf;gtL1Wn_shyeth                                                                                                                          ",
"                                                                                                                                                      uhvhwhxhyhzh{h|h}h~h i<e!i#i$i|g%i&i'i{fa^;cd_d_pXlNI>I>1W&G&GmEmEmEmEcCcCcCcCcCcCcC8g8g}fafcCcCcCaf}fafaf}fafcCcCcCcCcCcCcCcCcCcCcCcCcCcCcCcCcCcCcCcCcCcCcCcCcCcCcCcCcCcCcCcCcCcCcCcCcCcCcCcCcCcCcCcCcCcCcCcCcCcCcCcCcCcCcCcCcCcCcCcCcCcCcCcCDFfCfCfCfCfCfCcCcCDFfCfCDFcCcCfCDFDFcCcCDFfCfCDFcCcCcCcCcCcCcCcCcC}fafEFN0!h]a9_(i                                                                                                                        ",
"                                                                                                                                            )i*iog-d+i,i-i.i/i0i2f~g1iGe2i7Y0[jWI>q/7f7fEFEF8fmEcCEFEFPgPg;f3i;gafafDFDFDFDFNJNJ4iDFDFDFDFcCcCDFCFDFDFDFcCcCcCcCcCcCcCcCcCcCcCcCcCcCcCcCcCcCcCcCcCcCcCcCcCcCcCcCcCcCcCcCcCcCcCcCcCcCcCcCcCcCcCcCcCcCcCcCcCcCcCcCDFDFDFDFDFDFDFcCcCcCcCcCcCcCcCcCDFDFfCfCDFDFDFDFfCDFDFfCfCfCDFcCEFcC'GEFcCDFDFDFfCfCDFcCcCcCcCcCcCcCcCafcCEFKFg25i6i7i8i9i:i;i<i=i                                                                                                            ",
"                                                                                                                                        >i?i@iAiBiz]CiDilhGeohN_~^vb:hvQvQ'GEFtLEFEFcCcCEiEiDFDFCFafafEiEiDFFiDFafafDFDFDFDF;g;g;g;g;gDFDFcCcCDFDFfCDFDFcCcCcCcCcCcCcCcCcCcCcCcCcCcCcCcCcCcCcCcCcCcCcCcCcCcCcCcCcCcCcCcCcCcCcCcCcCcCcCcCcCcCcCcCcCcCcCcCcCcCcCcCDFDFfCfCfCfCDFcCcCcCcCcCcCcCcCcCDFfCDFcCEFEFEFcCfCfCfCDFDFcCEFBB3;3;46813;BBDDEFcCDFfCcCcCcCcCcCcCcCcCafcCtLUa!2GiHiIiJiKiLiMiNiOi                                                                                                            ",
"                                                                                                                                      PiQiRiSiTiAeHe2iz^UiI>v=8fEFPgPgmEmEcCafafcCcCcCcCaf}faf}f}fCFDFcCcCDFDF}fDFDFDFDFcCcCEFEFmEmEmEcCcCDFDFcCcCDFcCcCDFDFcCcCcCcCcCcCcCcCcCcCcCcCcCcCcCcCcCcCcCcCcCcCcCcCcCcCcCcCcCcCcCcCcCcCcCcCcCcCcCcCcCcCcCcCcCDFDFDFDFDFcCcCDFDFDFDFcCDFDFDFDFcCcCcCcCDFDFDFcCEFBB3;3;BBcCfCDFcCEFBB4691Y8q4r4r4q4Y8P33;'GcCDFDFDFcCcCcCcCcCcCcCDFcCEFcCViWiXiYiZi[i]i^i_i`i                                                                                                          ",
"                                                                                                                                    aibicidi`_,gm]A^DDeitLcCcCDFCFCFCFDFDFDF}f}fDFDFcCcCafaf}f}f}fCFDFcCcC;g=gtL'GDDBB3;8181K7K73;81813;3;BBDD'GEFcCcCcCDFDFcCcCcCcCcCcCcCcCcCcCcCcCcCcCcCcCcCcCcCcCcCcCcCcCcCcCcCcCcCcCcCcCcCcCcCcCcCcCcCcCcCcCcCcCcCDFfCfCfCDFcCcCDFDFDFDFcCDFfCfCDFcCcCcCcCDFcCEFDD81P3Y8q4s6BBEFEF'G81s6dC:afigihiiiji;aXaq446DDcCDFDFcCcCcCcCcCcCcCDFDFcCEFcCkiliminioipiqirisiti                                                                                                        ",
"                                                                                                                                  uiviwixi;c1Yv=8fEFcCcCafcCcCaf}f}f}f}f}f}f}f}f}f}fafafcCcCCFCFCFDFDFDF;gmE8fDD46P3Y8r4&2&2:1r6r6r4'2&2'2q4s6(@3;EFDFDFDFDFDFDFcCcCcCcCcCcCcCcCcCcCcCcCcCcCcCcCcCcCcCcCDFDFDFcCcCcCcCcCcCcCcCcCcCcCcCcCcCcCcCDFDFDFDFfCfCDFDFDFDFDFcCcCcCcCcCDFfCDFDFDFDFDFDFDFEFDD46Y824JaVaJaq48181P3r4Vafiyizi{i|i_1}i~i j=a&2P3'GcCDFDFDFcCcCcCcCcCDFDFcCEFeiPgGF9a_)!jx0#j$j%j&j                                                                                                        ",
"                                                                                                                                  'j(j)j|]Q`'GEFcCDFDFDF}fcCcCafafafafafafafafafafafafafcCcCfCfCfCDFcCEFDDBB81s6249a;a*j+j,j-j.jgi/j0j,j+j1jdaeCr446'GEFcCDFfCDFcCcCcCcCcCcCcCcCcCcCcCcCcCcCcCcCcCcCcCcCDFDFDFcCcCcCcCcCcCcCcCcCcCcCcCcCcCcCcCDFDFfCfCDFDFcC'G'G'GDDBBBBBBBBDDEFcCcCcCDFfCfCDFcCDDP3Xa j2j3j3j2j*j&2&2Va0j4jY=5j6j~Q2>e$7j8jF29j0jXa46EFcCDFDFcCcCcCcCcCDFDFDFPg:j;jFFP3<j=j>j?j@jAjBj                                                                                                        ",
"                                                                                                                                CjDjEjFjTGEFcCcCaf}f}f}f}fafafcCcCcCcCcCcCcCcCcCcCcCcCcCDFDFfCfCDFcC'G4691Y8'2VafimiGjHj4j3j^KIjJjF2x:KjLjMj.j+j<a24P33;'GcCDFDFDFDFcCcCcCDFDFDFDFDFDFDFDFDFDFDFDFDFDFDFcCcCcCDFDFDFDFDFcCcCcCcCcCcCcCcCcCDFDFcCcCDFDFcCEF'G81(@P391s6Y8s69146BBDD'GcCDFfCfCDF'G46Xa-jY=Nj2>Y6OjPj1j*jgi.=OjY6QjRjSjTjUjVjWjXjYjjJji&2BBEFcCDFDFDFcCcCcCcCcCDFDF9f=gFFcCob,jZj[j]j^j_j`j                                                                                                      ",
"                                                                                                                                ajbjcj#ZEFDFafafafafafafafafafcCcCcCcCcCcCcCcCcCcCcCcCcCDFfCfCcCEFBBP3&2Va*jdjejH9fj_)gjhj7jHEijjjf1t@kjhj_1ljH9mjiidaq446DDEFcCDFDFcCcCcCDFDFDFDFfCfCfCDFDFfCfCfCfCfCDFcCcCcCDFfCDFDFfCcCcCcCcCcCcCcCcCcCDFDFcCcCcCEFBB8191'2dCXa9a:a=a=adadCq491463;'GcCDFDFDDs6jiJ:njojpjqjWj@)9jrjsj+&tjujvjwjwjwjwjwjxjyjzj{jx:fiP3DDcCDFDFDFcCcCcCcCcCDFDFcC;gJFJFP3^)aD|j'H}j~j k                                                            !k                                        ",
"                                                                                                                              #k$k%k),8fcCDF}fafcCcCcCcCcCcCcCcCcCcCcCcCcCcCcCcCcCcCDFDFfCDFEF81q4Va j&kKjq8'khFRj(k)kh^Sj*kTj+k,k-k.k*kSj/k0ktjdB1kx:2k*j2491BBEFDFfCfCfCDFcCEFEFcCcCDFDFDFfCfCDFDFDFcCEF'G'GEFcCcCcCfCfCfCDFDFcCcCcCcCfCDFDFcC'G46q4Xa1jii3kLj4kKj3jjJG;5kzi6kgifiVar446'GcC3;r43kYj7kqj8kxj9kVjijij:k.k9k;k8kxjyj;kxj8k8kxj<k*ku(5k:aP3DDcCDFDFfCDFcCcCcCDFfCDFcCEF;g=k>k6$`=?k@kAkBkCk                                  DkEkFkGkHkIkJkKkLkMkNkOkPkQk                                      ",
"                                                                                                                              RkSkTk1_7fcCcCafafcCcCcCcCcCcCcCcCcCcCcCcCcCcCcCcCDFDFcCcCDFEF(@eC+j3kljRLUkVkoiWk;kwjwjwjwjwjwjwjwjwjwjwjwjwjxjvjXk)k:kuH.=mi:ar446'GDFfCfCDFEFBB814646'GcCDFcCcCEF'GDD3;(@91P3463;DD'GcCDFDFcCcCDFDFDFDFDFcC'G81s6dCYkMjH9EAe$%FUkWj:k:k:kWjZk[k]kfjPj,jJa913;81r46kOj^kWkwjwjwj;k+k+kvjwjwjwjwj9k(k-k<kvj;k8kwjwj*k:J&kXaP3DDcCDFfCDFcCcCcCcCcCDFcCDDEF46HjJ:d-?E_k`kakbk    ckdkekfkgkhkikjkkklkmknkokpkqkrksktkukvkwkxkR6ykzk{k|k}k~k l!l                                  ",
"                                                                                                                              sc#lR($l7fcCcCafafcCcCcCcCcCcCcCcCcCcCcCcCcCcCcCcCDFDFcCEFEFBBeC%l5k_1uHojvjxjwjwjwj8kpj&lXk,kujujWkuj,kuj'l;kwjwjwjwjwjoj+&>Ciidaq43;cCfCDFcCBBP3q4&2'2(@DD'GDDBB81P3Y8'2eC9a9aeC&2s6(@BBEFcCDFDFfCfCfCfCDF'G46r4(l2kjJ{iEA^k.kWkpjwjwjwjwjwj;k+k:kb'4?5k%l:as646r4%l)lQ:*kwjwjwjwjwjwjwjwjwjvj+k(k:ky5*lSj9k;kwjwj'leK}i<ar43;EFDFDFDFcCcCcCcCcCDFDF'GEFDFr4+l,l-lI:.l/l0l1l2l3l4l5l6l7l8l9l:l;l<lLV=l>l?l@lAlBlClDlElFlGlHlIlZk$By5U&JlKlLlMlNl                              ",
"                                                                                                                              OlPlQl$lmEafafcCcCcCcCcCcCcCcCcCcCcCcCcCcCcCcCDFDFfCDFcC'G3;s6 j5jHE$B(k'l8kwjwjwjwj;k'lUjRltjWj:kSlWjWj:koj'lwjwjwjwjwj'lojTlUl0j9a91EFDFEFBB9124Va;a=adC9146(@91'2eCda(lji0j0jji*jdadCs63;'GDFfCfCfCfCfCcC81r4:a3k)lijUkVlWk&lpj8kwjwjwjwjwj8kvjuj(ky5+&F2yieCs6r40jH9WlVlwjwjwjwjwjwjwjwjwj,k*llBlBgj@)U&Xlyjwjwj;kRlF20jXa(@DDcCcCcCDFcCcCcCcCDFDFcCDFFF'G;a$*#$YlZl[l]l^l_l`lalblcldlelflS;glhliljlklllmlnlolplqly>rlsltlulJ:4kPjvlHj&kGjgi.j/j/j2kvlzi                    ",
"                                                                                                                              OlPlQl$lmE}fafcCcCcCcCcCcCcCcCcCcCcCcCcCcCcCcCDFDFfCDFEF3;91=a3jNjSlujwjwjwjwj;kqj,k-kXl)kVktjWj:kSlWjWj:kwlUjuj9kvj8kwjwjwjVj{j5k0j&2BBEF3;Y8(l&kKjJ:5k~i<aJa9a1jyi3kmj.=F2fjxlylUlmjzl(lr446'GDFfCfCfCDFDDq4*j3k_)e$oi9kwjwjwjpjXk,kWk'l&lpj8kwjwjwj+kUk{l9j*j&2&2.jljNj7k<k;kwjwjwjwjwjpjqjRjRLf1V%rj4jOjWjujwjwjwjSj|l2j*jY8BBcCcCcCDFcCcCcCcCDFDFcCDFCDFF1jr^E80#R-}lb<~l m!m#m$m%m&m'm(m^k*lUk$By5lB)mQ:{A]khj8j*m+m,m-mzlGj.j.jgihizl3k.mLjejKjxlYP6jWlu(                ",
"                                                                                                                              /m#l0m)_mE}fafcCcCcCcCcCcCcCcCcCcCcCcCcCcCcCDFcCDFfCcC3;s6eC2kt@wlWkpjwjwjwjwj'l7k*l:kVl*k-k,kujujWkuj,kujUjVk^k(k,k;kwjwjwjuj:k:Jzi:a913;91Vavl6jjjy5hFYPzlmi/j.mlj7jij%FQjtj*lXjY6;#1k3k;a&246'GDFJFfCcC46Va3khjhF1m'l;kwjwjwjXkRlIlzjojSjuj;kwjwjwjvj+k%FsjgiXaeC2jb'Vkwl/k<kwjwjwjwjwjqjVjni|l)lOj&k-jsjRL)kwjwjwj+k2mFIgi&281EFcCDFfCcCcCcCcCDFfCDFcCcCGF jt@Slh^3m{&4m5m6m7m8m9m:m;m<m=mGEj3jJ9jLj.m>m?m@mAmBmCm,jDm@mEmjJ^K{i6j+&2mhF%FlBy5y5XjIl^kRj1mSjSj              ",
"                                                                                                                              /mFm0mremE}fafcCcCcCcCcCcCcCcCcCcCcCcCcCcCcCDFcCcCDFDD91Va/jr3lB'lwjwjwjwjvj+k)kzj*lSl)kWkpjwjwjwjwjwjwjwjWkzjZk:k1m&lwjwjwj;k'ly5q80j&2P3Jaiilju(.k&l-k~QGmP,fjp5RL3m)k'lxjwjxjyjWkh^2>YP3k jXa(@'GDFDF'G'2/j^Kjj)k9kwjwj;k9kqj.kVkXjU&Y6u(*l'lwjwjwjwjwjVkgj&kVa(lJ:Jlh^^kRjXkwjwjwjwjwjTjlBt@^KF2|iyiHmr3Yj1m8kwjwj'lUkIm.mJaP3'GcCDFDFcCcCcCcCDFDFDFcCEFGF(lJmKm%Fn@r?2jLmMmKlHEiD@)NmOmt%4jPmQmDmDmRmSmTmzlvlUmVmWm3jXmYm&#O9{AJl3mZm[moiVl7kzjIl3m2>y5U&eKnib']m          ",
"                                                                                                                              /mFm0mremE}fafcCcCcCcCcCcCcCcCcCcCcCcCcCcCcCfCDFcCEF4624-jJ:ImVl;kwjwjwjwj+kUk$BUj,kWk<kpj8kwjwjwjwjwjwjwj&l*kRllBUkWk8kwjwj8k;k^k6K.mVaq4,j^KWlwl&lxjyjoidB%*XjRl)k-k9kpj8kwj8kxjvj<kTj$B@)mj0jdC(@'GEFBB:amj^mWj9k;kwjwj<k(kVjVl.kVjni{l{i_%*kwjwjwjwjwjzj@)6k:aGjFIu(wl3mWjujwjwjwjwjwj)kn@{izi3jp5dj-jgjhF)kvjxjwjvjh^{A5k(l'281EFDFcCDFDFcCcCcCcCDFDFcCFF81_mPmzi2jCm=a`mambmRmdj/j/jyiGjcmjJs*FIdm7jHE1ML+eKy5y52>3mIlemfm1moizjQjU&hFTlWl_%@)xl3j4kLj.mvl6khi%l/jgm<ahm  ",
"                                                                                                                              /m#lR(C&mE}fafcCcCcCcCcCcCcCcCcCcCcCcCcCcCcCfCfCcC3;r4;a2j^m%FXkwjwjwjyjXlwllBUk'lwjwjwjwjwjwjwjwjwjwjwjwjpjWkwljj{Aojyjwjwjwjwjoif1F2Yk&2Gj'kU&XlwjwjwjvjSjSj<kwjwjwjwjwjwjwjwjwjwjwjwjuje$p5mj,jeC46BB(@ jJj~QSjwjwj8k;kTj3mJlU&3mY6im|iYP{l.kwjwjwj8kpjIl{iGj;a9j|lY6IlhFU&XlwjwjwjwjwjojnjylPjmjJjii6k]kIlojTjyjwjxj9ky5yl,jJaP3'GDFcCDFDFcCcCcCcCDFDFDFCDGFFFY8gi4jej&kjmfakm%l3kPj4k3j>ClmiDmmnmom$BWjpmqm1m7kzjWjQj3m2>y5lBrmijEAiDsm5jr3jJ4k6kiidj/j.jGj&kvlPj2jzimjMQ  ",
"                                                                                                                              tmumvmKbmE}fafcCcCcCcCcCcCcCcCcCcCcCcCcCDFfCDFcCBBq4*j.mgj3mXkxjwj;k'l(klBlBoiqjxjwjwjwjwjwjwjwjwjwjwjwjwjvj+kIlOj^mV%XlwjwjwjwjWkzjWliidC&k{ltj,kwjwjwj8kvjvjxjwj8k;k<k9k<kyj&l'l<k;kwj;kujWj:JF2.jeCY8'2zljjUj&lwjwjpjWkSl+&iDSO8jJj7j1TWj.kpjwj;k'l*kRjRL}i<a<aGmRL2>eK:JuH(kwjwjwjwj8kzjhjJ:J:r3wm4jxl$B)kU&2>Tjwjwj8kzj|l2jfir43;cCDFfCDFcCcCcCcCDFDFcCfCCDFFHmp5ni$B;#j35kxmij$BlB%FJlY6ymlB2>$BlB[k1Tf1+&hj8jwmY=5krjejLjXPzm4kzi4jLj2jej{mY=_)Y#Imnjf1{A|m2>3m}m%FY6    ",
"                                                                                                                              ~mum n$lEF}fafcCcCcCcCcCcCcCcCcCcCcCcCcCDFDFcCDDP3Xa.m{l*l,kwjwjwj+kZkU&Vk/kuj&l8kwjwjwjwjwjwjwjwjwjwjwjwjvjuj3m6KylkjVlwjwjwjwjyjXle$vlVa/j^KYjVlwjwjwjwjwjwjwjxjvj-kzj*lVkoj7kQj^kWkwjwjwj&lUj%*.=+j9aVa9jZk;k8kwjwjqj0k{Aq8yl'k%*:k0k.k&lwjwjwj+kUk!n4?mj*j46(lRL7kIlnit@b'(kwjwjwjxj&ly5H9.mNmgjH9P,_%7k7k_%_%7kwjwjwj.kY6hj6kXaP3'GcCDFDFcCcCcCcCDFDFcCDDEFFF1jYPijY62mr3~irjiDimiD_1fj>Cmj2jvl3kzl~igiyi/jmi%l3kKj>Cfj8jsm1k#nu(lBlBy52>XjZkWj$n(k(kojRl*l`=ni2m%nsmsj    ",
"                                                                                                                              &n'n0mreEF}fafcCcCcCcCcCcCcCcCcCcCcCcCcCDFDFEF81'2<ax:Q:ujvjwjwjwj*k[k%*ojXkqj<kxjwjwjwjwjwjwjwjwjwjwjwjwjvjuj2>Jj5k4?7kwjwjwjwjpjXkeKej:aYkvl@)zjwjwjwjwjwj8kpj9k-koiSl*l^kRlIldBJlVj,k;kwjwjwjRlp5PjHm<a}iWjwjwjwjwjqj0kni@)|ln@)kwjwjwjwj;kWk*k7klB:JP,gi'2fC:aOj*l*lY6Wl2m(k8kwjwjxj&lU&jJhisjNm(nJj2m)kRj6j'k^kpj8kwj'l1m2m}i(lr43;EFDFDFcCcCcCcCDFDFcCBB'GFF24mj8j|l_14j<aji5k^K}i)n<j*n.j/j.jGjMj6k3kPjLj9j>C+nhQ{lb'V%hF,n-n(k)k1m7kVkWjQj3m2>lB%FhFTl]k|i4?ljJ:ejzl    ",
"                                                                                                                              .n/n0nqe&GafafcCcCcCcCcCcCcCcCcCcCcCDFDFcCcCEFP39a/jsjZkpj8kwjwjwjUjhF{AzjXlWk&lxjwjwjwjwjwjwjwjwjwjwjwjwjvj+ky5JjmjwmVkwjwjwjwj8kpjZkmjda:a/jljWjwjwjwjwjwjpjXkSjzjzjSj,k+k(k:kdB~Q[k*l'lwjwjwjh^;#8jGj*jG;:kwjwjwjwjyjTj0kZk^k)k9kwjwjwjwj'lVk[kJl7k2>sm6kq4GF&23jkj2>Wj1T%*(kpj8kwj8kxjUkH9%l4kLj~i_%3m-kVlf1WlSlWk;kwj;k'l2>wmdjda91'GcCcCDFDFcCcCcCcCDF'GcCFF'G9a jiiGjji24&2(l,j1n2n9jUlFIsm1kYjV%u(lBy5y5$BZkWjRl0k(k)kVl3n3mnin@]kiDsmFIH93jej.m3kzlhiii.j-jb,_&&k2j    ",
"                                                                                                                            4n5n6n7npe;gafafcCcCcCcCcCcCcCcCcCcCcCDFDFcCcCDDY8YkejSORjwjwjwjxj'loj%*{A:kSjuj&l8kwjwjwjwjwj8k;kvjyjvjpj8kpjXkXjJjziH9:kwjwjwjwjwjwjWj}i9aVa.jsjXj<k;kwjwjwjqj7kIl*lwlXkwjvjSjtj{AWlt@;#,kwjwjwjWk^kEAejjix::kwjwjwjwj;k<kXkqj;kwjwj;k<kujXl(ktj[ky5TjRlp5zlr4JFY8+jP,U&VlJlY6Vj,k;kwjwjwjtjwm%liiji,jOjVkTjh^U&nilBRl<kwjwjwj7kkj(n,j&2DDcCcCDFDFcCcCcCcCDFcCDFCDFFCD'22k(nrjyiYk<a-jLm8np5{l2mniU&:k0k9n:nVlVj^k*lUk$By5lB%FhFij%n_1sjH95kziHjGj.j/jyi%lhizl3k.m2j4kx:fj      ",
"                                                                                                          ;n<n=n>n?n@nAnBnCnDnEnFn+YVi;gDFDFcCcCcCcCcCcCcCcCcCcCcCDFfCDFcCBB&2iiIjTl/kwjwjwjyjoi3m;#{Atj/k,k&lxjwjwjwjwjwj;k9kujXl-kqjpj8kpjtjJj2j>CWjwjwjwjwjwjwj:kjJXa=a4j@)u(/k<kwjwjwjSj%*ijWj.k&l8kvjh^Xj:J)lGm%n.kwjwjwjpjWkY6.=-jjJWjwjwjwjwj8k;kpjpj8kwjwj<kh^Sl%Fy5)kUjTjyj:kIj.jeC(@Y8&29jU&TjWj2>QjVj&lwjwjwjSl_)~i*j24HmOjWjoiUjSjWjNjij+kwjwjwjXl%FSO3k9a(@EFDFfCDFcCcCcCcCDFcCcCDFJFGF j%nXjdBp5P,5k+nGnHnRl0k(k1mRjm^2>omnmWl_%JjP,jJ4kLj2jvl6k2kyi-jInJnSmzl4j5kr3{i_%HETle$JllBy52>          ",
"                                                                                                    KnLnMnNnOnPnQnRnSnTnUnVnWnXnYn(TMcDFDFDFcCcCcCcCcCcCcCcCcCcCcCDFfCDFcC81Xavl_%$B-kwjwjwj'l3mijOjb'QjSjXk<kWkoizj*l3mUk$BeKdBjjniu(U&$BUkn@P,&k.=Wjwjwjwjwjwjwj:kjJ24fiwm+&1TZk+kwjwjwj/kTlYjy5Vl'l8kvj/kU&_%sjUlsm0k;kwjwjwjwjtjfjGj3jZkpj8kwjwjwjwjwjwjxj<k-k/k1mSl%FXjWk8kwjwjtjwm/j*jfiii1j4jTlVj7kIl[klBXkwjwjwjwl|i4k1j91(l^m%Fzj*k&l)kRLuH*kxjwjwj9koi1TjJYkY8'GDFfCDFcCcCcCcCfCDFcCEFDFGF0jEARl:kOjGmx:ljij3m2>lBeKhFijmmZngjljH9d7[n^)_&/j-j.jiihizlvl2j4k3jY=sj4?iDEA~Q3mSlwl1m(koi0k            ",
"                                                                                                    ]n^n_n`nanbncndnenfngnhninjn@mS?CDDFDFDFcCcCcCcCcCcCcCcCcCcCcCDFfCDFcC46darjNjVjqjwjwjwj,k;#^m8j1kXjXl<k9kRj!n6K^K5kG;x:G;3jKj}iKjej9jJ:3jhidjjJtjwjwjwjwjwjwj:k}ir4dj%nniEATl/kwjwjwjXl%F2mn@Jl.kwjyj/keK^m^K(nljXj9kwjwjwjwjSl{iHjKjeKqjpjwjwjwjwjwjxj&lh^2>y5(k+k.k-kpjwjwj8ktjsj~i~i3j'kG;(n4?n@7kRjimb'-kwjwjwj/k1TNmgi'2VaxlYjUkSj<k+kQj2>/kvjwjwj;k9k$Bsj.j24BBEFcCDFDFDFcCcCfCDFcC'GEFCDJa3j6K+&_13j0jji4kG;zi.m.m6k2kZjyi/j0js&knln5kP,mnnnSOt@RLe$eKy52>3mQjtjVk7k1m)k1mzjUkY6V%f1              ",
"                                                                                                    onpnqnrnsntnh^9n0kzjSltjx#-%unq4CDDFDFDFcCcCcCcCcCcCcCcCcCcCcCDFfCDFEFP3<ajJniXlyjwjwjwjXlEANmP,)lUk*k1m*lYjyl3kfi9aVada:ada9aVaXaY8q49a;a=aYkjJWjwjwjwjwjwj8kIlmjr4hiijUk+&WlVlwjwjwjujWj~Qt@Nj(k8k&l)kY6|l.=Ljr3Y6XkwjwjwjwjRjSOrjejTloi9kwjwjwjwjwj&loj2>Tl%*Vl9k<k9k,kh^VjWj;#_)Y=5jImU&+&8j^K'kRjRj6j6jUjwjwjwj,ktjnjLj9aXa4jp52>Tjyj<kSjRjSlWkwjwjwjwjzj6KvlJa3;EFcCDFfCDFcCcCDFDFcC'GEFCD46fi3k>Cx:6kJaY8(l j,jmiyi2k6kvlPjLjejvnwnxn1kynTlzn%FZkRjVl(kojwlVkWjZkXj2>y5%F{A!n%n|l_)F2              ",
"                                                                                                    {n|n}n~n oOj%n1k23r?ylr3Kj,l!oQ`FFDFDFDFcCcCcCcCcCcCcCcCcCcCcCDFfCfCEFs6*jY=2>&lxjwjwjwj.kImxlH9smJlU&|iUlyi:adC'2Y8s691P3(@8146464681BB3;P3<axlRlwjwjwjwj;k9klBPj&2vldBRjf1b'ojpj8kwj<k/kJlhj_%7k8k<k(kdBYP4k%l5kJlqjwjwjwjwjVlWlP,Mj8j;#/k8kwjwjwjwjuje$HEb'e$:k1m0kRj3m1Tt@gjsm]khFzj.kXkXlu(xlljZktj4?_1Vj;kwjwj;k9klBY=fiXa(lUlXjpj8kxjvj1m;#SlXlXk9k'lSlkj(nJaDDcCcCcCDFDFcCcCcCDFDFcCfCFFJF3;9a6k3jrj~imi-jLjgjOjuHdBlBXj3m$By5eK%FeKlB2>3mXjU&dB1T#o_%$oxn*m%o(n4k4jLjejziziej4jLj                ",
"                                                                                                    &o'o(oUmvl2nGj,lGj6k4k>CUl2j,j91JFDFDFDFcCcCcCcCcCcCcCcCcCcCcCDFfCfCEFs6YkH9$ByjxjwjwjwjUjiD^KP,^KwmjJ-jeCP3BB'GDDDD'GEFcCcCcCEFEFEF'GDD46r4.j_%/kwjwjwjwj&l*k~Q~i(@6k%F/kjjijtjUjvjwjxj&l3msj5jWjwjvjSjQ:GmHjHm2jQ:qjwjwjwjwjojOjY=/j%lFIIl;k8kwjwjwjvj/k:keKdB%FU&lBlBeKeKy5UkVk)kujvjwjwjwjSl_)wm%**le$1TU&+kwjwjwjwjIlxl0jXar4zi2>wjwjwjwj*kTl7jEAeKtjUk!nUl0js6EFcCDFDFcCcCcCcCcCDFfCDFcCEFDFGFjiNjQjeKuHsmPjJ:dBh^0kWjy5hF2mEA_%)lIj.=4kLj2jvl6k2kii)ob,dj*o+o,o5k^KGm6K+&V%Q:eKy52>                ",
"                                                                                                    -o.o/on(5k0o}i}iUlsj4?7jiDFI2jeCfCcCcCDFcCcCcCcCcCcCcCcCcCcCcCDFfCfCEFs6*j>C%FXkpjwjwjwj*k7jr33j.m.j<as6DDDDEFcCDFDFDFDFfCfCDFcCcCDF'G46r4Va2jV%,kwjwjwjwj,k*l%n0jBBGj2mVkQ:niXj0k&lwjwjwj:kIj^KijIly5%*{l>CMjmi}iy59kwjwjwjwj7kiDKj jgiF2ni)k-k'l;kwjwj8kWk7k*lZkZkQj*l:kVjUj&lwjwjwjwjxjujRlTlyl^KuH*lRjXjYjtjXl,k+kSjni.=Hm24s6vl%*ujvjwjwj.k;#^m%nQ:y5;#6Khi&23;EFcCDFDFcCcCcCcCcCDFDFDFEFBBEFHF j;#Sl$B1T6KzlPjnju(V%]k|i4?sjY=}izi3k%l/j-jdjii2k6kvlPj1o3j2o3o4oZnN;5oJlIl6oSjh^(k7o                ",
"                                                                                                    8o9o:o;o?.Uk3m3mZkWjVkVjZk!nwm<afCEFEFcCDFDFcCcCcCcCcCcCcCcCcCDFfCfCcC911jx:%**k&lwjwjwjXlOjH9Gj=a'2(@3;DDEFcCDFDFDFcCcCDFDFDFcCcCcCBBs6Ja+jY=:kvjwjwjwjwjoiim^K;a810jgjijY6$B$BVk<kwjwjwjwl1kylfjF2}iLjHj%l~i2jJjVj;kwjwjwjwjVk4?&kHmUlp5nj;#Xj1m'lwjwj8kpjqj,k+k+k+k+kujqj&lxjwjwjwjwj&lSl|ljJMj}iEA*lUjUkNmEA%F*l3m{A|lzlJas6s6hit@:kujwjwjSj;#V%U&RjQj:Jr3(lEFEFcCDFfCDFcCcCcCcCcCcCcCDFDF'GEFCDeC.=GmljH9Pj<aJa/j2khiAm.j-j<o j/jMj4j.=FI4?'k{lRLe$Jl=o2>3mQjtjVk7k6o>oSjojWjy5e$uHm#                ",
"                                                                                                    ?o@oAoBoCoh^Do[mVj^ktjQjhF{lY=daCDEFEFcCDFDFcCcCcCcCcCcCcCcCcCDFfCDFEF(@=a(nij(k9kwjwjwj,k;#Gmii'2BBcCDDDDcCDFDFDFDFcCcCDFDFDFcCEF'G(@24jiziSOUjwjwjwjwj8kVk)lHj&23;;amj6jU&:khFeKXkwjwjwjSj~Q^msj5kPjHjPjrjr3gjRL+kwjwjwjxj&l3mwmmi+j_)]kim;#U&:k1mUj,kvj8kwjwjwjwjwjwjwjwjxjyj'l,kXlh^VleKY=/j1jHj_%Xj-kIlxl{ldB$BniiD.=HmP346s6-j5jTl/kwjwj/kTllBVjXl:kiDzi&2GFcCcCDFDFDFcCcCcCcCcCcCcCDFDFEFcCCD3;Hm&kvl3kgiVaY8q4VagiEoT&)nFo4kjJwm4?{lTlhFeKQjwl(kh^/kojzj:k*lUk$By5lBJl;#nj6jJjA&6L                ",
"                                                                                                    GoHoIoJoKo;#!jLoMoJjxl>CLm>mNo81GFcCcCDFcCcCcCcCcCcCcCcCcCcCcCDFDFcCEF46JaziuHoj'lwjwjwj9kWj:Jrj(lr43;BB'GDFDFDFfCfCDFDFDFDFDFcCDD(@'2:avl'kY6Xkwjwjwj8kpjZkwmji81'G'2jiF2$BRjEAHETjwjwjwj<kSjtj{AYjHEYjf1Njjj*l)kvjwjwjwj&l*kjj3j1j-j_1ijWjVl7k*l[knitj,k;k8kwjwjwjwjwjwjwjyjXlojtjeKV%e$Y6ljGjJa/j)lJl.kVk|ldBVj7kdBYP6k&2fCBBs6<azl4?Vkwjwj(kNjy5(kXk^kp5zls6IFDFDFDFcCcCcCcCcCcCcCcCcCDFDFcCDFFFJFr4iiej3jzi-jOoRmjJYjJllBy52>$BUktjVk0k/kh^/k1mVk3mdBTlnjp5Gm^KjJ4k2jPjvl&kiidj-j0jji                ",
"                                                                                                    PoQoRoSoX$GmToUoJ:ej6khigiDmVovQGFcCDFDFcCcCcCcCcCcCcCcCcCcCcCDFDFcCEF3;&2Mj^mlBTjwjwjwjpj*ku(Nm&k(l'29181DDEFEFcCcCcCEF'G'GDD3;9124*j&k5je$(kyjwjwjwjqj7kb'(n:acCEF(@'29jU&Rl7jIm.kwjwjwjwjwj'loj^kRj7kVjVj/k<kwjwjwjwjwjTjlB^m2kVaGj|l[kUjyj-kwlY6ni*lh^-k-k-kTjTjTj-k+k,k.kVlzj*leKV%hFy55jgi'2 j@)Q:1mtj{lIl-k.kJlwm0j46GFEFP3dC(lx:%F'l;koib'3mSj9kWjNm-j(@FFcCDFDFcCcCcCcCcCcCcCcCcCDFDFcCDFJFFFP3rj_)hj6KxlWoXo*mtj*kSj(kojwlVktjZk$By5eKQ:V%HE_%smFI.=zi3khiyi-jmi-jyiMj3kPj4jzi4k                ",
"                                                                                                    YoZo[o]o^o_o1n1n~iziG;`ozPaovlr4FFEFcCDFDFDFcCcCcCcCcCcCcCcCcCDFfCDFDFDDq4ji3j{jVjwjwjwj8k&lwlWlxl2k(l9a&2s646813;3;3;8146(@s6'2Ja1jHj{i2m7k9kxjwjwjwjojOjr32kVaCD'G46BB&k~QIl{l]kXlwjwjwjwjwj;k'lWkXkqjqjqj<k;kwjwjwjwjwjRj'kPj:adC.m{jU&*kpj&lXk.kUj*k0kSlZk$B2>y5y52>UkQjWjRjVl*kXlh^*kzjP,Yks6-j|i%FtjeKWlSl,kXky5H9(l46JFcC3;s6eCLjb'oj'l(k2mIlXl'l$BJ:da46cCcCDFDFcCcCcCcCcCcCcCcCcCDFfCDFcC'GcCdC^mU&Sl^k2>bocodoy5$B~Qb'+&|i4?fjUl9jLjPj3k&kGjyi/jmimieo?mrj>CljYP6K7jijJly52>2>$B                ",
"                                                                                                    fogohoiojoU%}ikoY=_1iDm#lo]kIj(lJF'GcCDFfCDFcCcCcCcCcCcCcCcCcCDFDFDFDF'G(@9a.jsjy5Xkpjwjwjwj-k$BWlGmmjGj+j=aeC2424242424dCXa=a j2k3j4?;#zjWkwjwjwj&l.kJl8jPjdj9aCD'G3;DF/j:JY6njb'Tjwjwjwjwjwjwjwjwjwjwjwjwjwjwjwj;k+kh^ojV%jJ<a46r49jEAUkTjxj8kwjwjwjyjoi^kQj$B2>y5y52>UkQjSl1mXlyjwjwjwj0k5kXa46mi|i[ku(jjRLRj,kXk%F(ndCBBfCcC'G81q4giYP~QVlojV%VkTj+k[kLjs6BBcCcCDFDFcCcCcCcCcCcCcCcCcCDFDFDFEFBB'GdC6KhFZk*leK1k,j j_%6jNmF2.=Kj2j&kiiCmCm_omo&kHj.mLjejKjr3nohj+&n@niJlZk1m*kUj(koj                  ",
"                                                                                oopoqorosotouovowoxoyozo{o:3I-|o}oUkXjXj3mUkUk$B{l/j;g'GcCDFfCDFcCcCcCcCcCcCcCcCcCcCcCDFDFcCDF(@;azi7jlBSjvj8kwj;k'l*kRjhFSOxljJej2jLjLj4j4jej9jx:Ij{jeK1m-k<k;kwj;kWk7kjjIm_1x:dj24fCEF'GDF*jIj:Jf1[kUj;kwjwjwjwjwjwjxj<k'l'l'lqjWkWk.kZkjjWl_)%lr4fCP3(nijRjWk8kwjwjwjwj8kyj9k'lqjqjqjqjqj'l'l9kyjpj8kwjwj;k:k4kq4'G;aF2kj%nWlniVlXl)k2mMjBBDFJFDFDF'G(@Xa,j>C1TUkdBVl.kwlHE~iBBDFfCcCDFDFcCcCcCcCcCcCcCcCcCcCcCDFDFEFcCBB*jzl.=r3mjhi=aXa,jMjXodoFo~ojJq88jSO+& pjj%F3mQjUkXjy5lBy52>$BUkZkQj$Be$f1{l6j4?                  ",
"                                                          !p#p$p%p&p'p(p)p*p+p,p-p.p/p`n0p1p2p3p4p5p6p^K.=7pYjjjTlim1kFIP,UljJrjSm+<DFcC;g;gNJDFcCcCcCcCcCcCcCcCcCcCcCDFDFfCHFDD<a~irj_1dB)kvjwjwjwj8kpjXk(kRltj%F[khFnie$[kU&Uk:k7kh^9k8kwjwjwjwjXkJluH!nHEnj5j*jJFJFEF'GcC9arjp5{AUkSlXkwjwjwjwjwjwj'lRjIl*l*lXjQ:[ky5VkVk3mIm/jJFGF913jy5ujyj8kwjwjwjwjwjwjwjwjwjwjwjwjwjwjwjwjwjwjwjwjwjqjJl.=jiq491;ahiH9|i2>*kSjtj%ndjcCDFDFcCDFEFBB(@s6ii'kjjXj+kUjJlhj~iq4BBcCcCDFDFcCcCcCcCcCcCcCcCcCcCcCDFDFcCcCfCfC&2Mj5kH9G;6k.j2jWllB8p9pUkIlVk7k(kUjUj(kRjQjY6;#Yj&#jn)DG;rj4j2jPjHjGjdjmi,j0j                  ",
"                                                :p;p<p=p>p?p@pApBpCpDpEpFpGpHpIpJpKpLpMpNpOpPpoioj$B'kY=FoQp5j23r^xl3j6kGjiieoco<o.9mEafcCcCDFDFcCcCcCcCcCcCcCcCcCcCcCDFDFDFIFDFdCmiej_)2mQj)kyjwjwjwjwjwjwjwj;kWkTj*kUjSj.kqjvj8kwjwjwjwjwjwjwj&l7k;#Njnie$f1_),jDDJFcC'GEF&2iiljdBVk3m+kwjwjwjwjpjWk(k*lZk*l*lXjQ:[kXjh^Xl0k!n&k46cCP34jeKXkvj8kwjwjwjwjwjwjwjwjwjwjwjwjwjwjwjwjwjwjwjwjwjqj%FUlji'2DDEF:ajJ_%tj-k)keKhj,jcCcCcCDFDFcC'GBB3;Ykr3%nXj-k(ke$4?giY83;EFDFfCDFcCcCcCcCcCcCcCcCcCcCcCDFDFcCcCfCHF24rj_1{lt@@)r3jJQ:h^Vl7kzj:kQj3m2>y5Y6{Aim7j)lIj^K}im$unBmmi-jdjgi~i6kPjLjej                    ",
"                                                RpSpTpUpVpWpXpYpZp[p]p^p_p`papbpcpdpepfpgpL+1My>A-hpipQm+j+jiiMjMjhiGj.m9j3jxljpkp jBB'GEFcCDFDFcCcCcCcCcCcCcCcCcCcCcCDFDFcCFFIFIF;aFIHEij{A[kXlwjwjwjwjwjwjwj8kpjyj&l&l<kyj;k8kwjwjwjwjwjwjwjwjUj~Qu(Il0kQjWlIj2j1jDFfC'GBB91Xa}ieK)k2>XlwjwjwjwjujSl2>tjSj,k,k-k.k*k-k<kTjQj:Jx: jY8BB/j2m/k<kwjwjwjwjwjwjwjwjwjwjwjwjwjwjwjwjwjwjwjwjwjwjvjIl4k24913;EF1jwm!nRjXk(ke$Jj+jEF'G'GcCcCcCcCEFBBdCdjylJl)kRjhFsmjiEF'GEFDFfCDFcCcCcCcCcCcCcCcCcCcCcCDFfCDFcCcCHF;a_)V%WjojzjYjvl1k1TEAkj@)Ijr33jej2jvl&kGjgidjmimiRmuSXPlp^KGmp5bof1L+eKy52>                    ",
"                                                mpnpopppqprpsptp1m7kVkWjupvpwpy5eKe$xpypjpzps^zP6L{p1n|p<a,jLjjJJ:.=Y=8j|liDf1}p!nzlP3DDEFcCDFDFcCcCcCcCcCcCcCcCcCcCcCDFDFcCFFbC+E1j)l~Qu(Q:hFRj*k.k+k9kpj8kwjwjwjwjwjwjwjwjwjwjwjwj;k9kujXl.kXlRjjjSlSjTjRluHJjzifiEFfC'G81463;vllBh^e$h^wjwjwjwj-k$BniZkWkwjwjwjwjwjwjwj.kY6{jF22k'2cC=a4?nioi&lxjwjwjwjwjwjwjwjwjwjwjwjwjwjwjwjwjwjwjwjwjqjni~i4681BBEF;aH9]kzjWk1mV%NmYkcC'G'GcCcCcCDFcCDDP3dC2kkjTlf1|iUldaJFcCEFDFDFDFcCcCcCcCcCcCcCcCcCcCcCDFDFDFcCEFGFdaF2Wl%FIl3m%n0jG;FI>CmjLjzl%ldj-j/jgihi<j.mLj4jQp%o~psm_%HEV%%F q!qh^Ujh^oi                    ",
"                                                #q$q%q&q'q(q)q*q+q&#,qr0-q.q4kLjPj/q0q%l.j-j0j,j.j6kmo.jdj5k!nUkZkZkQjSlRl7koiTju(4kq4'GEFcCDFDFcCcCcCcCcCcCcCcCcCcCcCDFDFDFIFCDs6iiYP;#Rl*kojeKhFY6ZkVlujvjwjwjwjwjwjwjwjwjwjwjwjwj9k)k:keKu(U&Zk1mWkWkSjzjJl1khiY8'GDF'G4646DDHjU&Vj]kVjwjwjwjwj,k*ldB%FTjwjwjwjwjwjwjwjSj~QSOF2&kY8CD'2.jxlQ:Xlyjwjwjwjwjwjwjwjwjwjwjwjwjwjwjwjwjwjwjwjwjoj_1*j46BBDD'GdChiNmUk*kRj;#Gm*jfCEF'GcCDFDFfCDFEFBBP3Jagivlzlmi:a91'GEFcCDFcCcCcCcCcCcCcCcCcCcCcCcCcCcCcCDFDFcCCD46Yk3kY=F2jJ2kdC1j j*jHmyi6k9jUlNm)l_%1q2q%Fy52>$BZkWjzjVjVlh^*kXlSj3qrmx#4q                    ",
"                                                y5y5Jl5q6qMlNl7p7qt,xO]KGjJn-j-j.jTm<jvl8qLjejzi5ksjwm9quSH9Y6*k/koiVjRlSltjUky5njvl&2EFcCcCDFDFcCcCcCcCcCcCcCcCcCcCcCDFDFDFbCDFVaHj8jTl/kwj'l3mhFY63mwl)k*kXlTj+k+k,k,k,k,k+k-kTj-kUjwlQj%Fu(U&^k9k8k9kh^Vky5kj-jEF'GcCEF8181DDMj%**l%n7kwjwjwjwjqj0ky5%*Ujwjwjwjwjwj8k;kh^dBkjH9ii91JF(@q4ii|le$tj)kWkpj8kwjwjwjwjwjwjwjwjwjwjxj&luj/kwl*lb'2j243;'GEF'G91;aLjt@~Qb'|l3jVafCcCEFcCDFDFfCDFcCEFDDBB81Y8P3cCJF'GDDcCDFDFcCcCcCcCcCcCcCcCcCcCcCcCcCcCcCDFDFcCfCfCEF'2mi~igimi<adC=aGj9jY=Nmhj+&;#Y6:q;q<q=q.k/kVlwl:k*l3m$B2>U&rmjj+q>qoIyl                    ",
"                                                Lj2j.m<jTmQmJn?q,jdjuS4jLm%osjJj6jNje$JllBy5y52>3m@qV,(52jLj]kQ:ijYj7jp5{iwmx:2jgi*j'2JFfCcCDFDFcCcCcCcCcCcCcCcCcCcCcCDFDFDF+EcC;a.mGmRL)kwj;k+k*k.kSj1mVk3mU&y53mZkQj*l*lQj3m$BlB3mWj7koiSj.kXlWk;kxj9kUjSlni)l,j'G'GcCEFBB3;BB%l:JdBf1oiwjwjwjwj;k'lRlTl(kwjwjwjwjwjxj9k*kVkb'3j1jP3cCBBs6=aGjjJsmuHVkuj;kwjwjwjwjwjwjwjwjwjwj&l*ktjij6j^Kvl<a(@'GcCcCEFBBs6da~i4jHj,j9aP3'GEFcCDFcCcCDFfCDFcCEF'GDD813;'GcCEFcCDFDFcCcCcCcCcCcCcCcCcCcCcCcCcCcCcCcCDFDFcCcCfCFF(@ jLj^KfjKjmi4j:J$BQj:kRlojh^.kUj(kRjUkQ:ijHE|iGm^K5k4k4jPjvl6k%l/jAq<o                    ",
"                                                -j.jeoPm?mcmdoej9jG;fj_1SOt@n@e$y5qmSj.k*k/kVlBqCqtj0##(uSyi5j|lFIr3}iziPjzliiji*j*jJaDFfCcCDFDFcCcCcCcCcCcCcCcCcCcCcCDFDFDFGFDD=a2jsm~Q/k8kwjwjwjwj&l*kwlUkU&y53mZkQj*l*lQj3m$BlB3m^k/kWkpjwjwjwj8kpj9k+ktj]kY=(l'GEFcCcC'GBB3;/j'kTl;#Vl&lxjwjwjwjwj0kEA0kwjwjwjwjwjxj9kSjtjOj3k24(@'G'G(@Y8q4(l3kfj:J[kXjSlRlVjoj1moj7kRlWjQjlB~Q+&Ijejfi'2(@DDcCDFDFcCEF'GBB(@'2Y8EFJFEF'GcCDFDFcCcCDFDFfCDFcCcCEF'G'G'GEFcCDFDFDFcCcCcCcCcCcCcCcCcCcCcCcCcCcCcCcCDFDFcC'GDFIF91hiwm+&RLSOhi4kijwlzj:kQj3m2>y5Y6;#HEkj@)FIr3mj6kGj/j0jmi/jyiGj6kPj4j4k                    ",
"                                                njf11TDq2>ZkQj3m2>y52>2>2>$BUkQjUk%F%*RL]kkj6K#$sjH99jhi<afizijJLj3k2j3jH95jgj|i)l.=%l46DFcCDFDFcCcCcCcCcCcCcCcCcCcCcCDFfCDFEF46dC3kIm3m*kvj8kwjwjwj8kpj&l'lXkXk'l'l'l'l'l'lqjqjXk'l<kvj;k8kwjwjwj8kvjXk*knix:1jq4BBcCDFcCEF'GDDfiq8Oj%FSloi9kwjwjwjwjVk6j^k8kwjwjwjwjpjTjUk7jjJ*j81DDEFcCEFDD81Y8eC1jdjhi.mG;F2Gm4?gj_1Nmq8(nPjzl%lmi(lXaq446DDcCDFfCfCfCDFcCEF'G3;3;'GcCcCcCDFDFcCcCcCcCcCDFfCDFDFDFDFDFcCcCDFDFcCcCcCcCcCcCcCcCcCcCcCcCcCcCcCcCcCcCcCcCDF'GcCHFdC3jiD[k*lTl%l<aEq8nyl6L}i4k2jLj4jLjLj4j4jLj2jejx:q8_)p57jFqJ*2q2>ZkZk3m                    ",
"                                                *kTj*k1mVk3mQ:NjImhj8jq8J:Kjzi2j3kMjGjgidjmi0jIneoLj}i3kVayi_%JlU&y5XjQj:kRloj)kSlTlFI24cC'GEFcCDFDFcCcCcCcCcCcCcCcCcCDFfCDF'GBB3;dj^mXjTj8kwjwjwjwjwjwjwjwjwjwjwjwjwjwjwjwjwjwjwjwjwjwjwjwjwjwjwjwj8koiuHfj-jY846DDcCDFDFcC'G3;9ahi8jWj*lWjujwjwjwjwj7k+&zjpj8kwjwjwj+kTlGmzl=aq43;EFDFfCcCcCEF'GDD3;(@s6&2da<aYkHm+jHmYk(lVa24r4s6(@3;BBDDEFDFfCfCDFDFfCDFcCcCDFcCcCcCcCDFDFcCcCcCcCcCcCcCcCcCcCcCfCfCfCDFDFcCcCcCcCcCcCcCcCcCcCcCcCcCcCcCcCcCcCcCcCcCcCDFEFcCCDBB:aii(nY=9j;a'2!ofimiTm4k.=sj@)iDWl1Tu(y52>2>3mtjzjVjVlh^.kGqXlHqy5e$RL                    ",
"                                                y5lBQ:1MRM1kgjxlG;IqJq,&_o-jmi-jgi2k6k.mLj4j9jEqr3KqiDljYk%luHVlh^SjoiVjRlSlIlUkhFnj^Kr4cC'GEFcCDFDFcCcCcCcCcCcCcCcCcCDFfCDFEF'G'G*jylb'Vlxjwjwjwjwjwjwjwjwjwjwjwjwjwjwjwjwjwjwjwjwjwjwjwjwjwjwjwjpj.kY6NmMj=a913;EFDFDFDFcC'G46&2*jr3SlU&U&Xlwjwjwjwj)kTl$B1m*k*k1mzjhF5jzlda(@46BBEFDFfCcCcCDFDFcCEF'GBB46P3P3P3P3(@(@P3P3P3(@81BBDD'GEFcCDFDFfCfCDFDFDFDFcCcCfCDFDFDFDFDFDFcCcCcCcCcCcCcCcCcCcCcCDFDFDFDFDFcCcCcCcCcCcCcCcCcCcCcCcCcCcCcCcCcCcCcCcCcCcCDFcCcCDFfCJF(@*j.j%l.jLq}I;a{p8nhj+&TlY6UkRl(kXl-kUj(k0kVkm^ZkXj2>y5lBQ:imSO{iwm                    ",
"                                                2jPjJqMqZj.j-jAqDmeo&kXPlpr3ljJmMlxp%*Jly52>$B3m*l^k7kNjii-j{jJlQ:jjf17jp5_)F2G;4j~i*jDDDFEFcCDFcCcCcCcCcCcCcCcCcCcCcCDFDFcCcC'G46dC+jP,2>&lxjwjwjwjwjwjwjwjwjwjwjwjwjwjwjwjwjwjwjwjwjwjwjwjwjwjwjWku('kvl=a'246'GcCfCfCfCDF'G46r4Ja3jQjTlTl/kwjwjwjwj+k%Fb'RLu([kEA)l}i/j=ar481DDEFcCcCfCDFDFfCfCDFcCEFEF'G'G'GDDDD'G'G'G'GDD'GEFcCDFDFDFcCcCfCDFDFfCDFcCcCDFDFfCfCfCfCDFcCcCcCcCcCcCcCcCcCcCcCcCcCcCcCcCcCcCcCcCcCcCcCcCcCcCcCcCcCcCcCcCcCcCcCcCcCcCcCcCcCDFcC'GcCHF3;jiPjP,sj(n=aii]kWjRjoj/k.kXlUjVl^k2>%*NjImNqs^d-(nziLj2j3k~idjmi,j                    ",
"                                                miyiGj2k6kvl2jOqko-q~psm_%Wl2mdBWj1m/k.k.k/k1mVjRltjXj{l.jYksj1k|lYPyl}i4jzleo-jjifi9aEFDFcCDFDFcCcCcCcCcCcCcCcCcCcCcCDFDFcCDF'G46P3P3ii_%Xj*kpjwjwjwjwjwjwjwjwjwjwjwjwjwjwjwjwjwjwjwjwjwjwjwjwj<ktjSO(nYk9146BBEFDFfCfCfCDF'G4691s6ejy57jkjSl&lxjwj8k.k1T_)sj)l4?>CHj:aY8P381BBEFDFcCcCfCDFDFfCfCDFDFcCcCDFDFDFcCcCDFDFcCcCcCDFDFDFDFcCcCEFEFcCcCcCDFDFcCcCDFfCDFDFDFfCDFcCcCcCcCcCcCcCcCcCcCcCcCcCcCcCcCcCcCcCcCcCcCcCcCcCcCcCcCcCcCcCcCcCcCcCcCcCcCcCcCcCDFcCDDcCIF(@iir3t@RLp5/j~iWlIl*lQjXj2>%FhF2mnjSO{ixljJPj2kyimi0j0j/jgi&k.mLj4j                    ",
"                                                4oPqQqRL%*Jly52>vpupWjzjVjVl)k*kXlVlVk3mQ:TlWl{jp5wmmj%lobobGjPj6kGj,j+j0jgi6kRqMQ.=.mP3EF'GcCDFDFDFcCcCcCcCcCcCcCcCcCcCcCDFfCDF'G81s6=ahiwmJlXkwjwjwjwjwjwjwjwjwjwjwjwjwjwjwjwjwjwjwjwjwjwjwjwj)k{j2jHm2446'GcCcCcCfCfCfCDFEF8146BB3kQ:5jF2hFUj&l8kxjRj_)Gj,jdj/j+j;ar481DDEFcCcCcCDFDFfCcCcCDFDFcCcCDFDFfCfCfCDFDFcCcCEFEF'G'G'G'GDDBBBBDDDDDD'G'GEFEFcCDFfCDFcCcCcCDFfCDFDFcCcCcCcCcCcCcCcCcCcCcCcCcCcCcCcCcCcCcCcCcCcCcCcCcCcCcCcCcCcCcCcCcCcCcCcCcCcCcCDFDFcCDFFF244jhjIl)k{ALjji}iq8^K>Cmj4j.mHjMj%l.j-j,j,jQm?m9jJ:q8Gmsm_%TlJly52>                    ",
"                                                [kUkZm1mh^.k.k(k0kRjSlIlZkXj2>y5JlTl:JiDsm5jr3jJOqhi j;a&2Ja/j3krjKjzirj0oSq_)TqUq]k8jXa'GDDcCDFfCDFcCcCcCcCcCcCcCcCcCcCcCDFfCDFcCDD(@Y8q4/j'keKwl.k9k;kwjwjwjwjwjwjwjwjwjwjwjwjwjwjwjwjvj,k(k:kTlx:(lq4(@BBDFfCDFcCDFfCfCDFEFBBBBcC~iuH}iejEA*loj/koie$Lj&246(@(@(@(@46DDcCDFDFcCcCDFfCfCcCcCDFDFcCcCDFfCfCfCDFcCEF'GDDBB81(@P391s6Y8q4r4r4r4Y8P3(@4681DD'GEFcCEFcCcCDFfCDFDFcCcCcCcCcCcCcCcCcCcCcCcCcCcCcCcCcCcCcCcCcCcCcCcCcCcCcCcCcCcCcCcCcCcCcCcCcCcCcCDFDFcCDFJF&2zlGmhF3mWl.m:aYk0j.j.j0j0j/jgihi6kPj4jziKjP,Gm'kt@b'{Au(Qj)k-k-kUj                    ",
"                                                *k+kTj(kRlUku(uH{l'k8jq8J:Kjej2j.m&kGjgidjmimidjeo3k5kejVq|p}i|l~QXj2>$BUk*lSlRj0k1m2mfiBBDDcCDFfCDFcCcCcCcCcCcCcCcCcCcCcCcCDFfCDFcC'G81s6VaMjr36jY6oi9kwjwjwjwjwjwjwjwjwjwjwjwjwjwjwjwj,k*l!nFI4jji&2(@DDcCDFfCDFDFcCDFfCDFcC'G'GEF-j'k6khi|ln@;#1TuH6Kji3;EFBB3;BBDDEFcCcCDFfCDFDFfCfCDFDFDFcCcCcCcCDFDFfCDFcCEFDD81(@s6q424eCJada=a<a1jYkYk=aXa24&2'2Y8P381DDcCDFDFDFDFcCcCDFDFcCcCcCcCcCcCcCcCcCcCcCcCcCcCcCcCcCcCDFDFDFDFDFDFDFDFDFDFDFDFcCcCcCcCcCcCcCDFDFcCcCfC3;Xamirj5k.mYkdC24=aiiLj.=Nm6K{jf1e$eKy52>Xj*lSlRj0k(kSj.kXlSjVk2>ni                    ",
"                                                y5y5u(1TWlkj@)wmjJ4k3khi.jInAq-jRmPm?m.mLj4jrjjJ-q8j%n)l3kMjsjim7kXkXl/kVl0kRjSlIl3mt@(l'G'GEFcCDFDFcCcCcCcCcCcCcCcCcCcCcCcCDFDFDFDFDF'G46s6dCji4k|ln@JlQj^kVjSj-k,kujuj,k+k-k.k(kVkIlZkniImF2.jeCY846BBEFDFfCfCDFDFcCDFDFDFcCEFcCfC(lyl/j%lhjijV%2m:JFIVafCJFEF'GEFcCfCDFDFDFDFfCfCfCDFcC'GDDBBBBDD'GEFcCfCDFcCDD46q4da0j~i3k4j4kmj(n3jjJJ:x:}i4kHj/jYk;a9a'2913;DD'GEFcCcCcCDFDFcCcCcCcCcCcCcCcCcCcCcCcCcCcCcCcCcCcCDFfCfCfCfCfCfCfCfCDFDFDFcCcCcCcCcCcCcCDFDFcCcCDFDFfC81;a0jdjyi+jr4<ax:@)nj;#Jltjoj=qWqXq*koiVjRl:kQj3m$B2>eK{AOj6jYP                    ",
"                                              2j2jLj4jXPXP4j4j2jPj4kJ:F2+n4?|i+&Yq|m9pupIlZkUk3mZq$BXjuHylrjq86jV%dBYj1k6K{ifjY=}iLj.jP3DFDFcCcCDFDFcCcCcCcCcCcCcCcCcCcCcCcCcCcCDFfCDFcCEF'G46'2da jgihiLjUlGm{jb'Tl;#;#1T2mb'EA'kr39jvlGj,j;a2491BBcCDFcCcCDFDFcCcCcCcCcCDFDFcCfCIFs62k<azl!n7kUjVlU&'k9aCDCDDFcCDFfCfCfCfCDFDFfCfCDFcC3;Y8eC=a;aJa'2(@DDcCcCBB91=ahiUl'kYj~Qu(%FeKlBy5$BXj$By52>;#)l^K.=mjHjyi(l24s681DDEFcCDFfCfCcCcCcCcCcCcCcCcCcCcCcCcCcCDFDFfCDFDFDFfCDFDFfCfCDFDFcCcCcCDFfCDFDFcCcCcCcCcCDFDFEFDFIFEF0jyl)l_%Nm,jii%nlBXjZk*lWjQjU&e$uHnjhjGmq8.=(nej2jPj2jLjLjLj2j                    ",
"                                              sjJj@)kj[qL+0#y52>$BUktjVkRjoj)k*kXl]q^qSly5jjNjOjiD8jx:3k+j;a+jii2jej~i0jji+j<oRm@m4jzldCcCJFcCcCDFDFcCcCcCcCcCcCcCcCcCcCcCcCcCcCcCcCDFDFcCcCcC'GBB4691q4eC=afi-jGj2kMj&kMjhi%l.j j<a9a&2s646BBDD'GcCDFfCDFDFcCcCcCcCcCcCcCDFDFcCfCFFBB=a9aPjTl)kWkh^Jl@)eCDFEFcCDFfCDFcCcCcCDFDFDFcCEFBB'2YkzlylF2.m,jVas6DD3;q4:a9jf1^k(kXlujqj'l9k9k<k<k<k<k9k<k,k1mzjSl3mninj.=yi*j9a'2(@BBEFDFDFDFDFcCcCcCcCcCcCcCcCcCDFDFcCcCDFDFDFcCEF'G'GEFcCEFEFDFDFDFDFDFcCcCDFDFcCcCcCDFDFcCcCJF914j%*Vlh^Jlxl3k9j5kjJ9j4jLjvl&kGj.jmi,jHm0jhiLj3jr3sj_1%n1TdBeK                    ",
"                                            _qn@e$u(`qaqbqcq+kh^VlVjRlSl*lUk$B2>eK%*uHt@'k{ixlUl(n3kdjfiVaeCXafi6k4k4kejWmRq5kP,lmdqNmmi3;JFcCcCDFDFcCcCcCcCcCcCcCcCcCcCcCcCcCcCcCcCDFDFcCcCfCDFcC'GBB46P39191P391Y8q4q4Y8s691P3(@s6s6(@3;'GEFcCDFDFDFDFDFDFcCcCcCcCcCcCcCDFfCDFDFfCBBdC:arj~QUjWkoi%*_)24EF'GcCDFfCDFcCcCcCDFfCDFcCDD91+jjJgjf1!np5Y=2k<a91P3Va%l8jSlwjwjwjwjwjwjwjwjwjwjwjwjwjwjwjwjwjwjyjXltj+&Ijx:zl j9aY881'GDFfCDFcCcCcCcCcCcCcCcCcCDFDFcCcCcCEFDDBB3;814681814681BBDD'GEFcCcCcCDFDFcCcCcCDFDFcCcCcCs6Hj2mWj*l2mF2Gj<aVaji j jmi.jGj@m3k2jej9jG;sj@)7jWl2m[kWjSj-k+k                    ",
"                                          Sl7k)kUj.kXleqPpRl3m{AHEIm|l8jF2x:mjej2jHj2kiidjmi,jji0j0qLmfqMjdj,j2j|ln@Q:lB2>$B3mupgqhqni(nq4JFDFcCDFDFcCcCcCcCcCcCcCcCcCcCcCcCcCcCcCcCcCcCDFDFfCfCDFcCEF'G'GDDDDBB818181813;3;3;3;DDDDDD'GEFcCcCDFfCfCcCcCcCcCcCcCcCcCcCDFDFfCfCfCcCDD(@dCYk.=Jluj9k1mijsj24EFEFcCDFfCDFcCDFDFDFDFcCDD(@9a4kTlVkoioiRl~QIjzlXas6+j>CEA1mwjwjwjwjwjwjwjwjwjwjwjwjwjwjwjwjwjwjxjyjujoj:kjjsmKj.j:a'2(@EFDFDFDFDFcCcCcCcCcCDFDFfCfCDFcC'G3;P3Y8q4r4r4q4r4'2&2r4P381DDEFcCDFfCfCDFcCcCDFfCDFDFcCDD:ax:5j^Kmj.j:ar4Ja6kx:q8{iiqQqjqQ:y52>$BUktjzjVjVl)k*k-k.koiSl                    ",
"                                        Rj^k*l3m$B2>%FhFTl]k|iGmr35kejHj~i.j0j,j/jii2kHjPj4jzi4k3j3okq>knox:HjY={A1m+kuj-kUj)kVlVjzjjjjJr4CDDFcCDFDFcCcCcCcCcCcCcCcCcCcCcCcCcCcCcCcCcCcCDFDFDFfCfCDFDFDFDFDFcCEF'G'GEFEFEFEF'G'GcCDFDFfCfCDFDFfCfCDFcCcCcCcCcCcCcCcCcCDFDFfCDFcCDD91&2=a jjJuHwl,kojf1P,&2EFEFcCDFfCDFDFDFfCDFcCEF81'2migjojwjwjwjwj(kNjwm*jr40jwmuH(kwjwjwjwjwjwjwjpjXk+k,k,kWk&lpj8kwjwjwjwjwjwjwjUje$|iF2.m+jdC81EFcCDFDFcCcCcCcCcCDFfCDFcCEFDD81Y89afi-j~i&k2k%l-jji*j9a&2s646BBEFDFfCfCcCcCDFDFDFcCEFcC3; jGj.j-j-j*js6<a5jt@Nj%*wp3nSjujXk.k/kVl7kzjWjQj3m$BeK%*uHt@                    ",
"                                        SOzp^K}i4k4jPj3k&k%l.jmi,j,j-jGjLj3jUlxl@){lb'e$eKy52>$B3mHnwltje$kjG;sj$BujUjVk$BhFTlHE{j6Kfj&k(@GFDFcCDFDFcCcCcCcCcCcCcCcCcCcCcCcCcCcCcCcCcCcCcCcCcCDFfCfCfCfCDFcCcCDFDFDFcCcCcCcCDFDFDFcCcCDFDFfCfCDFDFcCDFDFcCcCcCcCcCcCDFcCcCDFcCDD91eC1j/j-jHjsjim1mVj+&3jq4EFEFcCDFfCDFDFDFDFcCEFBBs6Va4j~QujwjwjwjwjXkwlHE/j'2+jG;t@0kwjwjwjwjwjwjwjXkRjQj*ltjzjUjXkpjwjwjwjwjwjwjwj&lUjWj%*6jejYkr4BBEFcCDFDFDFcCcCDFfCDFcCEFDD46r4Va-jej^K'k%nkj4?>C4kHjdjfida24913;EFDFfCDFDFcCcCDFDFEFfCJF:a-jGj2j.=zieC.je$oj(kUj-kXkuj/kRl%FTlWl_%)l5jH9}i4kLjHjMj%l                    ",
"                                      x:9jvlGjmi,j0jDmeohi&kHjLj4kKjx:q8smkjnjNju(SlVlTjuj-k*k/kVlwl:keKuH6KmjUlNjlB;#nj^m_1ljr33jPjhi+jBBGFDFcCDFDFcCcCcCcCcCcCcCcCcCcCcCcCcCcCcCcCcCcCcCcCcCDFDFDFDFDFDFcCcCfCfCfCDFDFDFDFfCfCDFcCcCcCcCEFEFcCcCcCDFDFcCcCcCcCcCcCDFcCcCEFBB91=ahi}iwmF2Y=x:_1JlUkWl^K'2cCEFcCDFfCDFcCDFDFcC'G4624fiY=^kpjwjwjwjwjqj7kYjdj'2(l2jhjRlwjwjwjwjwj&lUj7kWjQj*ltjVk(k.k-k+k+kuj'lyj8kwjwjwj<k/kY6|l(n1jP3DDcCDFfCDFcCcCfCDFcCEF3;919a/j2jxlSOYjeKIl3mniOj6jgjljUl4jyi=aY83;cCDFDFDFcCcCDFDF'GDFCD&2.j>C)l+&p56k4j;#UkUk$By5y5Q:2mOjp5ljH9}i2j2kyimi,jmi.jGj&k                    ",
"                                    0jAqDmSmLjjJP,NmlqmqnqGn[kU&$BXjUkIlVk7koj(k.kuj+kh^wl3mdBTlHE|iNm.=vl.j+j/jejKjHjGjyi-j0j,jjifi(lJa'GJFcCEFDFDFcCcCcCcCcCcCcCcCcCcCcCcCcCcCcCcCcCcCcCcCcCcCcCcCcCcCcCDFDFfCfCfCfCfCfCfCfCDFcCDFcCEFDD3;3;DD'GEFDFfCDFDFcCcCcCcCDFcC'G3;s6Xa2k4?RL3m*l;#NmF2iDuHe$1kJacC'GcCDFfCfCDFcCcCDFDD91Va.jljoj8kwjwjwjwj)kRLljfiY89aii_)SlwjwjwjwjwjUje${A7k+k,k,k+k*kVl:kZkQjSlVl-kpjwjwjwj;k<kUjtjWl&k&246'GcCDFDFDFDFfCcC'G3;s6eCgiwmnj2>RjoiXl,k-kUjojRjVktjQ:t@fjhidaY8BBcCcCcCDFDFfCDFEFEFcC91Hj!nzjojy5|iF2G;x:jJ9j4jLjvl&kGjdj0j jji-jhi2j3jr3Gm|i:Jij                    ",
"                                  4j4ki>oqTogj{jYj;#ymHn0kSjTjTjSj(kojwlVkWjQj3m2>y5u(ijEA1k4?5jr3rjzl.j*jVaXa:amigi.j~i6kPj4j4krjmj9jhiY8fCEFEFDFDFcCcCcCcCcCcCcCcCcCcCcCcCcCcCcCcCcCcCcCcCcCcCcCcCcCcCcCDFDFDFDFDFDFDFfCfCDFDFcCcC'G3;(@s6Y8P346'GDFfCfCDFcCcCcCcCDFcCDD(@dCfijJn@oj&lwjVlYj_1FIYPt@YPdCcCEFcCDFDFDFfCcCcCcCBBY8Yk4j'kSjwjwjwjwjwjRj'k4jVa46dCdj5j3m&lxjwjwjwjVj{j{jVjwjwjwj;kWk/k^kZkQj:k0k/kTjvjwjwjwjwjxj&ltjxlfir481EFcCDFfCfCDFEF3;s6;a2kq8f1tj9kwjwjwjwjwjwjwjwjwj8k+k*l!nNmPj<aP3'GcCcCDFfCfCDFcCEF'G3;2kuHwlzjJl7j>Cfi+jmijiji0j/jgihi.m4j4kmjJ:sjsm_%Wl{A3mRjSj                    ",
"                                  tj*lQjZkUk:qUkZkQjpqqq q9pu(uHImSOgjIjylJ:(nzi2j2jLjLjLj2j2jPjPjejoqP,F2rq;aYkr36j!jsqy5WjVk:ktj*lU&{jfifCEFEFcCDFfCDFcCcCcCcCcCcCcCcCcCcCcCcCcCcCcCcCcCcCcCcCcCcCcCcCcCcCcCcCcCcCcCcCDFDFcCcCEF3;s6Jafiii~i-j1jY8'GcCDFfCDFDFfCDFcCcCDD91daiiIjZk&l8kwjyjTjeK_).mgi1j46cCcCDFDFcCcCfCDFcCEF81'2%lYP%*ujwjwjwj8kpjZksj-jY8EFVamj'k[koj'lwjwjwjRj6jhjtj<k;kwj8k;kvj<k'l'lXk,k)k:kSj9k;kwjwjwj8k-kV%9j(lr43;EFDFfCfCcC81'2<aej{jy5)k9kxjwj8kpj&l9k'l'l9kyj8k;k'lSjWjOj6kr43;cCDFfCfCfCfCDFcCDDEFda}isj^KG;2j/jda4jxlJjhj{jWlijQ:QjtjIlQjQj*l*l*l*l*ltjtjIl                    ",
"                                  3mdBijYjImtq*mJ:mjej4jPj6k2kyimi0j,j,j-jGjLj5kxlYPiqQqjqQ:y52>2>3mtj^kRlim-jdjNj(kTjqjXk-k(k:klBe$imljJaFFcCEFcCDFfCDFcCcCcCcCcCcCcCcCcCcCcCcCcCcCcCcCcCcCcCcCcCcCcCcCcCcCcCcCcCcCcCcCDFDFcCEF3;&2HmPjGmije$7jyl+j91DDcCDFcCcCDFDFcCEFDD46JayiNm:kwjwjwjwjwj(kb'fjgidC81EFcCDFDFcCcCDFcCEFDDP3eC.mOj:k9kwjwjwj&lUj{A(n:a(@EFdj+&lBhF$B-kwjwjwjUjhFn@u(VkWkwjwjwjwjwjwjwj8k;k<kSjZkWjujwjwjwjwj;k7kFIiida91DDcCDFcCDDY81jvlgjZk'l;kwjwjwj&lUj7kWjQjZktjVl<kwjwjyjTjjjej&281EFDFfCDFcCcCDFDFcCFF'GeC<a1j0jzlGjmiiDU&zj(kh^.k,k,kSj:kU&~Qb'nj|iYPxljJzi2juq                    ",
"                                ]k1kgj5jP,jJPj%l/j,j jmidjgihi3k4jzirj}i.=wm@){jNjni2>Rj<qvqqj+k*k(k0kRlWjOjmi-jEAtjXj2>JljjNj{lhjJjyl&ks6JFcCEFcCDFfCDFcCcCcCcCcCcCcCcCcCcCcCcCcCcCcCcCcCcCcCcCcCcCcCcCcCcCcCcCcCcCcCcCDFDFcCDDY8*j.mYP;#h^-k3mnj4jJa(@DDcCcCcCDFDFcCEF'GDD'2jiylU&Xkxjwjwjwj+kQjt@zi<as6'GcCDFDFcCcCDFcCEFBBs6Va9jRL1myjwjwjwjqj7kb'9j:a91813k[kVj1T~QSjwjwjwjujSlu(;#Jl.kwjwjwjwjwjwjwjwjwjwjXklBJlVl'l;kwjwjwj.kIm5kjiq481EFcCcC81dCii5jRL)kwjwjwj;kWkh^Vk*lQjQjZktjVj(k)kVlzjlB7j&k'23;cCDFfCDFcCcCDFDFDFFFCD'G9azlUl_)5jjJkj~Q2>Qj3m$B2>Jlij{l|l_)F2.=rj6kgimi,jAqDm                    ",
"                                Gjyi/jmi0j0jyiHjIqJ:q8_)p5{jf1dBy52>$BXjZktjzjVj(kUjTjXkujSjwl3mdBNjImp5ljzi:a<ajJfj}i4jPj3kMjii/j0jYkdC81'GEFEFcCDFfCDFcCcCcCcCcCcCcCcCcCcCcCcCcCcCcCcCcCcCcCcCcCcCcCcCcCcCcCcCcCcCDFDFDFcCEF3;Ja2k5jhF/k<kvj+kZk{i0j'246'GcCDFfCfCDFEFcCDF46da9jimRl<kwjwjwjvj+kY6^K0j&2DDDFDFDFDFDFfCDFEFBBY8;a5kjjUjvjwjwjwjuj:kWl3jfir4&2mjy5VjOj]k1mwjwjwjqjVjeKf1;#h^wjwjwjwjwjwjwjwjwjwjqj$BQ:Ukoj'lwjwjwjXkU&SO2k'246'GcCEFP3=amjRLoj'lwjwjwj<kVk2>U&Qj)k+k+k+k/ku(RLYj1kfj2j<aP3'GcCcCDFDFcCcCDFDFcCDFDFEFyi+&ZkSlXjt@x:9jY=r33j4kej2jzliidjmi,j j j0jiirjF2Gmtq                    ",
"                            1n*n2nvl2j4j4ki>H9jnwq+&Nj~Q%FIlojujWk-kUj)k1m7kzj:kZk$By5y5u(ijEA1k4?q85kLj%lfidCXa0jyi,j j0j/jgihi6k.m.mii24BB'GEFcCDFfCDFcCcCcCcCcCcCcCcCcCcCcCcCcCcCcCcCcCcCcCcCcCcCcCcCcCcCcCcCcCcCDFDFDFcCDDP3Hmxl!noiwjwjwjwjXl!nvlVaY8BBEFDFDFDFDFcCDFCD'GeCzl6K[kWkwjwjwjwjwjwl|irj;a3;cCDFDFDFDFDFfCcCBB'2Yk>CJlWk;kwjwjwjTjlB_%4k*jdCYkP,*l1m]k]k1mwjwjwj&lUj2>kj+&ojwjwjwjwjwjwjwjwjwj8kXl1T!nU&0kqjwjwjwj&lVjf1Pj24(@'GcC'Gq4HmP,Xjvjxjwjwj8kTj;#Yje$Wjujwjwj8k,k%Ff1_%sj~i9a91DDcCcCcCDFDFcCcCDFDFcCEFEFcC%lb'0kVl^k]kgiJa,jdj jji0j/jii&kvl2jej4k(nJ:wm6j!n{AQ:                    ",
"                          kpxqyq*q[keK2>$BXjQjzqRjoj(kh^.k,kujUjVk2>nin@EA_%)lNmUl4kLjLj.mzl~iyi-j0jji j/jjiJa24da,jrjq8Gmgj1kim~QJllBb'.jDDBBDDEFcCDFDFcCcCcCcCcCcCcCcCcCcCcCcCcCcCcCcCcCcCcCcCcCcCcCcCcCcCcCcCDFDFcCcCDFcC3;r4&kijoi9kwjwjwjwjyj*l>CHmdC46EFDFcCcCDFcCDFGF'GVa~iH9njXlwjwjwjwjwj.ku(hjdjs6BBEFDFcCcCcCDF'G46dCjiF2Ukpj8kwjwjwjh^;#Gmgi24JazlsmVkSjjjjjSjwjwjwjxj&lZk_)Jj^kwjwjwjwjwjwjwjwjwjpjRj_)_)2>WkpjwjwjwjyjVluHLjdCP3DDcC'G24yiFItj8kwjwjwj;koj)l8jV%7kqjwjwjwjvjXlSlV%YPmi3;cCfCDFDFDFcCcCcCcCDFfCDF'G'GcC1jxlImEA%nP,=a;1jiPmejx:fj4oMoij[keK2>$BXjZktjwl(kSj.k                    ",
"                          {Avp3nUjujWkujXlh^VlwlVktjQj3m$B2>%F1T+&6jYPfjY=}iLj&kdjjiji-jyi%l2kHjPjzirj5kP,}i,j*j&k.=^mNj{AQ:Uk1m-k9kyj:kHjBBBBDDEFcCDFDFcCcCcCcCcCcCcCcCcCcCcCcCcCcCcCcCcCcCcCcCcCcCcCcCcCcCcCcCDFDFcCcCcCDD91=aUl^kwjwjwjwjwjwjwj/kJj2k;a91DDDFcCcCDFcCDFGFDD=a3kFIWlRl&lwjwjwjwj9koi1T.mdC46'GDFcCcCcCDF'GP39a/jljWjwjwjwjwjwj1mEAUl*j46Xa6k@)zj-k3my5oiqjxjwjwjwjSl_)5jU&,k;kwjwjwjwjwjyjTj7k;#fjgj:k;k8kwjwjwj9kIl{l6k&246'GcCDDdaejSORjwjwjwjwj<k3mUlUl%*Uj&lwjwjwjwj8kh^{AFI<aFFCDJFDFDFDFcCcCcCcCDFDFDF'GEFfC'22k}i.=jJunj2>a@m-q@)+&RL[kHn*kXkqjXk-kUj)k1mRlWjQjXj                    ",
"                          h^+kWkXkTjojtjJl{AHE|i4?sj>C}i4k4jPjzl%l.j-j0j,j0j/j%l2jJ:wmYPSOImim%*%Fy5$B3mQjb'rjejt@U&Rl(kSj.k+k'l9kuj.k%Fzl46BB'GEFcCDFDFcCcCcCcCcCcCcCcCcCcCcCcCcCcCcCcCcCcCcCcCcCcCcCcCcCcCcCcCDFfCDFcC'G(@24yi'koiwjwjwjwjwjwjwj.k%njJ,jr43;cCDFDFfCcCDFJF461jx:;#UkniUjwjwjwjwj;k'lXjjJ<aq4BBcCDFDFDFfCDDY8;a~i8jSlwjwjwjwjwj7kkj4kVaBB&2+jyl*lqj7k*lIl7k&lwjwjwj7kiD4?RLtj'lwjwjwjwjwjTj2>]kFIImu(*k8kwjwjwjwj-kuHfj/jq43;EFcC3;fiFI2m)kwjwjwjwj+kijLjG;U&&lxjwjwjwjwjxj7k{lKj&2IFfCEFDFfCDFcCcCcCcCcCcCDFEFDFGF'Gdafi1j(l;a(@1jxlYjXjoj)kUj,k&lqjh^zj2>e$n@:Jhj5jH9}i                    ",
"                          3m2>U&Y6jjf1{j6KGmr39j3k~i.j0j,j0j/jii&k3kPj4j4k(nJ:q8@)njRLniy5tj0k-kqj+kSj(k1m{A5krjEA3m^k:k*lUk$B2>%Fni*q{q|q,A}qDFcCcCDFDFcCcCcCcCcCcCcCcCcCcCcCcCcCcCcCcCcCcCcCcCcCcCcCcCcCcCcCcCDFfCfCcC3;r4;aejij+kwjwjwjwjwjwjwjuje$gjMjXaP3'GcCDFfCcCcCDFY8 jsjtj(kijojpj8kwjwjwjwjVlp5giXaP3'GcCDFDFDFBBq4Ykvl)lzjwjwjwjwjwjzj@)&kdCDDq4Va5kXj<k*kRl%F$Bqjwjwjwj/kTl1kSOt@Jl*lSl7k7kSlU&Nj6jYPu(/k<kwjwjwjwjwjSj'kLj1j91DDEF'G(@-jkj$B-kwjwjwjwj/kIm.mr3Qjwjwjwjwjwj8kyjIl4?Gj(@bCDF'GcCDFDFcCcCcCcCcCcCDFcCDFGFCD819ayi.m9j.mmjFIt@U&^kIlUk2>y5Q:2mOj6jYPsj>C4j~i/j j                    ",
"                          zi2jPj2j2jdodo2j2jPj.mzix:q8_)6KiDOj1Ty5*lWj:kIl*lQjQjQj*l*lIltjWjtjQjU&2m{l6jgjY=.jjivlx:q8.=Kj4j.mvlvl.mvl~i~q rcCRefCcCDFDFcCcCcCcCcCcCcCcCcCcCcCcCcCcCcCcCcCcCcCcCcCcCcCcCcCcCcCfCDFDFcCBBs6<aMj8j7k;kwjwjwjwjwjwjwjpj.kni.=fidC46EFfCDFEFEF'GXa6k6KzjTjlBtj/k<kwjwjwjwjyjIlP,0jXa(@'GDFDFcC3;r4miUlnjojwjwjwj8kpjZkwm0j&23;P3dC9jdBWk<koi;#{A,kwjwjwjqj0kV%ljmj>CxlYPImt@p5hjEAe$7kWkvjxjwjwjwjwj&lUk.=fi&281EFcCDDs6hi2moi9kwjwjwjwjRj{iJ:hjRlwjwjwjwjwjpjXlhFJ::acCbCfCEFDFcCcCDFDFcCcCcCcCfCDFDFDFfCFF,j{jXjtjUkWl4jdj3jH9}iejPj2j2jPjT&PjPj.m.mLj}iY=lj                    ",
"                          !r3J_)@)Pq#r$ru(y52>$BUktjzjVjVl/k*k,k'l,k%r3qlB%*RL]k'k5jH93j9jej2jvlzliimi jHm;a24&2da*jji&rJnzl4kJ:xlJj6j'r7qyiY8CDDFcCDFDFcCcCcCcCcCcCcCcCcCcCcCcCcCcCcCcCcCcCcCcCcCcCcCcCcCcCcCDFcCEFDDP3Xa2k4?%*ujwjwjwjwjwjwjwjwjwjxj:kJj2k<aY8BBcCDFEF'GDD*jP,f1oivj1m!nn@)kwjwjwjwjwj*k{j5k0j&246EFDFEF46&2hi6KQ:*kwjwjwj&l*ke$J:*jr43;81'23k:JzjWkoiimimTjwjwjwjxj&loie$Yj!nuHe$Wj7kSlVkoi-kpjwjwjwjwjwjwjwj7kNmYks681DDcCcC3;r4&k~QUj&lwjwjwjwj^kNmp5V%h^wjwjwjwjwj<kzjOj~iBBCDGFDFEFDFDFDFfCfCDFDFcCcCfCDFcC'GEFfC1jIjn@Xj~Qsm-jQ?obkmgi.m.=Ij)l_%HE1T[keK2>XjIl^kwl                    ",
"                          _qb'{AQ:vp(r<qXk9k-kh^(k1m7kVkWjQj3my5eKsq#n)r'kJjfj>Cejhi.j0j j0j-j.j%lzlPj4jejvl%lmi+jdj9j+m*m*r^mnjuHe$$BZkSOzieCJFcCEFcCDFcCcCcCcCcCcCcCcCcCcCcCcCcCcCcCcCcCcCcCcCcCcCcCcCcCcCcCDFcC'G81&2Yk3jb'Rj&lwjwjwjwjwjwjwjwjwjwjojnjUl/j24(@'GcCEF'GDDHmljij/kwj+k2mNjzjWkpjwjwjwjWk[k6K3k:aY8DDcCDDP3eCvlt@Il,kwjwjwj'lVl2mKj:as6BB3;q4ii@)dB*k)kRLuHXl8kwjwjwjwj9koiRj7k7k/k<kwjwjwjwjwjwjwjwjwjpjqjTj/kjjzl(@cCEFEFcCEFBBq4Mj{AUj&lwjwjwjwj^kNm'k;#zj*k*k+kvjwj'lUk1k.jDDfCJFEFDDDD'GEFDFfCfCDFcCcCDFDFcC'GEFfC243kfj^mJjKj:aY8*j6kP,smOj;#Y6upVj.kWkXkWk*k(kojwl                    ",
"                          Bq(kSj.kGq+r,rXlVlXj{Ab'Oj1kgjljY=3jziLjvl@mSm.j-j,jji,jgi<j9jUlsjYP|l{j2mJly52>%*ImNm(n^KjjUkIl^kRjoj(kUj-k)kHEY=daJFcC'GEFcCDFcCcCcCcCcCcCcCcCcCcCcCcCcCcCcCcCcCcCcCcCcCcCcCcCDFDFDFcCDDP3:ahiGm$BXkxjwjwjwjwjwjwjwjwjwjwj-k3m{j2jdaY8BBEFEF'GEF*jq8RL)kwj&lVj*l3mVkWkwjwjwjvjUje$Ul+jdC46EFDDs6Va4k!n7kqjwjwjwj'l1muH4jdCP3DDDD91jiY=EA1m.ku(dB.kxjwjwjwjwj;k9kXkqjqj<k;kwjwjwjwjwjwjwjwjwjqj7kU&2mgjYkFFbCfC'GEFEF'GP3~i{AUj&lwjwjwjwjVkNmFI1k2m[k[kZk+kwjXkU&6jMj'2DDcC3;P391P346'GDFDFDFDFDFcCDFDFEFDFGF'G:a j/jGjji81XaJ:ImY6zj1mh^.k,kqj&lXk/kVku(uHOj1k                    ",
"                          RltjZkXj2>y5Jl~Q!n|iGmF2.=mjvl~idj,j j/jyi%l2kHjPj4j4klpF2{i6jOj2mnieKIlSjXkqj,kRlTlp5Ul8jzj*kPp6oqmRj^k-r`q68hjmjeCFFcC'GEFcCDFcCcCcCcCcCcCcCcCcCcCcCcCcCcCcCcCcCcCcCcCcCcCcCcCDFDFDFEF81r4mir3WlVlwjwjwjpjqj-k*k-kyjwjwjwj&l*ke$.=fidC46EFEF'GDD:a9j_%7kwjxj&l(ku(%FXlwjwjwjwjwjRlp5Pj*jY8DD3;q4;a5kjj*k&lwjwjwj,ktj{l6k'246'G'GP3;a3k)lzjujWjUk)kyjwjwjwjwjwjwjwjwjwjwjwjwjwjwjwjwjwjwjwjwj.kY6]k)lx:VaFFHFcC'GEFcCDF3;.jNjoj'lwjwjwjwj7ksm.=H9Nmgjsm{j%*QjIlb'Gmii24(@46r4eCVaXar481'GEFcCDFDFDFDFDFcCDFGFCDDDY8Ykejmj&kPjq8%nXj1mzjIlZkXj2>y5dBRL+&smwm.=rj                    ",
"                          p5fjUl(nzi4jPj6k2kyimi,j j&rIn.rHjIqr3YP'kImim%*%FlB$B3mIl^kwl1m/kUjXl,kXk*k0kIlV%6K>CLjP,hFdBTlN;%n/rJjA&aDLjii<aDDHFfCEFcCDFcCcCcCcCcCcCcCcCcCcCcCcCcCcCcCcCcCcCcCcCcCcCcCDFDFcCcCcCBBs6Ja2jOjWjujwjwjwjqj7kXjQ:Xj-kwjwjwjxj&lUkljyi:as6EFcCDD(@24*jr3Qjwjwjxj)k;#;#h^wjwjwjwjwjSj~QJjhieC4681'2*jY=2>&lxjwjwjwjh^{A{i%l&246EF'G919a jF2Il<k/kRlzjXkwjwjwjwjwjwjwjwjwjwjwjwjwjwjwjwjwjwjwjwjVlYj{iF2zi;a(@BBBBDDEFDFCDcC+jkjUk+kwjwjwjwjh^t@2j0jmi/jiiMj2jY=hjNm4k=a46Y8eC<a jyiji:ar481DDEFcCDFDFfCDFcCcCcCDFCDdCyl{A$BeK+&4j3kp5Oj6Kwm.=Kjej4j.m&kGj/j,jjiHm                    ",
"                          2jGjdj,j j0r1ryi~iHj)n2r4k(n+m3rJjTqN;e$lBtjoj+k'lXk,kSjoi0kRj^kIlZkXj2>%F;#HE_%_)rjhigi4kNlgjs^`o>Iejzlgi0r*j1jXacCHFDFEFDFDFcCcCcCcCcCcCcCcCcCcCcCcCcCcCcCcCcCcCcCcCcCcCcCDFDFcCcC'G(@dC+jH9Y6ujvjwjwjwjUjhFnj1kb'(kwjwjwjwjwj7kkj(n jr4DDDF'G46s6q4.m1TUjvjwj.kY6niVkXlyjwjwjwjXkRlf1(n1jY8P3eC,jwmtjwjwjwjwjwjojOjUl0jr43;cCEFP324dajJ$B&lujoj$BTjwjwjwjwjwjwjwjwjwjwjwjwjwjwjwjwjwjwjwjwj/kij|i@)wm6k1jeCr49146EFGFJF<afjRL)kwjwjwjwjuj~Q4k<adCr424dC24YkziPj/jdCq4;aii}ixlIjF29j+j'246'GEFcCDFfCfCDFcC'GcCHF9ahj(k8kxjeKHjVaejJ:uqgiAq+j+j,j-jyi~iHjLjzirj                    ",
"                           j~i2j5kP,4r23|i]k{A)m2>$BXjZkIl^kRjVlUjTj,kWkXkXlVjQje$f1{l6jYPA&aDmjejLjHjhiyiHmeCdC*j.j2ndjji5r+j|p6rJnPm4jejgis6CDEF'GcCDFDFcCcCcCcCcCcCcCcCcCcCcCcCcCcCcCcCcCcCcCcCcCcCDFfCDFcCDDY8(l6k4?Wjpj8kwjwjwjwl1kH9J:p5Rlwjwjwjwjwj.ku(|l&keC46cCcCDD(@r4ii4?niujwj&l.k^khF%FXlwjwjwjpjWklBfj.jeCq4dayiIj:kwjwjwjwjwjRj6jejYkY83;EFEF81Y8Ja(nY6qj<k1m~Q/kwjwjwjwjwjwjwjwjwjwjwjwjwjwjwjwjwjwjwjwj<k/kVkXj{AsmPj0j<aJa&2(@FFJFdazl_1^kwjwjwjwjvjVksjGjYk9aeCdCXa:aYk(l=a:aHmzlsj1Ttj:kIl!nmj;aq43;'GEFcCDFDFcCEF'GcCJF:a6KoixjvjU&mjda1jYkYkJnzl9jUlsj4?|i]k{AeK2>$B                    ",
"                          5k8n7r{jYj8r9r3mhqTj'l'l,k.k/koiojwlWjZkXj$BU&u({AYj_%Jj^KG;zi6k%l/j jjimigi~i&kMj%lmi*jHmPm6k3kLj4kmjG;ToxmSO6jP,:aJF'GDDcCDFfCcCcCcCcCcCcCcCcCcCcCcCcCcCcCcCcCcCcCcCcCcCcCDFDFDFcC3;24.jF2imoiwjwjwjxjqj3mJjrj9j{i2>uj;kwjwjwj'l1mn@Kj;as6EFDFcC3;Y8Hmrj1kUjwjwjwj/kijij/kwjwjwjwjwj0k%nG;Yk24(lzl4?VkwjwjwjwjwjVk4?Mj=aP3BBEFcCBBP3dCej1TSj<koin@oiwjwjwjwjwjwjwj;kWkuj9kpj8kwjwjwjwjwjwjwjwjwjvjuj1me$|lF2Kj&k jJa813;daMjIjY6XlyjwjwjwjTjWlFI3jzlmifiHmHm*jYk/jPj>CYPb'(kwjwjwjVksmzlda46DDEFcCDFDFcCcCEFcCfCeCY=ijy5eKt@vlda:aji4jyl{i^m]kn@[k3mRjTj9k9kujXl                  ",
"                          IltjtjWjWjtjWj:kSlSl$BdBTlEA_%|lYPljJ:9jLjPjPj2j2jPjPj2jPjPj.mzi:r*m8j;r<ruHsqZqIl3mt@QmAqImU&IlVkRl^kSl:k:k:kQj+&-jfC'GDDcCDFfCcCcCcCcCcCcCcCcCcCcCcCcCcCcCcCcCcCcCcCcCDFDFcCcCDF'GY8YkjJ1Toi9kwjwjwj'lQj2m^m_1smiDb'2>qjwjwjwjxjyj*lJjMjJaBBcCDF'G46&2;a5kZkyjwjwjXl%FdB7k,k;kwjwjwjXkRjNjPj:a0jx:{l0kwjwjwj8k;k*l5jdjXa46'GcCDF'G46r4~iSOU&Xl/kjjoipj8kwjwjwjwjyj/k:kSl(k-kXk'l'l'l9kpj8kwjwjwj8k;kyjujSjVkdBnj5jrj2k+jfiFIt@Wle$1m9k;kwjpjTjRl[kOjJjF2ylylq8Nm6jTlXj0k-kyjwjwjwj(kuHwm0j913;EFDFfCfCDFcCEFcCfC'GeCdj6kLj3kmi,jhiylhFtjWj:k:k:k:kSl^k^k3mu(ijWl                  ",
"                          e$f1{l6jYPwm.=KjziLj6khigi/jAq&r6r j.j2j}iUlxlJj6jOj2mJl2>$BXjZkWjZm=roiSjGq+ryj'l/kb'1nSmUk<k&lXk*kRj3mdBij+&_13j(l3;'GcCcCcCDFcCcCcCcCcCcCcCcCcCcCcCcCcCcCcCcCcCcCcCcCDFfCDFcCEF3;Vavl@):kpj8kwjwjwjTjWl^mNjhFeKniOjRL+kwjwjwjwjwjSj~QJj j(@'GDFDFEF81r40jgjojwjwjvj+kVk1Tjjujwjwjwjxjyj^kIj-jzl6K[k*kwjwjwj;k+kY6yl0jdC81EFDFDFcCBBs6+jjJ{l0kTj2>wl-kyjwjwjwjwjVlf1:kXlSj1mSlQjUkUk:kXl&lxjwjwjwjwjwjwjwjpjXkUjwlJl+&F2&k^mTl!nuHhFWjujwjwjwjpjWkUj0kRlzjzjRl7k(k+k<k;kwjwjwjwjwjVk4?&k:a(@DDEFcCDFDFcCcCDFcC'GDFDFHmLjq8sm|iGmGj3kHE1Tf1%nhjGmylG;rj4j3kMjii/j,j                ",
"                          Jj^KG;zi6kgi0j+j+jmiyiGj2k?mdozirj}i^K@)_%OjuHe$2>zjSj<k9kujXlSj(kojwlVk*l3m$B2>Q:RL8jfi.j1TUklB[kTl:J1kJm~px:2kHm2481EFDFcCcCDFcCcCcCcCcCcCcCcCcCcCcCcCcCcCcCcCcCcCcCcCDFDFDFcC'G(@Hmfjb'(kwjwjwjwjpjVlOj^mb'%*hF2m1kWlTjwjwjwjwjwjWkVkHE~iq43;cCfCDFDD91VarjlBqjpjwjwj)kn@uHUjxjwjwjwjwjSjOjPj9j+&*l,kwjwjwjvjUje$Ulfi&23;cCfCDFDFDD91=aMj_1^kWkSlSloi9kwjwjwjwj7k{lQj-kTj)kVkQjUkUkWj)kTj-k-k+kXkpjwjwjwjwjwjwjwj+kZkWlq86KEA~QdB%*JlRjXlpjwjwjwjwjwjwjwjwjwjwjwjwjwjwjwjwj;k,kRlb'mj;ar43;'GcCcCDFDFcCcCDFcCDDcC'Gyi^KnjdB3mb'ziiiq8sjP,5kLj2kdj j+j j-jyi~izl.m                ",
"                          -j,jji+j,jyizl9jUlGm|iyp6q>r?r2>$BXj*lzjVj1m(kUj-kXk9kXkVltjeKjjuHOj|i4?yl}i4k4jHjgi*jr4=a3jG;9j.m&kGjyi@r<oHmda2491BBEFDFDFDFfCcCcCcCcCcCcCcCcCcCcCcCcCcCcCcCcCcCcCDFDFcCcCDFEFBBY8%lYjRlXkwjwjwjwjXk*l;#EA|igjNm5jNmnj.kwjwjwjwjwjpjWk%FejXaP3'GDFfCEF81r4%l!n7kqjwjwj-k$B%FVlyjwjwjwjwj&lZkP,UlRLwlXkwjwjwjvjh^;#mjVaY8BBEFDFcCDF'GP3eCHm^K*l&loiIlzjWkwjwjwjwjSj{Au(^k-k<kWk,k+k-kTj(kRjQjXjZkwlXkwjwjwjwjwjwjwjvj+k7kRLF28jy51m3m[kV%eKXkwjwjwjwjwjwjwjwjwjwjwjwjwjwjwjwj9kIl|lKjji'2(@DDcCDFDFcCcCcCcCDFDFcCcCP3hi8jU&*k-kZk)lzi j1j*jfiji0jgi6krjq8YPSOOjTlu(                ",
"                          .mej9jKjx:F2{i^m]k{A3mzj(kTj'l<kWkTj/k1m7kzj:kQj3m$BlBhFf1Im|l8jxl.=rj3kyi jji j<oAq_meCeCHm0j0j,jmiyi~izlcm4j4j~iVa(@DDcCDFDFfCcCcCcCcCcCcCcCcCcCcCcCcCcCcCcCcCcCcCDFDFcCcCDF'G46eCzieKXkpjwjwjwjwjWkZke$b'iDsm8j_1iD{A+kwjwjwjwjwjwjwjzjyl*jq4BBcCDFcCDD46*j_){Ah^wjwj9koiWj*lujwjwjwjwjwj.kt@iDy5Uj&lwjwjwj&lVjf1Pj24(@DDcCDFcCDF'G(@'29a3jlB<kUjJllBTjwjwjwjwj,klB2mu(.kwjwjwjwjwjpj*k7k*lXjZkVkSj+k,kvjwjwjwjwjwjwjyj*lJ:r3Qj'l1mUke$Q:1m.k+k'lvjxjwjwjwjwjwjwjwj;k'lTjoiRjnix:+j&23;DDEFcCDFDFcCcCcCcCDFDFcCEF91/jF2%*RjSl%*4?4j;a.jvlej(nUlwm_11kNjniy5zjSj<k;k              ",
"                          [klB$BXjUkIl^kwlojh^+kXk9k'l,k/k^ky5;#:Jkj@)Ijr3jJrj4j.mhiii.j-j,jji+j,j~i9j.=fjtqmq4oiiKaAr2jUlsjJmxq+q2mniU&y5]kvl2446'GEFcCDFcCcCcCcCcCcCcCcCcCcCcCcCcCcCcCcCcCcCDFfCDFDFcCBBq4*j^K:kpj8kwjwjwjwj&lwlijimijni%FZkRlh^vjwjwjwjwjwjwjwj)k1kiidC46EFDFDFcCBBdC%l_)Slwjwj;k'lRj1T)kwjwjwjwjwj&loj7kTj&lxjwjwjwj'lUk_%Mjr446'GcCDFDFfCEF81s6dC4ke$-kSjuHRL)kwjwjwjwjqjQjnjb'(kwjwjwjwjwj8k&lqj,k-k+kSjzjUkQjujwjwjwjwjwjwjxjwlUlY=Qj;k'l+kUjwleK%FQjVl,kvjwjwjwjwjwjwjwj9koi2>!nimTl>C j91fCcCcCDFDFcCcCcCcCcCDFDFcCEFBB&2iiIjSO8jUl&kmiPjWllB2>XjZktjVk7k(kUjTjWk<kvjqj              ",
"                          +r9kXk-kUj)k1mVjRltjUk$B2>%Fe$E8A-wqIjd-`%vl*nDm&r+jji-jgihiHjPj4j4kmjG;5j6jOjRLDq3qBrrjCr9j@)Oj2mDrZqErSjXkvjyj2>Ul;a91EFcCcCDFcCcCcCcCcCcCcCcCcCcCcCcCcCcCcCcCcCcCDFDFcCEF'G(@eCii6j(kwjwjwjwjwjwj;k*kJlhF*lojXl'l;kwjwjwjwjwjwjwjwjwj,kV%ej:aY8DDcCfCDF'G91Xa9j%*Tjyjwjwjh^~Q:kTjyjwjwjwjwjwjwjwjwjwjwjwjwj,k~Q{iyiq481EFcCDFfCfCcCDD(@'2vl!noj/kEAEA1mwjwjwjwjyjzjSOkj7kwjwjwjwjwjwjwjwjwjwjwjqj7kUkUkh^,kXl+kvjwjwjpjVkr3F2Ilwjwjwjwj+k2>%FUkRj)k*kTjXl.k*k*k*kUjVl:ku(Yj!n~QjJ<a3;CDDFcCDFDFcCcCcCcCcCDFDFcCEFEFcC24&kejhi-jjiji9jU&Wk'lqjTjSj(kojRltjZkXjy5U&hF              ",
"                          'lh^zj$BhFn@EA7j6KfjjJrjzi2j3kMqZj.jAqCrFrfi,j*ndo!rj3_17jYj~QY6lB$BXjUkWjwloj)k.kWky5>C9juHSl1m/k*kGqXk&lvj9k.kQ:yl j91JFcCcCDFcCcCcCcCcCcCcCcCcCcCcCcCcCcCcCcCcCDFDFcCEFDD81r4=a4kniWkwjwjwjwjwjwj8k&l.kUj,k'lyj;k8kwjwjwjwjwjwjwjwjwjvj:kr3jieC46'GDFfCcC4624Mj|iy5Tjwjwj<k7kQ:2>Tjwjwjwjwjwjwjwjwjwjwjwjwj.k%njJ jq43;EFcCDFfCDFcCDD46Y8~i^m2>Vlimimoiwjwjwjwjxj1m{iYP^kwjwjwjwjwjwjwjwjwjwjwjpjqj+k*kVjtjeKZk+kwjwjqjeKF2Gm:kwjwjwjwjvjTj.kSj1mVkZklBJlu(Q:dBhF%*[k$BWjRjVlXjPjP3cCJFcCcCDFDFcCcCcCcCcCcCcCDFcCcCIFcCVaHm*j,j&k~i%lHESl1m7k2>%*uHOj|lfjUl(nziLjvl              ",
"                          Y6n@nj^m_1sjY=(n2jii,jji j,j-j_omouS2jzmrj(nUl5j>qGrHrhF*l0k+k<k<k'l,kXl)kojwl^kIl3mHErjrj;#Rj0kRlSlIlZkXjy5dBTl^mrj*j3;GFDFcCDFcCcCcCcCcCcCcCcCcCcCcCcCcCcCcCcCcCDFDFcCEF81q41jzl8jRjpjwjwjwjwjwjwjwjwjwjwjwjwjwjwjwjwjwjxjxj8kwjwjwjwjwjh^@)Hj1jY8BBcCDFDF3;r40jUlOjojwjwjwj+k{A~QSjwjwjwjwjwjwjwjwjwjwjwjwjSjp5.m*jY8BBcCDFDFfCDFcCEF3;91mifjRL0k;#ij1mvjxjwjwjwjh^@)smWjpj8kwjwjwjwjwjwjwjwjwjwjwjwjyjoitjeKy5wl)kVlQjnjq8|lRlwjwjwjwjwjwjwj&l*k7kQjlBJlu(Q:dBhF%*u(:k/k<k&lU&GjDFfCfCcCcCDFDFcCcCcCcCcCcCcCDFDFDFbCCD'2 j2jH9{iljej8j%nYj:JSO8jxl.=Ljgi,jHmfiji0j/j            ",
"                          T&vlvl.mPj2j2j2jLjKjq8{i|lkjt@!n%*y5^kVkSltjtjWj:kIrIr:kSlVkRj^kXjQ:ijHE1kYPljH9}i2jgi;aYk(n8jJjxl.=Kj4jPjvlvlHj%l*j'2DFGFDFcCDFcCcCcCcCcCcCcCcCcCcCcCcCcCcCcCDFDFcCDFEFBB&2ji(n7jU&uj8kwjwjwjwjwjwjwj8kvj&l<k9k'l'lqjqj'lTjTj9kpj8kwjwjwjujjj4?&k9a91DDcCfCEFP3dC*jJ:Q:,kvjwjXk%FdB7k,kvjwjwjwjwjwjwjwjwjwjwj)kYP2kVa46'GcCcCcCDFcCcCcCDD(@:a2k_1wlZkeK:k)k9kwjwjwjTjWlOj:kWkpjwjwjwjwjwjwjwjwjwjwjwjwj8kyj9kXk(kU&TlHEsm4kNmuH(kwjwjwjwjwjwjwj8kpj&l'lqjXkWkWkWkWkujWk9kvjxj.k:J,j'GEFEFcCDFfCDFcCcCcCcCcCcCcCDFDFcCfC46=a(nuHSlzj2>6j%l*j%l6kHj3kvl.mPjzi5kF2{i'k{j]k            ",
"                          _)kq+q2mnieK$BXj3m*lzjVjoi/kUjTjWk<k9k)kSly5ni2mEA_%)lxl5krjzi2jHj2kiidj,j+jji0jQm>m&k+j<aYk0j,jfiYkjigiPj5k4rJrsmKrLrMrfCEFEFDFDFDFcCcCcCcCcCcCcCcCcCcCcCcCcCDFfCDFEFBBP3 jP,:JSlXkxjwjwjwjwjwjwjwjwjvjh^wl:k*lUk$BlB3m^ku(Y6RlXlyjwjwjwjpj-kQ:r3,jJaP3'GDFDFDD(@'2gi8j{Ah^wjpj-k:kRL;#h^wjwjwjwjwjwjwjwjwjxj7ksj/jeC3;EFDFDFDFcCDFDFDF'GP324=a.=wl/kIl~QQ:*kwjwjwj*k_%1k:k<k;kwjwjwjwjwjwjwjwjwjwjwjwjwjwjwjwj9k)kWj%F^m2kOjRjXkwjwjwjwjwjwjwjwjwjwjwjwjwjwjwjwj8kxjxj8kwjwj)k6jHm3;BB'GcCDFfCDFcCcCcCcCcCcCcCDFDFEFDD81s6Mj+&eKQ:uHwm=aHm5jnjb'{AJl$BXjQjWjzj0k(kSj.k            ",
"                          ~QZqErSjWk&lyjqj+kSjVlVjRlSlIlZkXjy5u(NrOr'kJjsjY=(n.myi jji j0j/jyi~izl)n4k(nJ:xlgj{ijJ&k/jPjKjmj}i>Clj6K%nijlBQ:yqxl1jcCEFEFDFfCDFcCcCcCcCcCcCcCcCcCcCcCcCcCDFfCDFEF81q4gi4?niUjwjwjwjwjwjwj8kyj-k.kTjojVkWj*lUk$BlB3mtj!n]k~QIl,kwjwjwjwjwjwl^m4k+j'281cCDFcC3;Y8YkLjhjRl8kwjwj/kTlNj^k,k;kwjwjwjwjwjwjwjpjSlY=fi&23;EFDFfCDFDFDFfCDF'G46q4dCmj^k*kXjIm{jy5(kTjTjZkNmwm!n$BSlojUjWk;kwjwjwjwjwjwjwjwjwjwjwjwjpjqj(k3m1kgi6jUk+kwjwjwjwjwjwjwjwjwjwjwjwjwjwjwjwj8k;k;k8kwjwjoj_1(lBBDDEFcCDFfCDFcCcCcCcCcCcCcCDFDFcC'G'GcC(lyl|l4?sj2jeCgi+&tjVl+kvjxj'l-kUj(kojwlVktj            ",
"                          SjGqXk&l&lqj.kwlUkjjYjIm|l8jq8J:mj4jT&PrAm.j-j0j jHm+jdjPj5kylGmsm1k]knmQrwpXjZktjVk2>HE{iJ:b'Xj$B3mQjWjzj0k/kTj9nRr'rmiDF'G'GDFfCDFcCcCcCcCcCcCcCcCcCcCcCcCcCDFfCDFEF81&2~ismhFUjwjwjwjwjwj8k;k.kXjY6:kVlSjTj,k+k-kTj+koi]kgj)limoiwjwjwjwjwj.ku(hjHj9a91DDcCcCDD91Xafir3Uk;k8kwjqj7kZklBtj9kwjwjwjwjwjwjwj&lXjmjVaY83;'GcCDFDFDFDFDFcC'G3;91'2ejUkoj%*fjJ:|lNjU&lB{jziGj.mx:YPnjniVk<kwjwjwjwjwjwjwjwjwjwjwjwjvj,kzjijNmYkvl'kRjwjwjwjwjwjwjwjwjwjwjwjwjwjwjwj8kxj;k;k8kwjwjRlylJa'GEFcCcCcCDFDFcCcCcCcCcCcCcCcCcCcCEFDFGF81+jyiHmHm0js6.jWl0k,kvjxj<koj2>e$uHOj|i4?wm            ",
"                          :kZkXj$BU&dB1TEAiD{iP,3jLjMjyi0j+j+j0j_omouSvlLjzi9j}i^K)lIm!n{AQ:3mRlSjSr<kXk-kUj/kIlb'gjlj:kxjyj'l,kXlSj(kVj^k3mnip5jiDF'G'GcCDFDFcCcCcCcCcCcCcCcCcCcCcCcCcCDFfCDFEF46eC6k6jeKXlwjwjwjwjwjqj0kUku(Y6^kUjXkpjwjwjwjwjwj.k%nGm4?Oj*l-kyjwjwjwj9koiV%H9mieC46EFDF'G46s6&2vlimVj&lwj;k9kVl[ku(Wkwjwjwjwjwjwjwjuj{A6k'2(@DDEFcCDFDFDFDFDFcCEFDD81s6Hjni3mf1H9}ismYju(jjFImieC'2=a2kJ:4?:JU&Sl0kXl'l;kwjwjwjwjwjwj8kyj-kQj{lx:Ja:amj!nRj,kpj8kwjwjwjwjwjwjwjwjwjwjwj8k8kxjpj&lTjRlRLLjr4'GEFcCcCcCDFDFcCcCcCcCcCcCcCcCcCDFcCfCIFFF81eCHmMj3j2kziSOiju(y5lBdBYjSOJjxl.=rjHj.j            ",
"                          Gm>C}i9jLj.m6khigi-j jHmfiji1nzl9jUlGm|i+qn@nieK2>$BXj*lzj0k(kSj.k-kXk<k&lSjzj$BhFTl{jxlKjF2SlyjTj1mWjU&jjb'7jYPwmUl6k24fCEFEFDFcCcCcCcCcCcCcCcCcCcCcCcCcCcCcCDFfCDF'GP39aLjOjWjujwjwjwjwjwjVlWl+&*l.kWk&lpj8kwjwjwjwjwj*k{j@)b'e$jj$B-kwjwjwj;k'lIlSO9jfiY8DDDFcCDD46q4,jUlOjXlwj8k;k/k%*e$ujwjwjwjwjwjwjwj)k1k-js681'GcCDFfCDFDFDFfCDFcCEFBB46iiEAn@ImIjsme$SlRjY6F2Xa'GP324=ajiii3kx:8j{leKoi9kwjwjwjwjwj8kxj<kXly5@)3ks6&20j9jhjQjXkpjwjwjwjwjwjwjwjwjwjwjwjwjwj8kyj-k2>p59j<a(@DD'GEFcCDFcCcCcCcCcCcCcCcCcCcCcCDFcCfCGFFFcC,j4?;#Jlb')l(nzl.mLj2j.m2k.jmi jji+j+j,j            ",
"                          hi0jji+j jmidjii2k.mej4kmjG;*mTr^m]k{AZqErSjXkvjpj9kuj*k(kojwlVktjQj3m2>Jl2mOjjp_1ljjJGjmirjRLlB~QHr<rJr#$q8(nMj.j0j;a(@DFcCcCDFcCcCcCcCcCcCcCcCcCcCcCcCcCcCcCDFDFcCBBq4<a3j1T)k9kwjwjwjxj&l*l_1smVkwjwjwjwjwjwjwjwjwjwj*kkjhjeKUkim2m)kwjwjwjwjwjSj%*4?2kXa81cCDFcCDD91Va/jwmwl;kwjwj-k$Bu(7k<kwjwjwjwjwjwjwllj(l(@DDEFcCDFfCDFcCDFDFDFcCEF'GDDHm4?1khj@)njWj.kSjU&.=(@IFDDP3P391q4&2;aGjG;SOn@eK^k(k,k;kwjxjyjWkh^Q:FIyi3;P3eC;aLj{jY6Ilojuj;kwjwjwjwjwjwjwjxj<k-k1m*lni^mvlVaP3BB'GEFcCDFDFcCcCcCcCcCcCcCcCcCcCcCDFcCDFfCJFfCiiNj/kqj1mimGjP3Xa<afi jdjhiHj2j4kmj5k>C            ",
"                          jiGj2j5k^KGmp5{jimnilB$BXjUkIl^kwlojh^GqXk&lvjyjujVlWjdBNjnj^m4?sj>C}i4k2jzl*n1nIn j(l&2'2HmmjjJ2jMj%lBmmi jHm1j*jHm;aP3EF'GEFDFDFDFcCcCcCcCcCcCcCcCcCcCcCDFDFcCcCEF46dC+jP,y59k;kwjwjwj<kSjQ:8j@)zjwjwjwjwjwjwjwjwjwjwjUj1k6j:kzjnj]k1mwjwjwjwjwj&lUj~QjJ(l91EFDFDF'G46r4Va9jU&9kwjwjyj-kWj1T)kwjwjwjwjwjwjSlx:Ja3;'GcCcCcCDFDFcCcCcCDFDFcCcCcCJa}iljYP6jb'tjh^*kU&mj'G*EDFBBBB3;81P3'2dajiMj9jJ:JjuHIl9kwjpjqj.koj~Qq80jEFDDs624*j&kG;Gmt@Wj9kwjwjwjwjwjwjwjvj/k$BEA{i3jGj<ar43;EFcCDFDFcCcCcCcCcCcCcCcCcCcCcCcCcCfCDFcCDDDDcCii!n)k9k+k;#~iq4/jej>C5j'kim{AJl$BXj3mQj            ",
"                          x:FI6KImf1{A%FIl0kujyj&lXk+k*k/kVlVj^k*lUk$BlBJl%*!n%ngjxlJ:4k6kgi0j+jHm,j/jgiTm?m.m.m6k.jdaHm-jmi/jUrunA).mzimj3j.=LjVaDDDD'GDFfCDFcCcCcCcCcCcCcCcCcCcCcCDFDFcCcC'G91:a%l_)Slwjwjwjwjwj+kUkHEsj@)zjwjwjwjwjwjwjwjwjwjwjUj|i|iwlh^;#b'2>oiyjwjwjwjwjwj*lylHmq4'GDFfCcCDD(@q4ii]k*kwjwjwjwj(kNjJlwlUj,k,k*k7k2m6ks6EFcCcCcCcCDFDFcCcCcCDFDFcCcCcCs6/j}iIjIm~QWj)k*kY6vlDF~BJFEFcCEF'GDD46P3Y8249a<a2kfjt@y5/k+k,kXlVle$wm-jcCDF3;P3Y8r4=aiiG;{lJlUkUkZkQjQjZkZklB2m|i>Chi=aY8P346'GcCDFDFDFcCcCcCcCcCcCcCcCcCcCcCcCcCDFDFEFBBDDcCjip5jjJleK7jmidax:hj]kijlBoj+kvjxjvj9kuj            ",
"                            Sl^kVkVkVkVkVkzjzjIly5e$RLOjiD6K_)r3KjejPj.mPjPj.mvlvlPjPj.m2jzi5kq8Jj1k]kVri0`qVkRj^kHE.jPjwmhjOjYqKllBIlRjwlRjRlNj6k9146BBcCDFDFcCcCcCcCcCcCcCcCcCcCcCDFfCDFcCBB'20jx:t@0kwjwjwjwjwjojnjlj>Cp5RlwjwjwjwjwjwjwjwjwjwjUj^m6jRjyj+k:kf1im7k<kxj8kpjWkJlUlYkr4'GDFDFDFcCDD919arjeKWkpjwjwjqj3m1k|i%*ZkQj{AJjLj9aJFHFfCEFcCDFcCcCcCcCcCDFfCDFcC'G'Gs62kfjim2>zjVloi;#micCJFcCcCDFfCDFcCEFEF'G3;(@q4JaYk/j9j_%%*QjVk*lRL^Kmi'GfCcCEFDD819124:a0jhizl6k3kPj2jPj3k2kdj+jda'29181DDEFDFfCDFcCcCcCcCcCcCcCcCcCcCcCcCcCcCcCcCDFDFcCDFCDP3,jhihizi3k(l~i^mdBIlRjRlRjwl7kVkZkY61T            ",
"                            ~QNjOj1kgjlj>C}iejvlzl~iyi-j,jjiHm+j.jzl9jUlsj4?|i]kV%eK$BXj3mQjWjzj0k)k.k+k'lvjxj<kh^NjHjWlRloi*k+kXk&lpjpj+k/kVjn@ejdC81cCcCDFDFcCcCcCcCcCcCcCcCcCcCcCDFDFcCEF46Xa3k7j3m-kwjwjwjwjwjRlp5J:r3iD7kwjwjwjwjwjwjwjwjwjwj/k_1_1^kwj8kqjVl%F:JSlXkpj.ku(|lzlJaP3EFDFfCfCDFEFBB91,jsmniUjwjwj<kRjV%ijlBtjWjNjejVaY8GFbCfCEFcCcCcCcCcCcCcCDFfCDFcC'GcC81Gj5j1T:kVjVjWjnj:aFFCDDFcCDFfCfCfCfCfCDFcCEFDD3;81919a.j6kLjejLj~i:a91'GDFDFfCDFcCEFDD3;46s6q4'224dCeCdC&2q4P381BBDD'GcCDFfCfCcCcCcCcCcCcCcCcCcCcCcCcCcCcCcCcCcCcCDFDFcCDFCDCDDFr4%l3jY=r3x:Pj}i|l{j8jWr!rzmPj3kMjii            ",
"                              q8J:9j6kiimijijimidjQmcozlvl4jIqlp*mTr|i:J2m[k3mRjTjpjxj&lXk-kUj)k1mRjWjQj3m$B2>dBNj_)hib'wl7kRjSlIlZkXjU&jjRLWlJjGj'2'GJFcCDFDFcCcCcCcCcCcCcCcCcCcCcCDFDFcC'GP3Vamj1T/k<kwjwjwj;kWk*liDwmF2iD7kwjxj<kWk-kSj1mRltjZkjjJ:wmtjwj8kxjxj0kOjniWjwllB1k5kYkP3BBcCDFfCfCDFDFcC3;=arj|iRj8kwj'lRly5$B^k7kwluH6kq4s6CDHFfCcCcCcCcCcCcCcCcCDFDFDFcC'GEF(@3kgjY61m)k0kQj{l1jCDFFfCcCDFfCDFDFDFfCfCDFDFcCEF'GBBP3Y8q4Y8s69181DFJFEFDFfCfCfCfCDFcCEF'GBB81(@P3P3P3P3P346BB'GEFcCDFfCfCfCDFcCcCcCcCcCcCcCcCcCcCcCcCcCcCcCcCcCcCDFDFcCcCfCCDHF24Y=|iOjim)lgi1jLjKjhiXrYrLq+j,j/jii            ",
"                                jiHmYk jGjPj.=GmlqZr[rnmnieK$B3mIl^kwl1m)k*k+kXkyjxj<kSjzj]re)Vr]kSOIjP,5k9jej3kiifi*jwm1kiD/rTr^r%o}iej3k2kgiHm'2'GFFGFfCDFDFcCcCcCcCcCcCcCcCcCcCcCDFfCDF'Gs6=ax:U&<k;kwjwjwj<kzjY6RLiDfj'kRjwjvjh^zjXjjj:Jp5xlJ:rj j3j3mwj8kxjvjTjXjHEIm+&|ljJ-j(@FFcCDFfCfCDFcCcCDF'G&2Hmr3XjvjxjWkIleK3moj/k0kNj2k(@91EFfCDFDFcCcCcCcCcCcCcCcCcCDFDF'GcCs65kt@VkWk-koiIlEAii'GGFfCcCDFDFcCcCcCDFfCfCfCDFcCEFEFDD8146(@(@46BBEFDFcCDFfCfCfCfCfCDFDFcCcCEF'G'G'G'G'G'G'GEFcCDFDFfCfCfCDFcCcCcCcCcCcCcCcCcCcCcCcCcCcCcCcCcCcCcCDFDFcCEF'GcCFF*j+&Wjojoie$x:ji*j<a1j_rA)(nr3ljgj_%im          ",
"                                  rjKj.=FI6KOj{A%Fpq!qUjXkvjpjXkXlSj(kojwlVktjQj$By5Q:2mOj6jYPfj>CejGj-jjifiHm+jji*j=a.m3jKjLj2kdjjiYkfi j0jmiHm9a91fCGFDFDFDFcCcCcCcCcCcCcCcCcCcCcCDFfCfCEFs6=aG;eK9k;kwjwjwj,k;#imQ:n@wmfjijQjy51TEA1k{i>C.m,j=a9a&23kn@/k<kxj&lXkojWlhj^mGmHj9aFF,EfCDFfCDFDFcCcCDFEF(@'26kOj^kWk,k$BJlQj)kUjwlYj%lDDBB'GcCDFDFcCcCcCcCcCcCcCcCcCDFDFEFEFs6Lj)lQ:wl7kIl%*6j.jBBCDDFcCDFDFcCcCcCDFDFDFDFfCDFcCcCcC'GDDBBBBDDDD'GcCDFDFDFDFDFDFDFfCfCDFfCfCfCfCfCfCfCDFcCDFDFfCfCDFDFDFDFcCcCcCcCcCcCcCcCcCcCcCcCcCcCcCcCcCcCcCDFDFDFcCDD'GJFYk{lRjh^oj{A.=-j,j.j9jq8_17jYjTldBQjoj          ",
"                                    XjZkWjzjojSjXl,kqj&lvjyjWkwlU&jjuHOj|i4?sj>Cmj4jPj6k~iyi-j,j+jHm jyi6k9jJ:sjp5lj jgi~i j1j`rFrDm@m3js^_1'kJjmj0js6fCEFDFDFcCcCcCcCcCcCcCcCcCcCcCDFfCDFEF(@9a9jTl)k9kwjwjwjh^smYPXj%FH9&k5kH9x:9jvl~i/j j1j9a24q4Y8miFIij/k;k9k,kVjjjn@jj%nejeCbC)EfCDFDFcCcCDFDFDFcC3;r4fi4j'kRj-keKJlIl/kh^Wjt@djCDIFDFEFDFDFcCcCcCcCcCcCcCcCcCDFDFcCEF819a~ilj{juHYjsm(nXaDDEFcCDFfCDFcCcCcCcCcCcCcCDFfCDFDFcCcCcCEFEFcCcCcCcCDFcCcCcCcCcCcCDFfCfCfCfCfCfCfCfCfCfCDFfCfCfCDFcCcCcCcCcCcCcCcCcCcCcCcCcCcCcCcCcCcCcCcCcCcCcCcCcCDFDFEFEFDFdCJ:f1;#OjNm2kiir31ku(Il^kVjoi/k*k+k'l          ",
"                                    qj,k.kh^1mRj^kIlZkXjlB%Fe$EAhj8jxl.=rj3kii0j+jji0j/jRmco<jPjarmjJ:xl_1^mnjTllB!nzl2kPjLjzm$*J:3rhpIm2m[k2>~Q)l4k9acCEFcCDFcCcCcCcCcCcCcCcCcCcCcCDFfCDFcC3;r4Gj|le$:kVl)kVlQ:x:F2IlXj}i:a1j*j:aJa24Y891s6s691(@4691=a6ksmSlyj'l-k7kQ:niy5imej'2~B@DfCDFDFcCcCDFDFDFDF'Gs6dC:aKj~Qzju(eKWjh^(ky5|iyiEF*EJFEFDFDFcCcCcCcCcCcCcCcCcCDFDFDFcCDD'G&2ii(nxlyl4j,j81EF'GcCDFDFDFcCcCcCcCcCcCcCDFDFDFDFcCDFDFDFDFDFDFcCcCDFcCcCcCcCcCcCDFDFDFDFDFDFDFDFDFDFDFDFDFDFDFDFcCcCcCcCcCcCcCcCcCcCcCcCcCcCcCcCcCcCcCcCcCcCcCcCcCDFDFcCEFcC(@0jF2Ij.=3kYk-jP,EA)kujXlh^oiVjRl:k*l          ",
"                                      *lY6;#:J'kJjxl.=KjejLjvlhi.jmi jji+jji0jii9jP,5jYP6j+qnmdBlB$BZktjVkwloj/kTjlBJ:G;gjij2>)M`qIl^k0k/k*kTjRluHwm(lDFcCcCcCDFDFcCcCcCcCcCcCcCcCcCDFDFcCEF'G'G9aPjljiDYjRLEA5j3kxlIllBvl46&2eCr491(@813;3;BBDD'GDD(@'2:ajJ%FXk'l,kwlni{AJl:J.mY8~B)EDFcCDFcCcCcCcCDFfCcC3;91'2Gj@)RLdBy5:k*k1mjjsmzl24GFfCEFDFDFcCcCcCcCcCcCcCcCcCcCcCDFDFcCDDP3dC:a<a;a9ar4DDcCcCDFDFcCcCcCcCcCcCcCcCcCcCcCcCcCDFfCfCfCfCfCfCDFDFcCcCcCcCcCcCcCcCcCcCcCcCcCcCcCcCcCcCcCcCcCcCcCcCcCcCcCcCcCcCcCcCcCcCcCcCcCcCcCcCcCcCcCcCcCcCcCcCDFDFcCcCDFcCP3*j0j jYkVa=a-jylXjtjJlV%imImp5Nm^K}i        ",
"                                        )lIjUlej&kdjjififi jmiyi2k3kLj4kmj5k>Clj|iYjijni2>RlUj9k;k&lWk-kUj)k1m7kVkTlx:5jimoi8k;kyjqj,kUjoi0kRleK(5r3=aJFcCcCcCDFDFcCcCcCcCcCcCcCcCcCDFDFcCcCDFHF81 j}i6KEAb'%nx:~iH9Y6V%%lDF469146DD'G'G'GEFcCDFDFcC81P391Gj_%Uk.kWkzjjjijQ:t@Mj81~BlEDFDFDFcCcCcCcCDFfCDFEFBBP3(lzi_1hFQjwl+koijj@)vl9afCfCcCDFDFcCcCcCcCcCcCcCcCcCcCcCDFDFDFDDBBDD'GDFfCEF'GEFcCDFDFDFcCcCcCcCcCcCcCcCcCcCcCcCcCDFDFDFDFDFDFDFDFDFcCcCcCcCcCcCcCcCcCcCcCcCcCcCcCcCcCcCcCcCcCcCcCcCcCcCcCcCcCcCcCcCcCcCcCcCcCcCcCcCcCcCcCcCcCcCcCcCDFDFcCcCDFJFJFXami.mmjrjPj.jLj_%7j6KNmP,3j2jGj0jfi        ",
"                                            3k.m2jzi5kF2{i'kImf1u(Zkzj7kwlRlzjzjRlRlRlzjzjRlRjwlzj$Bjjb'+&|ism5jY=2jdjsjHEZkVj:k$BdBTlt@p58j*mkoXo+j81GFcCcCDFDFDFcCcCcCcCcCcCcCcCcCcCcCDFDFfClE'Gdj5j[kVl)k*lhj6kLj'k_1fiDF'GDDEFcCcCDFDFfCfCDFDFDFEFBBP39adjq8Q:(k^k~Q2mhFIm~i81FFHFcCDFDFcCcCcCcCDFDFcCDFEF3;91'2MjYjQj7kUjVj%*sm%lY8EFcCcCDFDFcCcCcCcCcCcCcCcCcCcCcCcCcCDFcCcCEFEFcCcCcCcCDFfCDFcCcCcCcCcCcCcCcCcCcCcCcCcCcCcCcCcCcCcCcCcCcCcCcCcCcCcCcCcCcCcCcCcCcCcCcCcCcCcCcCcCcCcCcCcCcCcCcCcCcCcCcCcCcCcCcCcCcCcCcCcCcCcCcCcCcCcCcCcCcCcCcCcCcCDFDFEFDF816k4?u(0k0kY6@)rjdj%lzl6kHj3kvlvlejH9        ",
"                                            eK$B3mQjWjzj0k(kSjTj'lvjxjpjWk/kVk2>;#]kiDsm5jY=3j9jLjHjmo_omi j+jYk(lVaXa.jLjx:x:Ljzl2k%l-jjifibrhmcrdr;g%EDFcCDFDFDFcCcCcCcCcCcCcCcCcCcCcCDFDFDF*EDDdjIjeK*kTjVkiDLjGj3kyiY8JFcCEFcCDFDFfCfCfCfCDFDFfCDFEFBBP3'2-jP,EAVk%*Nj~Qnj5kfi3;GFcCDFDFcCcCcCcCcCcCDFfCDFcCDD81246kiDij~Qf1gjrj:a'GcCcCcCDFDFcCcCcCcCcCcCcCcCcCcCcCcCcCcCDFfCDFDFcCcCDFDFfCcCcCcCcCcCcCcCcCcCcCcCcCcCcCcCcCcCcCcCcCcCcCcCcCcCcCcCcCcCcCcCcCcCcCcCcCcCcCcCcCcCcCcCcCcCcCcCcCcCcCcCcCcCcCcCcCcCcCcCcCcCcCcCcCcCcCcCcCcCcCcCcCcCcCcCcCDFDFEF'Gs6hi4?Vkwjwj(kb'xl~iYPYjTlnieKXj3mQj^k0k      ",
"                                              vj9kujTjSj(kojwl:kQj3m$B%Fe$RLeriqIjUlrjHjii0j+jHm+jmiUr~izlvl4j4k9j4jgi=a:ajimi+j+jmiyi2kPjejOq~ofrgr'2CFEFcCDFfCDFcCcCcCcCcCcCcCcCcCcCcCDFDFDF~BDD/j5jY6h^*k:k|iej-j;ar4DDfCDFcCcCDFDFDFDFDFDFDFDFDFDFcCEF3;91Va.j^KhFniV%e$:JH9/jP3FFEFDFDFcCcCcCcCcCcCDFfCfCDFEF3;8124}iFIGmF24j0jY8DFcCcCcCDFDFcCcCcCcCcCcCcCcCcCcCcCcCcCcCDFDFDFDFcCcCDFDFDFcCcCcCcCcCcCcCcCcCcCcCcCcCcCcCcCcCcCcCcCcCcCcCcCcCcCcCcCcCcCcCcCcCcCcCcCcCcCcCcCcCcCcCcCcCcCcCcCcCcCcCcCcCcCcCcCcCcCcCcCcCcCcCcCcCcCcCcCcCcCcCcCcCcCcCcCDFDFcC'GP3+jx:b'UkZke$^mUl.m2m1m*kWkpjxjvj9k-kh^      ",
"                                              ,k(k:kU&jjNjOj|i_)Y=3j9jLj.m<jbmhr0jjiHmYk+j.jzl9jUl_)1kQqJ*nieK2>$BhF6K+j24,j3kG;wmYPjp!jomir8pwpwp]m,l#EBBEFcCDFDFcCcCcCcCcCcCcCcCcCcCcCDFDFfC*E'GmisjY6h^*k:k|iLjfi(@JFcCEFcCDFDFcCcCcCcCcCcCcCcCcCDFDFcC'G81Y8eCyi4?hF3mlBHEG;Hm46FFcCDFDFcCcCcCcCcCcCcCDFfCfCDFEFDD91da1j*j(lVa'281EFDFDFDFcCcCcCcCcCcCcCcCcCcCcCcCcCcCcCcCcCcCcCcCDFDFcCcCcCcCcCcCcCcCcCcCcCcCcCcCcCcCcCcCcCcCcCcCcCcCcCcCcCcCcCcCcCcCcCcCcCcCcCcCcCcCcCcCcCcCcCcCcCcCcCcCcCcCcCcCcCcCcCcCcCcCcCcCcCcCcCcCcCcCcCcCcCcCcCcCcCcCcCcCcCDFDFcCcCBBr4fi4jJ:.=(nzl-jzlY6'l&lpj8kvj+kVlXjV%      ",
"                                              jjNj{lhj8jq8J:9jhi,jHmfiHm0jdjgi~iHjejrjKjx:xlYP|i:J~Q3mhqSjXkpj8kpjh^:JGj jjJ4?t@n@niwpojqjpj8kxjvjY6vl81BBEFcCDFDFcCcCcCcCcCcCcCcCcCcCcCDFDFfC+E3;dj5ju(/kUj:k^mzifiEF+EDF'GcCDFDFcCcCcCcCcCcCcCcCcCDFfCDFcCDD3;81eCPj_%!nOjJjzl9a3;JFcCDFDFcCcCcCcCcCcCcCDFDFfCfCDFEFBBcCfCDFcC'GDD'GcCDFDFDFcCcCcCcCcCcCcCcCcCcCcCcCcCcCcCcCcCcCcCcCDFDFcCcCcCcCcCcCcCcCcCcCcCcCcCcCcCcCcCcCcCcCcCcCcCcCcCcCcCcCcCcCcCcCcCcCcCcCcCcCcCcCcCcCcCcCcCcCcCcCcCcCcCcCcCcCcCcCcCcCcCcCcCcCcCcCcCcCcCcCcCcCcCcCcCcCcCcCcCcCcCDFDFDFDFcCDF81eC1j j/jdjmizlYj3mUk3m$B%Fjj!n|iNm      ",
"                                              3kMjiidjmi j+jfifiJn2n~oUlljgj1k]kV%eK$BXjUkIl^kwl1mSjGqXk&lpj8kpjXk^kSO4kr3ijVk0k)kUj-k'lpj8kwjvj+k{AMjDDDDcCDFfCDFcCcCcCcCcCcCcCcCcCcCcCDFDFcCGFs6~i_)u((kUjtjSO}idj(@HFDFEFDFDFcCcCcCcCcCcCcCcCcCcCDFDFcCcCEF'G3;91dahi6kgifi&23;'GcCcCDFDFcCcCcCcCcCcCcCcCcCDFDFcCEFEFEFcCEFEF'GEFcCDFfCcCcCcCcCcCcCcCcCcCcCcCcCcCcCcCcCcCcCcCcCcCcCcCcCcCcCcCcCcCcCcCcCcCcCcCcCcCcCcCcCcCcCcCcCcCcCcCcCcCcCcCcCcCcCcCcCcCcCcCcCcCcCcCcCcCcCcCcCcCcCcCcCcCcCcCcCcCcCcCcCcCcCcCcCcCcCcCcCcCcCcCcCcCcCcCcCcCcCcCcCcCcCcCcCcCDFDFDFIFCD91<aGj9jY=Ul2jrj5kjJ3jrj4jvlMjyi0j+j    ",
"                                              ,j/jyi*nzl.mej9j5k^rKqxq:J2mdB3mCqTjpjxjvj9kujTjSj(kVj^ktjZkXj$BeKni]k>CLjIj$B-kUj(k1m7k^kQj3m$B%Fjj6K jcCEFcCcCDFDFcCcCcCcCcCcCcCcCcCcCcCDFDFcCFF&2Pjp52>UjXlRjnj5k-j91CDDFcCDFDFcCcCcCcCcCcCcCcCcCcCDFDFcCcCDFcCDDBB3;s691DDDFfCfCcCEFDFDFDFcCcCcCcCcCcCcCcCcCDFDFcCcCcCEFEFEFEFcCcCDFfCDFcCcCcCcCcCcCcCcCcCcCcCcCcCcCcCcCcCcCcCcCcCcCcCcCcCcCcCcCcCcCcCcCcCcCcCcCcCcCcCcCcCcCcCcCcCcCcCcCcCcCcCcCcCcCcCcCcCcCcCcCcCcCcCcCcCcCcCcCcCcCcCcCcCcCcCcCcCcCcCcCcCcCcCcCcCcCcCcCcCcCcCcCcCcCcCcCcCcCcCcCcCcCcCcCcCDFDFDFbCEF=a6kxl'kOjnjFImiJa:a<a1jfiji-j%l6k.m    ",
"                                              sjgj1kQq2mnieK$B3m q!lHq1m/k*kjrXkyj8kvj,k(k:kU&jjb'7jYPwmUl}i9jLj3kii(l+j3jNj2>e$RL:JkjJjr35k9jLj3kmis6CDJFcCcCDFDFcCcCcCcCcCcCcCcCcCcCcCDFDFcCFFJaJ::Jwl<k9kTjY63j<a(@DFcCcCDFDFcCcCcCcCcCcCcCcCcCcCcCcCDFDFfCDFcCEF'GBBBBDDEFcCDFcCcCDFcCcCcCcCcCcCcCcCcCcCcCcCcCDFDFDFcCcCcCcCDFDFfCDFcCcCcCcCcCcCcCcCcCcCcCcCcCcCcCcCcCcCcCcCcCcCcCcCcCcCcCcCcCcCcCcCcCcCcCcCcCcCcCcCcCcCcCcCcCcCcCcCcCcCcCcCcCcCcCcCcCcCcCcCcCcCcCcCcCcCcCcCcCcCcCcCcCcCcCcCcCcCcCcCcCcCcCcCcCcCcCcCcCcCcCcCcCcCcCcCcCcCcCcCcCcCcCcCcCcCDFDFcCJFXa9j'kQ:Rjojojni2kY8JajiHj3jF2Jj%nTlni    ",
"                                              2mdB3mRjSjXkpjxj&lujTjSj(kojwl^ktjUk$B%FjjNj{lhj8jF2(n&k.jjiYkYkHm j j*j;a2kJjiDYPwmUlmjMj j*j<a(lHm<as6EFJFcCcCDFDFcCcCcCcCcCcCcCcCcCcCcCDFDFcCJFeCzip5e$tjSlQjf1Hj2481cCDFDFfCDFcCcCcCcCcCcCcCcCcCcCcCcCDFDFDFDFDFcCEFEFEF'G'GEFcCDFDFDFcCcCcCcCcCcCcCcCcCcCcCcCcCDFDFDFcCcCDFDFDFDFDFDFcCcCcCcCcCcCcCcCcCcCcCcCcCcCcCcCcCcCcCcCcCcCcCcCcCcCcCcCcCcCcCcCcCcCcCcCcCcCcCcCcCcCcCcCcCcCcCcCcCcCcCcCcCcCcCcCcCcCcCcCcCcCcCcCcCcCcCcCcCcCcCcCcCcCcCcCcCcCcCcCcCcCcCcCcCcCcCcCcCcCcCcCcCcCcCcCcCcCcCcCcCcCcCcCcCcCDFDFEFEFdarj_%Rj<k-kh^Y6~iXa6kP,sm%nb'e$WjUjXk    ",
"                                                wlwlwlwl7kVjzj2>V%im%nSO_1ljH93jkrvl3k3kHj6k6kHj3kvl.m4j(nY=5jsmkjt@)ldj;ahiPjHj6kHjHjvlej(nY=5j)lFI6k:aDDcCcCDFDFcCcCcCcCcCcCcCcCcCcCcCDFDFcC'G81'2*j&k}iP,J:/j'23;'GcCcCcCDFDFcCcCcCcCcCcCcCcCcCcCcCcCcCcCcCcCDFDFDFDFfCDFDFDFDFfCDFcCcCcCcCcCcCcCcCcCcCcCcCcCcCcCcCcCDFDFfCDFcCcCcCcCcCcCcCcCcCcCcCcCcCcCcCcCcCcCcCcCcCcCcCcCcCcCcCcCcCcCcCcCcCcCcCcCcCcCcCcCcCcCcCcCcCcCcCcCcCcCcCcCcCcCcCcCcCcCcCcCcCcCcCcCcCcCcCcCcCcCcCcCcCcCcCcCcCcCcCcCcCcCcCcCcCcCcCcCcCcCcCcCcCcCcCcCcCcCcCcCcCcCcCcCcCcCcCcCcCcCDFDFcC'G46242j!nU&Nj7jfj=adjt@QjRl0kVjVj0k0k0k    ",
"                                                ^m_1fj>C}i9jLj6k%ldjmi j+jHmfiji*n~oUlsjgj1k:J2mnilBXjZkIl^kwlVlh^Uj2>zlda2jFI%nTldBU&$BQjtjlr$nVl}phjejY8cCcCDFDFcCcCcCcCcCcCcCcCcCcCcCcCcCDFEF'GDD81Y824JaeCP3DDEFcCDFDFDFcCcCcCcCcCcCcCcCcCcCcCcCcCcCcCcCcCcCcCcCDFfCfCfCDFcCcCcCcCcCcCcCcCcCcCcCcCcCcCcCcCcCcCcCcCcCcCcCcCcCcCcCcCcCcCcCcCcCcCcCcCcCcCcCcCcCcCcCcCcCcCcCcCcCcCcCcCcCcCcCcCcCcCcCcCcCcCcCcCcCcCcCcCcCcCcCcCcCcCcCcCcCcCcCcCcCcCcCcCcCcCcCcCcCcCcCcCcCcCcCcCcCcCcCcCcCcCcCcCcCcCcCcCcCcCcCcCcCcCcCcCcCcCcCcCcCcCcCcCcCcCcCcCcCcCcCcCcCcCcCDFfCDFEFcCfCY8-jMjiidj+j911jfjWlQ:%Fij:JhjsjY=    ",
"                                                4kzlyi jfifi+jmiyiGjzl.mejrj(n.=noxq:J2mdB3mRjSjXk;kpj&lXk-kUj)k1mwljjiiHmFIRLIlUj'l;k8kxjvj'l,k.kUkiDKjq4cCcCDFDFcCcCcCcCcCcCcCcCcCcCcCcCcCDFDFcC'GBB3;BBDDDDBB'GcCDFfCDFDFcCcCcCcCcCcCcCcCcCcCcCcCcCcCcCcCcCcCcCcCDFDFDFDFDFcCcCcCcCcCcCcCcCcCcCcCcCcCcCcCcCcCcCcCcCcCcCcCcCcCcCcCcCcCcCcCcCcCcCcCcCcCcCcCcCcCcCcCcCcCcCcCcCcCcCcCcCcCcCcCcCcCcCcCcCcCcCcCcCcCcCcCcCcCcCcCcCcCcCcCcCcCcCcCcCcCcCcCcCcCcCcCcCcCcCcCcCcCcCcCcCcCcCcCcCcCcCcCcCcCcCcCcCcCcCcCcCcCcCcCcCcCcCcCcCcCcCcCcCcCcCcCcCcCcCcCcCcCcCcCDFfCDFEFcCCDDDXafi/j2kLjvlvlejUlgjp55jUlLj.jji    ",
"                                                HmfijiJn2n~oUl_)1k]k2mnieK$BXjZk:kHq1m/k*k+kXk&lpj;kqjUjRl$BhFn@]k|iP,=ahiRL)k,k&l;k8kxj&l-k0k*lJlWlwmhi46DFcCDFDFcCcCcCcCcCcCcCcCcCcCcCcCcCcCDFDFcCEF'G'GEFEF'GEFcCDFDFcCcCcCcCcCcCcCcCcCcCcCcCcCcCcCcCcCcCcCcCcCcCcCcCcCcCcCcCcCcCcCcCcCcCcCcCcCcCcCcCcCcCcCcCcCcCcCcCcCcCcCcCcCcCcCcCcCcCcCcCcCcCcCcCcCcCcCcCcCcCcCcCcCcCcCcCcCcCcCcCcCcCcCcCcCcCcCcCcCcCcCcCcCcCcCcCcCcCcCcCcCcCcCcCcCcCcCcCcCcCcCcCcCcCcCcCcCcCcCcCcCcCcCcCcCcCcCcCcCcCcCcCcCcCcCcCcCcCcCcCcCcCcCcCcCcCcCcCcCcCcCcCcCcCcCcCcCcCcCcCcCcCDFfCDF'GEFCD'23kyl4?Im{A%FOj.m<a,j-jjiHmYk(lji    ",
"                                                rj(n.=^rKqxq:J~Q3mRjSjXkpj8kxjvjWk.k/kVlVjzj:k*lUklBhFTl]k^m_1fjUlzimir4~iYj^kVkSl-r}o2>u({AYj_%)lF23k(lEFDFcCDFDFcCcCcCcCcCcCcCcCcCcCcCcCcCcCDFDFDFDFcCcCcCcCcCDFDFDFDFcCcCcCcCcCcCcCcCcCcCcCcCcCcCcCcCcCcCcCcCcCcCcCcCcCcCcCcCcCcCcCcCcCcCcCcCcCcCcCcCcCcCcCcCcCcCcCcCcCcCcCcCcCcCcCcCcCcCcCcCcCcCcCcCcCcCcCcCcCcCcCcCcCcCcCcCcCcCcCcCcCcCcCcCcCcCcCcCcCcCcCcCcCcCcCcCcCcCcCcCcCcCcCcCcCcCcCcCcCcCcCcCcCcCcCcCcCcCcCcCcCcCcCcCcCcCcCcCcCcCcCcCcCcCcCcCcCcCcCcCcCcCcCcCcCcCcCcCcCcCcCcCcCcCcCcCcCcCcCcCcCcCDFfCDFDD'GJF(lIjf1hF*lXlpjXjKjJadafi~iPj9j}iY=    ",
"                                                $BXjZk q!lHq1mSj+kXk&lpj8kxj&l-k^kQ:ijYj{jp5Gmylx:9j.mzl~igi-j jHm1jXaY8Ykx:{i_18jxld-mjLj3kMjii-j*jdC81GFfCcCDFDFcCcCcCcCcCcCcCcCcCcCcCcCcCcCcCcCDFfCDFDFDFDFDFfCDFcCcCcCcCcCcCcCcCcCcCcCcCcCcCcCcCcCcCcCcCcCcCcCcCcCcCcCcCcCcCcCcCcCcCcCcCcCcCcCcCcCcCcCcCcCcCcCcCcCcCcCcCcCcCcCcCcCcCcCcCcCcCcCcCcCcCcCcCcCcCcCcCcCcCcCcCcCcCcCcCcCcCcCcCcCcCcCcCcCcCcCcCcCcCcCcCcCcCcCcCcCcCcCcCcCcCcCcCcCcCcCcCcCcCcCcCcCcCcCcCcCcCcCcCcCcCcCcCcCcCcCcCcCcCcCcCcCcCcCcCcCcCcCcCcCcCcCcCcCcCcCcCcCcCcCcCcCcCcCcCcCcCcCcCDFfCcCDDDDEFiif10kSj,kyj8kSl8j2jejq8Wlu(y53mQj    ",
"                                                8kxjvj'l,k.kh^1mRj^kIlZkXjlBu({A+&sm5jr3}i.m~i-j+jYkjimidjii2k3kLj4j6k*j(lgizl6khimigm(lYk+j,jdj%lgi,jVaDFDFcCDFDFcCcCcCcCcCcCcCcCcCcCcCcCcCcCcCcCDFDFDFDFDFDFDFDFDFcCcCcCcCcCcCcCcCcCcCcCcCcCcCcCcCcCcCcCcCcCcCcCcCcCcCcCcCcCcCcCcCcCcCcCcCcCcCcCcCcCcCcCcCcCcCcCcCcCcCcCcCcCcCcCcCcCcCcCcCcCcCcCcCcCcCcCcCcCcCcCcCcCcCcCcCcCcCcCcCcCcCcCcCcCcCcCcCcCcCcCcCcCcCcCcCcCcCcCcCcCcCcCcCcCcCcCcCcCcCcCcCcCcCcCcCcCcCcCcCcCcCcCcCcCcCcCcCcCcCcCcCcCcCcCcCcCcCcCcCcCcCcCcCcCcCcCcCcCcCcCcCcCcCcCcCcCcCcCcCcCcCcCcCDFfCDF'GDD'GiiYjRl1m1mVkQj2mfj5kmrt@zj&lxj8kpj    ",
"                                                xj&l+kojIlnr`.]k'k{iq8J:(nziLj3kGj-j,j+jfiYkfi jyiLjF28jorZn4qprym2>1T}i-j/jInqrkmVokm%lrj>Clj)lt@njSOUl&2EFEFcCDFDFDFcCcCcCcCcCcCcCcCcCcCcCcCcCcCcCcCcCcCcCcCcCcCcCcCcCcCcCcCcCcCcCcCcCcCcCcCcCcCcCcCcCcCcCcCcCcCcCcCcCcCcCcCcCcCcCcCcCcCcCcCcCcCcCcCcCcCcCcCcCcCcCcCcCcCcCcCcCcCcCcCcCcCcCcCcCcCcCcCcCcCcCcCcCcCcCcCcCcCcCcCcCcCcCcCcCcCcCcCcCcCcCcCcCcCcCcCcCcCcCcCcCcCcCcCcCcCcCcCcCcCcCcCcCcCcCcCcCcCcCcCcCcCcCcCcCcCcCcCcCcCcCcCcCcCcCcCcCcCcCcCcCcCcCcCcCcCcCcCcCcCcCcCcCcCcCcCcCcCcCcCcCcCcCcCcCcCcCDFDFcC'GEFDF(lwm%nHE:JsmY=ejgiPjgj~Q/kxj8k;kXk    ",
"                                                lBY6~Qim{jrr=PUl4jMj/j+jYkYk+j,jdj~iA)T&arrj5k>Cfjhj!njji0`q[m+kvjwj(k5j2k~izlOqsrtr+mNm1kEATlY6^kRl$B7j=a'G'GcCDFfCDFcCcCcCcCcCcCcCcCcCcCcCcCcCcCcCcCcCcCcCcCcCcCcCcCcCcCcCcCcCcCcCcCcCcCcCcCcCcCcCcCcCcCcCcCcCcCcCcCcCcCcCcCcCcCcCcCcCcCcCcCcCcCcCcCcCcCcCcCcCcCcCcCcCcCcCcCcCcCcCcCcCcCcCcCcCcCcCcCcCcCcCcCcCcCcCcCcCcCcCcCcCcCcCcCcCcCcCcCcCcCcCcCcCcCcCcCcCcCcCcCcCcCcCcCcCcCcCcCcCcCcCcCcCcCcCcCcCcCcCcCcCcCcCcCcCcCcCcCcCcCcCcCcCcCcCcCcCcCcCcCcCcCcCcCcCcCcCcCcCcCcCcCcCcCcCcCcCcCcCcCcCcCcCcCcCcCcCDFDFcC'GDFHFP3%l}iurd-2jLj&k*j.jfj]kY6*l$BU&ni    ",
"                                                Hj3kHj6k<j?m?mHj3kuq{ptr-q5j4?^mWl%*lBvrwrVj0kVjVj7k0k0kVjVj0k0k0kVjU&P,vl3j@)Y60k0koj1m1m1m1mVloi1mRjYj<aDDDDcCDFfCDFcCcCcCcCcCcCcCcCcCcCcCcCcCcCcCcCcCcCcCcCcCcCcCcCcCcCcCcCcCcCcCcCcCcCcCcCcCcCcCcCcCcCcCcCcCcCcCcCcCcCcCcCcCcCcCcCcCcCcCcCcCcCcCcCcCcCcCcCcCcCcCcCcCcCcCcCcCcCcCcCcCcCcCcCcCcCcCcCcCcCcCcCcCcCcCcCcCcCcCcCcCcCcCcCcCcCcCcCcCcCcCcCcCcCcCcCcCcCcCcCcCcCcCcCcCcCcCcCcCcCcCcCcCcCcCcCcCcCcCcCcCcCcCcCcCcCcCcCcCcCcCcCcCcCcCcCcCcCcCcCcCcCcCcCcCcCcCcCcCcCcCcCcCcCcCcCcCcCcCcCcCcCcCcCcCcCcCafaf=gDDJFxr)EEFdC5r_rMqp54?/jeC,jMjzi9j3kHj6k    ",
"                                                9jUlfjYP^m]k2mu(2>ZqRrtjVkwl1m)k.kXk<k;k8kwjvj+kVl$BV%imIm|lGmylG;9jMjda0jq8b'(kwjwjpj.kSlU&jjb't@SO{iKjs6DFcCcCcCDFDFcCcCcCcCcCcCcCcCcCcCcCcCcCcCcCcCcCcCcCcCcCcCcCcCcCcCcCcCcCcCcCcCcCcCcCcCcCcCcCcCcCcCcCcCcCcCcCcCcCcCcCcCcCcCcCcCcCcCcCcCcCcCcCcCcCcCcCcCcCcCcCcCcCcCcCcCcCcCcCcCcCcCcCcCcCcCcCcCcCcCcCcCcCcCcCcCcCcCcCcCcCcCcCcCcCcCcCcCcCcCcCcCcCcCcCcCcCcCcCcCcCcCcCcCcCcCcCcCcCcCcCcCcCcCcCcCcCcCcCcCcCcCcCcCcCcCcCcCcCcCcCcCcCcCcCcCcCcCcCcCcCcCcCcCcCcCcCcCcCcCcCcCcCcCcCcCcCcCcCcCcCcCcCcCcCcCcCafafPgd`EDGDyr[bob2jr3^K.=3kJa81;1Ja=a_meo9j>C    ",
"                                                1k]kRLni$BRlSj&l8k8kpj<kWk-kUj(kVj^ktjQj3m$BJl~Qf1^mNmP,5kLj~imifi(l<aXa jx:^mhFQj)M%F1Tt@hj8jF2jJLj%l1jDDfCDFcCcCDFDFcCcCcCcCcCcCcCcCcCcCcCcCcCcCcCcCcCcCcCcCcCcCcCcCcCcCcCcCcCcCcCcCcCcCcCcCcCcCcCcCcCcCcCcCcCcCcCcCcCcCcCcCcCcCcCcCcCcCcCcCcCcCcCcCcCcCcCcCcCcCcCcCcCcCcCcCcCcCcCcCcCcCcCcCcCcCcCcCcCcCcCcCcCcCcCcCcCcCcCcCcCcCcCcCcCcCcCcCcCcCcCcCcCcCcCcCcCcCcCcCcCcCcCcCcCcCcCcCcCcCcCcCcCcCcCcCcCcCcCcCcCcCcCcCcCcCcCcCcCcCcCcCcCcCcCcCcCcCcCcCcCcCcCcCcCcCcCcCcCcCcCcCcCcCcCcCcCcCcCcCcCcCcCcCcCcCcCafzrPg9d{r5/SG|r}r8j7jq8Mj,j*j,jHj9jKjoqnoxq:J    ",
"                                                  1m)kUj-kXk<kxjwjpjWkh^Vk2>%*Nj{j_1sjY=3jrjLj3kMjyi0jji+jfi*jHm/j6k3jLj2kgizlJ:ur~r sHj%ldjmijifi<aJar4BBfCfCDFcCDFDFcCcCcCcCcCcCcCcCcCcCcCcCcCcCcCcCcCcCcCcCcCcCcCcCcCcCcCcCcCcCcCcCcCcCcCcCcCcCcCcCcCcCcCcCcCcCcCcCcCcCcCcCcCcCcCcCcCcCcCcCcCcCcCcCcCcCcCcCcCcCcCcCcCcCcCcCcCcCcCcCcCcCcCcCcCcCcCcCcCcCcCcCcCcCcCcCcCcCcCcCcCcCcCcCcCcCcCcCcCcCcCcCcCcCcCcCcCcCcCcCcCcCcCcCcCcCcCcCcCcCcCcCcCcCcCcCcCcCcCcCcCcCcCcCcCcCcCcCcCcCcCcCcCcCcCcCcCcCcCcCcCcCcCcCcCcCcCcCcCcCcCcCcCcCcCcCcCcCcCcCcCcCcCcCcC;g;gDF)GtLEf!sde#s$s%sq5~Q2jdj6k5k4?ij$BXjUkqqHq1m    ",
"                                                  .k/kVlVjzj:kZkXjeKnin@nj6j{ixl3jzlyiji*jYkHm j0jyizlPjzimj}i.=^rtqbo6K.=jiXa*jfi&s;aLq0jdj%lMj3kPjPj%l&2'GDFcCcCDFDFcCcCcCcCcCcCcCcCcCcCcCcCcCcCcCcCcCcCcCcCcCcCcCcCcCcCcCcCcCcCcCcCcCcCcCcCcCcCcCcCcCcCcCcCcCcCcCcCcCcCcCcCcCcCcCcCcCcCcCcCcCcCcCcCcCcCcCcCcCcCcCcCcCcCcCcCcCcCcCcCcCcCcCcCcCcCcCcCcCcCcCcCcCcCcCcCcCcCcCcCcCcCcCcCcCcCcCcCcCcCcCcCcCcCcCcCcCcCcCcCcCcCcCcCcCcCcCcCcCcCcCcCcCcCcCcCcCcCcCcCcCcCcCcCcCcCcCcCcCcCcCcCcCcCcCcCcCcCcCcCcCcCcCcCcCcCcCcCcCcCcCcCcCcCcCcCcCcCcCcCcCcCcCcCcCmEmEtL)G.E's(s)s*s+s,s:+y?GjVocmdq-s*kwjwj8k.s/s0s    ",
"                                                  Q:ijWl_%)lIjUlKjej.mzl~igi-j jHmYkHm jgiPjjJq8_)6jn@dBU&Xj3mZk q-nRlJl|iGjr4&2=aJn.mUl_)|lImim~Qu(eKnj0j81'GEFcCDFDFcCcCcCcCcCcCcCcCcCcCcCcCcCcCcCcCcCcCcCcCcCcCcCcCcCcCcCcCcCcCcCcCcCcCcCcCcCcCcCcCcCcCcCcCcCcCcCcCcCcCcCcCcCcCcCcCcCcCcCcCcCcCcCcCcCcCcCcCcCcCcCcCcCcCcCcCcCcCcCcCcCcCcCcCcCcCcCcCcCcCcCcCcCcCcCcCcCcCcCcCcCcCcCcCcCcCcCcCcCcCcCcCcCcCcCcCcCcCcCcCcCcCcCcCcCcCcCcCcCcCcCcCcCcCcCcCcCcCcCcCcCcCcCcCcCcCcCcCcCcCcCcCcCcCcCcCcCcCcCcCcCcCcCcCcCcCcCcCcCcCcCcCcCcCcCcCcCcCcCcCDFDFDFcCEF'GKFJbDFV01s2s3s4s5s6s7s8sco9sQmn@*k&lwjwj:s;s<s=s    ",
"                                                  sm5jY=Kjvl%l+j*jYkfi j/jeoMjvlzi(nG;H95jp5t@uHjj2>h^'l;kwjwjxj&lqjh^2>_%2k<ahi}i~p|lyqjjeKtjoj-k&lxjZkvls6DD'GcCDFDFcCcCcCcCcCcCcCcCcCcCcCcCcCcCcCcCcCcCcCcCcCcCcCcCcCcCcCcCcCcCcCcCcCcCcCcCcCcCcCcCcCcCcCcCcCcCcCcCcCcCcCcCcCcCcCcCcCcCcCcCcCcCcCcCcCcCcCcCcCcCcCcCcCcCcCcCcCcCcCcCcCcCcCcCcCcCcCcCcCcCcCcCcCcCcCcCcCcCcCcCcCcCcCcCcCcCcCcCcCcCcCcCcCcCcCcCcCcCcCcCcCcCcCcCcCcCcCcCcCcCcCcCcCcCcCcCcCcCcCcCcCcCcCcCcCcCcCcCcCcCcCcCcCcCcCcCcCcCcCcCcCcCcCcCcCcCcCcCcCcCcCcCcCcCcCcCcCcCcCcCcCEFEFcCDFfC>sLF*GWI?s@sAs  BsCsDsEs~r+luSFsGsHsIsJsKsLsloMs    ",
"                                                  /j,j+jfi*jYk-j6k9j?Gr?gj'rNsjjU&XjUkQjWjRloj)kSj-k<k;k8kwjwjyjXlVjJlImxlgiPj]k3mWjRl1mSjXl,k'lvjxj8k:k3jr4EF'GEFDFDFcCcCcCcCcCcCcCcCcCcCcCcCcCcCcCcCcCcCcCcCcCcCcCcCcCcCcCcCcCcCcCcCcCcCcCcCcCcCcCcCcCcCcCcCcCcCcCcCcCcCcCcCcCcCcCcCcCcCcCcCcCcCcCcCcCcCcCcCcCcCcCcCcCcCcCcCcCcCcCcCcCcCcCcCcCcCcCcCcCcCcCcCcCcCcCcCcCcCcCcCcCcCcCcCcCcCcCcCcCcCcCcCcCcCcCcCcCcCcCcCcCcCcCcCcCcCcCcCcCcCcCcCcCcCcCcCcCcCcCcCcCcCcCcCcCcCcCcCcCcCcCcCcCcCcCcCcCcCcCcCcCcCcCcCcCcCcCcCcCcCcCDFDFDFDFDFcCcCEFEF'GBBDDEFCDhc@DADOsPsQsTb    RsSsTs1nUsVsWsXsYsZs[sV+]s^s_s`s    ",
"                                                  ~izlPjzirj3jF24?1k]k2m-sup^q+k;kwj8kpj<kWkTjSj(kVj^ktjZkXj$BY6;#HEp5J:6k+j5k3m8kpj&luj*k)k1m7kVkWjZkuHej91JFcCEFDFDFcCcCcCcCcCcCcCcCcCcCcCcCcCcCcCcCcCcCcCcCcCcCcCcCcCcCcCcCcCcCcCcCcCcCcCcCcCcCcCcCcCcCcCcCcCcCcCcCcCcCcCcCcCcCcCcCcCcCcCcCcCcCcCcCcCcCcCcCcCcCcCcCcCcCcCcCcCcCcCcCcCcCcCcCcCcCcCcCcCcCcCcCcCcCcCcCcCcCcCcCcCcCcCcCcCcCcCcCcCcCcCcCcCcCcCcCcCcCcCcCcCcCcCcCcCcCcCcCcCcCcCcCcCcCcCcCcCcCcCcCcCcCcCcCcCcCcCcCcCcCcCcCcCcCcCcCcCcCcCcCcCcCcCcCcCcCcCcCcCcCcCcCcCcCcCcCcCcCDFfCJFCDFFGF+E)E@b-aasbscsds    esfsgshsisjskslsmsnsospsqsrsssts    ",
"                                                  %*,nWjRjVj0kojojoj0k0kojoj1m1m1m0kRl*leK{Af1{lSOGmY=(nLj3kHjHj6kzlMj.jHm9aPj1TVj:ky51Tnj|ismFIr3}i.miiVaDFHFfCcCDFDFcCcCcCcCcCcCcCcCcCcCcCcCcCcCcCcCcCcCcCcCcCcCcCcCcCcCcCcCcCcCcCcCcCcCcCcCcCcCcCcCcCcCcCcCcCcCcCcCcCcCcCcCcCcCcCcCcCcCcCcCcCcCcCcCcCcCcCcCcCcCcCcCcCcCcCcCcCcCcCcCcCcCcCcCcCcCcCcCcCcCcCcCcCcCcCcCcCcCcCcCcCcCcCcCcCcCcCcCcCcCcCcCcCcCcCcCcCcCcCcCcCcCcCcCcCcCcCcCcCcCcCcCcCcCcCcCcCcCcCcCcCcCcCcCcCcCcCcCcCcCcCcCcCcCcCcCcCcCcCcCcCcCcCcCcCcCcCcCcCDFDFDFfCfCfCfCJFGFbC*E@D(EAD-ETa&Excus'svswsxs      yszs{s|s}s~s t!t#t$t%t&t          ",
"                                                  Xk<k;k8kwjxjWk0kQjQ:ijYj{j)lIj>CKjziPjzl%ldjmi jfiYkfijiyiPjjJF2YPMoHE4?/j(l9jUlzizlii-j jHm*j1j<a;ada'2fCFFcCEFDFDFcCcCcCcCcCcCcCcCcCcCcCcCcCcCcCcCcCcCcCcCcCcCcCcCcCcCcCcCcCcCcCcCcCcCcCcCcCcCcCcCcCcCcCcCcCcCcCcCcCcCcCcCcCcCcCcCcCcCcCcCcCcCcCcCcCcCcCcCcCcCcCcCcCcCcCcCcCcCcCcCcCcCcCcCcCcCcCcCcCcCcCcCcCcCcCcCcCcCcCcCcCcCcCcCcCcCcCcCcCcCcCcCcCcCcCcCcCcCcCcCcCcCcCcCcCcCcCcCcCcCcCcCcCcCcCcCcCcCcCcCcCcCcCcCcCcCcCcCcCDFDFDFDFDFcCcCcCcCEFEF'G'G'GBBBBDDEFcCJFGF+EkEBD(EAD-E'E-E(E@D,EbCIF~BFDIb*G't(t)t*t                                          ",
"                                                  wlVktjQj3mlBe$Yj7j@)5jr3(nvliiji*jYk+j jmi.j~i6kej(nG;H95jp5{lb'nitjojij6k&21j+j1j*j,jgihi6k2j9j}ijJ}iMjY8fCEF'GDFDFcCcCcCcCcCcCcCcCcCcCcCcCcCcCcCcCcCcCcCcCcCcCcCcCcCcCcCcCcCcCcCcCcCcCcCcCcCcCcCcCcCcCcCcCcCcCcCcCcCcCcCcCcCcCcCcCcCcCcCcCcCcCcCcCcCcCcCcCcCcCcCcCcCcCcCcCcCcCcCcCcCcCcCcCcCcCcCcCcCcCcCcCcCcCcCcCcCcCcCcCcCcCcCcCcCcCcCcCcCcCcCcCcCcCcCcCcCcCcCcCcCcCcCcCcCcCcCcCcCcCcCcCcCcCcCcCcCcCcCcCcCcCcCcCcCcCcCcCcCcCcCcCcCcCEFEFcCcCDFfCJFJFCDCDCDFFGFHFbC*E,EBDAD-E'Ef`f`-E@D,E~BCD C+tjERefd5X,t-t                                            ",
"                                                  ^m_1fj>C}i4k.m2kiidj0jjifi1j*j0jzl9jUlfj_1^m]kTleKXjUkQjWjRl0k(kUjuj'lJlej24Vajizl5k_)iD:JTl[klB3mUkU&{ljicCDDDDcCDFDFDFcCcCcCcCcCcCcCcCcCcCcCcCcCcCcCcCcCcCcCcCcCcCcCcCcCcCcCcCcCcCcCcCcCcCcCcCcCcCcCcCcCcCcCcCcCcCcCcCcCcCcCcCcCcCcCcCcCcCcCcCcCcCcCcCcCcCcCcCcCcCcCcCcCcCcCcCcCcCcCcCcCcCcCcCcCcCcCcCcCcCcCcCcCcCcCcCcCcCcCcCcCcCcCcCcCcCcCcCcCcCcCcCcCcCcCcCcCcCcCcCcCcCcCcCcCcCcCcCcCcCcCcCcCDFcCcCDFDFDFDFDFDFcCcCcCEFEF'G'GDDDDDD'GEFcCJFGF+ElE)E(EAD-E'E'E-EAD(E@DlE~B+E+E+EbCIFHFHFIFMcFFjEzK_c.t/t0t1t                                            ",
"                                                  zi&k/j+jYk*j+jmi.jGj&kvlLj4k}i^K_1|iOjn@hFXjRlUjvjwj8kxjvj'l,k.k/kojVkf16k;a6k>C4?{ljjUkRjSjXkpjwjwj9ku(iiEFDDDDcCDFfCDFcCcCcCcCcCcCcCcCcCcCcCcCcCcCcCcCcCcCcCcCcCcCcCcCcCcCcCcCcCcCcCcCcCcCcCcCcCcCcCcCcCcCcCcCcCcCcCcCcCcCcCcCcCcCcCcCcCcCcCcCcCcCcCcCcCcCcCcCcCcCcCcCcCcCcCcCcCcCcCcCcCcCcCcCcCcCcCcCcCcCcCcCcCcCcCcCcCcCcCcCcCcCcCcCcCcCcCcCcCcCcCcCcCcCcCcCcCcCcCcCcCcCcCcCcCcCcCcCcCcCcCcCcCcCcCcCcCcCcCcCcCcCcCDFDFfCJFJFJFCDCDCDFFGFHFbC*E,E@D(E-E'Ef`f`f`'EAD@D,EbCGFFFCDCDJFJFJFCDGF2tHFjE3t4t-I5t6t7t                                            ",
"                                                  Yk1j<aHm%l2j>C8j|lImim~QY6lBXj*lVkwl1m)k*k-kXk&lxjwjxj&l-k0kQju(1Tt@_1jJ*jGjt@Uk^k0kSj+kXk&lpj8kwjwjqje$.jcCEFEFcCDFfCDFcCcCcCcCcCcCcCcCcCcCcCcCcCcCcCcCcCcCcCcCcCcCcCcCcCcCcCcCcCcCcCcCcCcCcCcCcCcCcCcCcCcCcCcCcCcCcCcCcCcCcCcCcCcCcCcCcCcCcCcCcCcCcCcCcCcCcCcCcCcCcCcCcCcCcCcCcCcCcCcCcCcCcCcCcCcCcCcCcCcCcCcCcCcCcCcCcCcCcCcCcCcCcCcCcCcCcCcCcCcCcCcCcCcCcCcCcCcCcCcCcCcCDFDFDFDFDFDFDFcCcCcCcCEFEFEF'G'GDDDDDD'GcCJFFFIF~B,E@D(EAD-E'E-EAD(EBD@D)E,E~BbCIFIFIFbCbCIFHFGFGFGFGFGFFFFFGFFFFFIFIF+txK8t9t,t:t;t                                            ",
"                                                  zirj(n>CNm|l:J~QeKtjoj-k&lxjwj8k&lXk-kUj)k1mwlVk*l3mlBu({AYj_%@)FIjJ2kHm'2&k1T*kqj9kTj/kVlVjRl:kQj3mQ:^m*jJFfCDFDFDFDFDFcCcCcCcCcCcCcCcCcCcCcCcCcCcCcCcCcCcCcCcCcCcCcCcCcCcCcCcCcCcCcCcCcCcCcCcCcCcCcCcCcCcCcCcCcCcCcCcCcCcCcCcCcCcCcCcCcCcCcCcCcCcCcCcCcCcCcCcCcCcCcCcCcCcCcCcCcCcCcCcCcCcCcCcCcCcCcCcCcCcCcCcCcCcCcCcCcCcCcCcCcCcCcCcCcCcCcCcCcCcCcCcCcCcCcCcCcCcCcCcCcCcCcCcCcCcCcCcCcCEFEFcCcCDFJFCDCDCDCDCDCDFFHFbC~B,E)EBDAD-E'Ef`f`'E-E(E)E,E*E+EGFCDJFfCfCJFCDCDCDFFGFHFGFFFJFJFGFGFGFbCzKReQe'tT<<t=t                                              ",
"                                                  U&$BXjZk:kRl1mSjXl,k'lvjxj8kwjvj*kRjXjhFn@]k1k4?F23j9j4jvl2kii/j,jYkVa'2(@/jSOeK0koi2>1THE7j6KFIr35kejyi81IFGFCDDFcCcCcCcCcCcCcCcCcCcCcCcCcCcCcCcCcCcCcCcCcCcCcCcCcCcCcCcCcCcCcCcCcCcCcCcCcCcCcCcCcCcCcCcCcCcCcCcCcCcCcCcCcCcCcCcCcCcCcCcCcCcCcCcCcCcCcCcCcCcCcCcCcCcCcCcCcCcCcCcCcCcCcCcCcCcCcCcCcCcCcCcCcCcCcCcCcCcCcCcCcCcCcCcCcCcCcCcCcCcCcCcCcCcCcCcCDFDFDFDFDFcCcCcCcCEFEF'GDDDDDDDD'G'GEFDFFF~B,E@D(EAD-E-E-E-EADBD@DkE,ElE+EbCbCbCbCIFHFGFGFHFHFGFGFGFFFFFGFGFFFCDCDGFGFFFfCDD'GJFGFHFMF+EbC>t5X?t@tAt                                              ",
"                                                  pjwjwj8kpj<k+kSj(k0kRjSlIlZkXj%FTl:J|i_1fj.=9j6kmi1j(lYk+j0jdj%lMjvl2jMjHm.jH9SO!nuH6jFIH9Kjvlgi+j;adaJa'GGFHFFFfCcCcCcCcCcCcCcCcCcCcCcCcCcCcCcCcCcCcCcCcCcCcCcCcCcCcCcCcCcCcCcCcCcCcCcCcCcCcCcCcCcCcCcCcCcCcCcCcCcCcCcCcCcCcCcCcCcCcCcCcCcCcCcCcCcCcCcCcCcCcCcCcCcCcCcCcCcCcCcCcCcCcCcCcCcCcCcCcCcCcCcCcCcCcCcCcCcCcCcCcCcCcCcCcCcCcCcCcCcCcCcCcCcCcCcCcCcCcCcCEFEFEFEFcCcCDFDFJFCDCDCDCDFFFFGFIF~BkEBD(EAD-E'Ef`f`'E(E@DkElE~BIFFFCDJFJFJFJFJFJFJFCDFFFFGFGFGFGFHFGFJFfCCDFFCDDFDD(@q4dC'2'GGFMFoaBtt=CtDtEt                                              ",
"                                                  Vloj0kRl*leKn@%n'kYPfj.=mjLj3k6kzl&k&k&kzl6k3kvlPj(nFtFI)l{jYjijQ:IlRjQ:4?9jyi0jGjMjhi2kMj&kzl6kvlLjKj3jYk46fCFFDFcCDFDFcCcCcCcCcCcCcCcCcCcCcCcCcCcCcCcCcCcCcCcCcCcCcCcCcCcCcCcCcCcCcCcCcCcCcCcCcCcCcCcCcCcCcCcCcCcCcCcCcCcCcCcCcCcCcCcCcCcCcCcCcCcCcCcCcCcCcCcCcCcCcCcCcCcCcCcCcCcCcCcCcCcCcCcCcCcCcCcCcCcCcCcCcCcCcCcCcCcCcCcCcCcCcCcCcCcCcCcCcCDFDFDFDFfCfCfCDFDFfCJFCDGFbC~B)E(EAD(E(EADADAD(E)E,E*E+EbCIFHFGFGFHFGFGFHFHFGFGFGFGFFFFFCDJFCDGFHFGFFFJFfCfCJFJFfC'G46Y8q4BBDD91JajivlylGtkmQ`GFHt-IItJtKtLt                                              ",
"                                                  ^KG;Kjej.m&kgiCmCrfi1j(l1jHm.j9jxl8j)l7jRLhFU&XjUktjVk7kVlh^Xl,k'lpj8kVlWlP,/jYkzlG;_1%nf1~QY6y53mQjtjQ:}i=a(@cCEFEFDFDFcCcCcCcCcCcCcCcCcCcCcCcCcCcCcCcCcCcCcCcCcCcCcCcCcCcCcCcCcCcCcCcCcCcCcCcCcCcCcCcCcCcCcCcCcCcCcCcCcCcCcCcCcCcCcCcCcCcCcCcCcCcCcCcCcCcCcCcCcCcCcCcCcCcCcCcCcCcCcCcCcCcCcCcCcCcCcCcCDFDFDFDFDFDFDFcCcCcCEFEFEFEF'G'GDDDDDDEFDFJFFFIF~B,E@D(EAD-E'E-EAD(E@D)EkE*E+EbCIFIFIFbCIFHFGFGFFFFFGFGFFFFFGFFFFFFFFFFFFFFFFFCDfCcC'GEFCDGFFFCDcCDDBBDD3;(@&2(l%l9j+jVaji5kimQjRjV%2ki2;g86`QMtNtOt                                                ",
"                                                  ji1j(l1jfiji_run6kPjejrj5k>Clj1kuHjju(*l/kqjpjwjwjxjvj'l,k.k/kVlVjSlZk;#smjJMjPjGm+&hFWj1m-k&lxjwjwjwj(k5j0js6fCEFEFDFDFcCcCcCcCcCcCcCcCcCcCcCcCcCcCcCcCcCcCcCcCcCcCcCcCcCcCcCcCcCcCcCcCcCcCcCcCcCcCcCcCcCcCcCcCcCcCcCcCcCcCcCcCcCcCcCcCcCcCcCcCcCcCcCcCcCcCcCcCcCcCcCcCcCcCcCcCcCcCcCcCcCcCcCcCcCcCcCcCcCcCcCcCcCcCcCEFEFcCcCDFJFCDCDCDCDCDCDGFIFbC~B,E)EBD(E-E'Ef`f`'E-EBDkElE~BHFFFJFfCfCfCJFJFJFCDFFFFFFFFFFGFGFGFFFCDJFfCJFCDCDCDJFEFBB4646BBBB46'2fi%l.j:a&2eC,j}iJj6jPjji-jP,y5<k;kWj}ipbe9SVcfPtQt                                                  ",
"                                                  (l+j%lPjjJq86KQqJ*hFeK2>3mQjWj7k)kSj.k,k<kpj8kwj8k&l-k0kQjQ:ijWl_%8j.=2j-jdj9jgjQ:ojUjuj'lvjxj8kwjwjwjh^@)hiP3IFDFEFDFDFcCcCcCcCcCcCcCcCcCcCcCcCcCcCcCcCcCcCcCcCcCcCcCcCcCcCcCcCcCcCcCcCcCcCcCcCcCcCcCcCcCcCcCcCcCcCcCcCcCcCcCcCcCcCcCcCcCcCcCcCcCcCcCcCcCcCcCcCcCcCcCcCcCcCcCcCcCcCcCDFDFDFDFDFcCcCcCcCEF'G'G'G'GDDDD'GEFDFCDHF~B,E@D(EAD-E-E'E-EADBD@DkE,E*E+EIFIFIFIFIFIFHFHFHFFFFFFFFFFFFFCDCDGFHFGFFFCDJFfCJFJFFFCDfCDDDDcCfCJFJFfCBB(@s6r4'2Ja*j2kIj:J6jPjYk*j9jb'^k2>F2.j<aLj2m/k<kojzpRtqeStTtUtVt                                                  ",
"                                                  5kr3Gmhjt@uH%FhqWtqjpj8kwjwjxj<k+k*k)k1m7kzjWj*l$BY6{AYj_%sm5jY=mjhifi9aq4<a4k|i^k9k-kh^oiVjRl:k*lUk$B{AF2-jEF,ECDEFcCDFcCcCcCcCcCcCcCcCcCcCcCcCcCcCcCcCcCcCcCcCcCcCcCcCcCcCcCcCcCcCcCcCcCcCcCcCcCcCcCcCcCcCcCcCcCcCcCcCcCcCcCcCcCcCcCcCcCcCcCcCcCcCcCcCcCcCcCcCcCcCcCcCcCcCcCcCcCcCcCcCcCcCcCcCEFEFcCcCDFfCJFCDCDCDCDFFGFIF+E*EkEBD(E-E'Ef`f`f`'E(E@DkElE+EIFCDfCfCJFJFJFJFCDCDFFFFFFGFGFGFFFJFfCCDGFHFGFCDDFEFcCDFfC'G81q4eC:a9a918124Gj4j4k6kfi=ajimjRLwlQ:ylyiHm3jQ:Wk/k^mej<aiiiDUk+k.kmmXtKbYtZt[t]t                                                  ",
"                                                  3m*lSlRjoj)kXlXk<kpj8kwjwjwjyj)kZkdBn@]kiDsm5jr3(n4j3khigi/j,jHm*j*jHmYkVa1jhiIjU&VlXj{AimImp5Nm^Kx:mjHj*j91~B@DHFDFcCcCcCcCcCcCcCcCcCcCcCcCcCcCcCcCcCcCcCcCcCcCcCcCcCcCcCcCcCcCcCcCcCcCcCcCcCcCcCcCcCcCcCcCcCcCcCcCcCcCcCcCcCcCcCcCcCcCcCcCcCcCcCcCcCcCDFDFcCcCDFDFDFDFDFcCcCcCcCEFEF'GDDDDDDDD'GEFcCJFIFlE)EBD(EAD-E'E'E-E(E@D)E,E*E~B+EbCIFbCIFHFHFHFHFGFGFFFFFFFGFGFGFGFFFFFFFCDCDFFFFFFJFEFDDEFJFFFHFFFEFBB3;BBBBr4Ja<ayi(nrjjiVa&kWl2>$B]kHjXaVarjZkXktjgjHj<a2k+&Slh^1TFI,j jfjn@)k9k0#vliG^t_t`t                                                    ",
"                                                  wj8k;kyjqj+kh^1m7kVktjZkXj$BJluHkjgjfjUlmj3kyi+j(l*jHm j/jii2kHjLjKj>CY=jJej%l9jImVratNm^K3jPj%l j<aVaVa9a&8GFlEbCFFfCcCcCcCcCcCcCcCcCcCcCcCcCcCcCcCcCcCcCcCcCcCcCcCcCcCcCcCcCcCcCcCcCcCcCcCcCcCcCcCcCcCcCcCcCcCcCcCcCcCcCcCcCcCcCcCcCcCcCcCcCcCcCcCcCcCcCcCcCcCcCcCcCcCcCcCcCDFDFfCJFJFCDCDCDCDFFGFHFbClE@D(EAD-E'Ef`f`f`-E@DkElE+EHFFFCDJFfCJFJFJFJFCDFFFFFFGFFFFFGFGFGFFFCDJFJFCDFFFFCDJFcC3;4681'GDD91XaHm.jhi/j24da.jKjNmImp5Hj*jej3m;k8k*l^K+j9a2jUkyj1m]k.=*j,jGm~Qh^Wj%n~i(l4jSORj;kbtctdtetft                                                      ",
"                                                  wj;k'l.kwl3m{A]k1k_1wmUl}i9jLjzlii/j jHmYk*j1j*j/jziY=5jsmiDWlV%u(2>QjZk2>nj6kYkPj4kgi&r+jYk1j(l<a;afiuncmeo>aCFKK~BJFEFcCcCcCcCcCcCcCcCcCcCcCcCcCcCcCcCcCcCcCcCcCcCcCcCcCcCcCcCcCcCcCcCcCcCcCcCcCcCcCcCcCcCcCcCcCcCcCcCcCcCcCcCcCcCDFDFDFDFDFDFDFcCcCcCEFEFEFEF'G'GDDDD'GEFDFJFGFbC*E)EBD(EAD-E'E-EAD(E)EkElE+EbCIFIFIFIFbCHFHFHFGFFFFFFFFFFFFFFFGFGFGFGFGFGFFFJFfCJFJFCDCDJFDFEFCDGFGFCDEF3;(@s6s6(@eC.jKjIj1kHEhj-j+j5kNj:kVjjj5k1jGjQ:'l;k7k_%mj1jgib'-kXlU&hjgi*j(n7jh^uje$LjJaHmP,*l8kgthtitjtkt                                                      ",
"                                                  XjU&dBij:J|iGmUl9j&kdjHm(l(l*jji-jgiMjvl4jrj(nx:fj|iWlijQ:Uk7kTj&lxjwj;k'lhFHj'2Yk0j&ryiltHjLjrj}ijJr3zpNl^r,jBB~BlEJF'GcCcCcCcCcCcCcCcCcCcCcCcCcCcCcCcCcCcCcCcCcCcCcCcCcCcCcCcCcCcCcCcCcCcCcCcCcCcCcCcCcCcCcCcCcCcCcCcCcCcCcCcCcCcCcCcCcCcCcCcCcCEFEFcCcCDFJFCDCDCDCDCDFFGFHFIF+ElE)EBDAD-E'Ef`f`'E-EBD,E*EbCGFCDJFJFfCfCCDJFJFCDFFFFFFFFFFGFCDCDJFJFCDFFFFFFCDcC'GEFcCfCDFBB91XaVa&2'GBBVamiHjzi3kdaVa2kxl!nUk0kniHj+j>Cy5&lxjSl_)iidjf1Vl'lUje$Jj-j+j|loi'lVlb'3k=a%l_))kwjUkG;=aJa9jY6<kmtntotpt                                                        ",
"                                                  3k6kzl&kMjMj&k6k6k6kvl4j{mFtlj|l+&RLQ:Zkzj0koj1moi)k/k)k)k)k)k/k)kVlojVky5kj.jVa.mq81kxphFy5IlRj0kojVlPph^{A.m81bCxcFFDFcCcCcCcCcCcCcCcCcCcCcCcCcCcCcCcCcCcCcCcCcCcCcCcCcCcCcCcCcCcCcCcCcCcCcCcCcCcCcCcCcCcCcCcCcCcCcCcCcCcCcCcCcCcCDFDFDFfCfCfCfCJFJFFFHFbC*EkE@DBDADADAD-EADBD)EkE,E+EIFHFGFGFHFHFHFHFGFGFGFHFHFGFFFCDCDGFFFFFFFFFCDCDFFFFCDcCDD814681DDfCcCq4<afifi:a(@P3<a~i>CJjY=1j9a.m4?u(VjY62j9a(ljJQ:,k<kIlG;:a6kim0kqj/k1TFI.jsj2m)k9koiNjHj:ax:SlxjyjlB5k;a=a}izjxjVk4?&k;a&k:JRlqtrtstttut                                                      ",
"                                                  Dm2nRqWrFI6K]k{Au(lB3mQjtjVkwloi*k+k'lvjxjwjwjwjpjXlVjZkdBTl:Jxq4?yl3j4j2kji24hiYjRl/k+kqj<kpj8kwjwjwjvtwtOTxt;1GFyt,EbCEFcCDFcCcCcCcCcCcCcCcCcCcCcCcCcCcCcCcCcCcCcCcCcCcCcCcCcCcCcCcCcCDFDFDFDFDFcCcCcCcCcCcCEFEF'GDDDDDDDD'GEFcCJFIFlE)EBD(EAD-E'E'E-E(E@D)E,E*E~B+EIFIFbCIFHFHFHFHFGFFFFFFFFFGFGFGFGFFFFFFFGFGFCDJFfCfCCDCDJFfCcCEFcCFFFFDF81P3s624<aVaBBdC.=1knj+&Ij*jJa9j'kXj1m1TvldC(l>CZkwj(kfj-jdavl2m/k<k(k'kji-j8jjjSj9koiNj%lGj_)SlxjvjeKrjJa6k3mwjwjSl8jGj:a&ke$Xk/kij5j0j jxluHzt{t|t}t~t                                                      ",
"                                                   u4o1kEA1TJlRl-k&lxjwjwj8kxjvjWk.k/k1m7kVktjQj3mU&;#HEkjgjlj7qQp<j0r;adaVaeCY83kni,kWk0stn!u#u$u%u&u`q]r'uRN(ur6bCAD-E)EDF'GEFcCcCcCcCcCcCcCcCcCcCcCcCcCcCcCcCcCcCcCcCcCcCcCcCcCcCcCcCcCcCcCcCcCcCEFEFcCcCDFDFfCJFJFCDCDCDCDFFGFHFbClE@DBD(E-E'Ef`f`f`-E@DkElE+EHFFFCDfCfCJFJFJFJFCDCDFFFFFFGFHFGFFFCDCDCDFFGFHFFFfCEF'G'GcCDFDDY8eC:a=aJaq4910j6kLjrj5kHj&2daYPeKVk^kYj%lVaziiDUjwjUkG;Var4Pju(&lh^6j4j<aGj{j*l,kTjb'%lfi3j%n0k;k'lu(hi1j>CZkwjwj*lP,HmGje$,kvj0k{ljJfidjnj*k,ktjImGj;a.mhQ)u*u+u,u-u                                                      ",
"                                                  tjVk7kVlh^XlXkvjxj8kwjwjxj&l-k^kQ:TlEAiD4?sjY=5k4k3k2kii/j jHmkm1j1j+jgiLj6k.uhiEAtjzq/u0u1u2u3u4u5uEs`%<=Rmfa8fR`Z`Sa-EGF'GDDcCDFDFDFDFDFcCcCcCcCcCcCcCcCcCDFDFDFDFDFDFDFcCcCcCcCcCEFEF'G'G'G'GDD'G'GEFDFJFGFbC*E)EAD-E-E-E'E-EAD(E)E,E*E+EbCIFIFbCbCbCHFHFHFGFFFFFFFFFFFGFGFGFGFFFFFFFCDFFGFGFFFJFcC'G'GJFFFGFCDEFBB46463;'GY8HmMj9j3jKjhi(l_)uHQ:JlV%)l,j:aGm:kWkWkQ:ejJa*jY=1mwjtjsj-j9a3kTlSj*kn@fj jmi_)~QSj9k%Fvl:ayiIj:k8k;ky5MjVa}iXj8kwjRlhjPjgiImIl,k*kdBgjdjYkJj0kvj,k%*PjpabrGt1m6uS;7u8u                                                      ",
"                                                  wjxjyj'l,k.k(k7kVktjQj3my5u(V%t@gjs^>CQpzldjfi<a(lfi j-jgihi>mFomj5kr3Nm6jNm@rJn*rFqQq9utl:u;u<u=u>u?uqs@uAuR(U<OsBuu`zceg>scCEFEFEFEFcCcCcCcCcCcCcCcCcCcCcCcCcCcCcCcCcCcCEFEFcCcCcCDFfCfCfCJFCDCDFFFFGFHFIF+ElE)EAD-E'Ef`f`f`'E-EBD,E+EIFFFJFfCfCJFJFJFJFJFCDFFFFFFFFFFFFGFGFGFFFCDJFfCJFCDFFFFfCEF3;(@P381BBDDY8*jyizlMjYkq41j5k_1kj{jhjUlmi^mUk+k<k/kRL&kda^KzjwjwjUkG;da244jVkxjRj'k2j(lhi%nWj.kXj1k%lYk}iImVj;kSl4kJa<aJ:Uk8kwjIl9jVaLjjj-kyj(kb'F2.jljTl/kqj7kWl2kVax:Slwjwj$B9j'2&8<j[k$nCuDuEu                                                      ",
"                                                  wjyjXl0kQjQ:b'1kgjljH9jJrjLjHjGj/j jHm*j1j(l(l+jzlJ:sj4okqFu$r?rXj3m*l:kwlijLj+jWmGu,oHuIuJuKuLuMuNuOuPuQuRuSu/WTuUuVugcjfyczKafBBBBBBDD'GEFEFEFEFEFEFEFEFEF'G'G'GDDDDDDDD'G'GcCDFJFGFbC*E,E@D(E-E'E'E'E-E(E@D)EkElE+EbCIFIFbCbCIFIFHFGFGFFFFFFFFFFFFFGFGFGFFFFFFFFFCDfCfCJFJFCDCDJFDF'GfCCDFFfCDD46P3Y8249a9aJadjylkjRLWl.=YkzlnjUkRlIl1T{i/jwmn@)k;k<kY6zi9a4j*lwjwjQjY=*jJa2jUkyj(kb'F2jimi{i%*.k)kn@.m=ayiFIWj8kwlKjJa9a(ny5;k8kwllj1j%liDUk+k-k$B^m.jej^mwlpjqjhF.mr4zl3mwjwjXjKj2491|pIjWuXuYuZu[u                                                    ",
"                                                3mXjJlV%Yj_%smF29jzldjHm(l;a(lYk,jgihi6kPj9j}ijJr34?Oj2mom]u^u]q&lwjwjwjwj8k9pEqAqrqKj_u`uaubucudueufu      guhuiujukulugcY`.aycIFCDCDCDJFJFfCDFDFfCfCfCfCJFJFfCJFJFCDCDCDCDFFFFHFIFbC*E,E)EBDAD-Ef`f`f`f`'E(E@D,E*EbCFFCDJFJFJFJFJFJFCDFFFFFFFFGFGFGFGFFFJFJFCDCDFFCDJFEF'GEFcCJFDFBB91Ja<a9a468124fi&k4kejdj*j=avl+&Qj)kSlgjmi.mNjVl'l,kIl{jyizi|iwlwjwj3m3jVaMjy5;k8k^kJjhi=azle$XkTjlBSOgiYkjJt@Uj'lQ:4k9a;aJ:Uk8koiq8,jVaPj;#.k&l/kiD j+jF2b'(k9koib'dj,jq8$Bqj'lu(Ljs6+jOjUkIlf1vlr481Ja`%munuoupuqu                                                    ",
"                                                5kmjej3k2kgi-jji*j(l<a1j+jyiPjjJIjiDEAn@e$U&3mUkQj^koj)k]qGq+r&lxjwjwjwjxjvjlB5kHjrusutuuu                  vuwuxuyuzu{uf`yc|uTaIa-E-E(E)ElEbCHFGFHFIFIFbC+E~BlEkE@DBD(EAD-E'E'E'EAD(EBD@DkElE*E+EbCbCbCbCIFHFHFIFHFGFFFFFGFGFGFGFGFGFFFFFFFFFFFFFFFFFCDDFDD'GDFCDFFFFJFBB4681BBEF3;dCYkHjP,5kYkeCjiG;im$B;#Kj1jdCPje$,k<koj'kjidj@)u(.k&lUj1TGj-jsjtjwjwjZkUl(lhiu('l;kVlWlY=Hm/j]k*k9k(kRLvl=a%l_)(kpjlBmjJa9a(ny5;kUj_%mj1jgi^m$B-k,kTliidaHj)lzj;k'l[kmi&22j2mVj1m1TPjq4246kJ:q83j*j467f}u9q~u v!v#v$v                                                    ",
"                                              fi<a(l1jYk+j0j.j&k2j4k(nx:r3FI|lt@;#Ukwlh^Wkpjwjwjwj8k&lXk-kUj(kojRj^k*lXjlBY6{j&kA)%v&v'v                      (v)v*v+v&b,veg&EBDf`Y`f`'EAD@D,E*E*ElElE*ElE,EkE@DBDAD-E'Ef`f`f`f`f`-E(E)E,E*E+EHFFFJFJFJFJFJFJFJFCDFFGFFFFFGFGFGFGFGFGFFFJFfCJFCDFFFFCDfCDD(@(@46BBDFBB=ayi~i~i jY8Y8 jej4?!n^m~ida0jxlIlwj(kIjdjeCHjjj,kvj*knjmiYkUl:J1mxj&lJl2k;ax:Ukwjwj:kIjgiGjn@/k<k.kJl6Kdjfi@)Vl;k'lu(4k9a1j>C1mwj*lyl+j9aPj{AXlXl;#Ij jfiP,imoi<kU&Mj'2YkJ:jjoj7kNjHm3;0jsmTle$7j~iP3Y8.jzi>C9jVaEFcCVozp-v.v/v0v                                                      ",
"                                                        'kt@NjY6:kRjVjoj1m(kh^Sjh^SjSjh^1v:n%r1m0kzj2>e$b't@6j_1fj.=zi3kzl2k0j&22v3v[?4v                      5v6vQs7v8v,vkE+E+E*E~BIFIFlEkE,E)E@D)EkE,E,EkE,ElE~B+EbCIFHFGFHFHFHFIFHFGFFFGFGFFFFFGFGFGFFFFFCDCDCDCDGFFFCDJFfCDFDFfCfCEF(@Y8'2q481DD'Gs6+jyiyidj*j91:a5jb'jj~Q'k,jeC3ksm:k-kY63j=aJarjeKvj.k]kJ:Ykdjp5%FXl'lY66k:a~i{iSlwj8kUkPjVa9jJl&lxjoiimP,gi4?[k*k9k(kuHHjdaG;:k8kxjXjJ:<a9a4kSl;kojOjx:*j0jJje$h^Qjkj.j&2miyl[kVldB%lDD91-j5jiD^mF29aDDda4kljgjP,;aDFdahj~Qe$SOHmDFq4zi9v:v;v<v=v                                                      ",
"                                                            +k9k;k8kwjwjwjxj&lTj:k[kJ*QqxqKqfj>C3jziHjhiyiCm>vLq*jVo(l?q?vrjzmgiA)@vzpAv                      BvCvDvEvFaFvGvKKKK*E+EFFFF+E~BIFbCbCIFHFGFHFIFIFHFGFGFFFFFFFFFGFGFFFFFFFFFFFGFGFFFFFFFGFFFJFDFEF'GEFDFJFHFFF'G3;81BBcCBBJa*jyi9jKj&k,jVahiYjU&%*{jY=<aYk|i7kWkWkQ:4jXafiP,VlwjSl8jGjda6kRL/kXl[kgjdjHm>CEA1mxjzjrj9a;aJ:UkwjwjzjP,;aMj]kRlXk+kUkkjgimj_%7kxjyj%F4kXa6kUkwjwjRlp53k:aiiTl,k+kUk|i-j24GjJjVkUk1k,jEFY8+jKjq8G;9aDFcC<aY=SO%nIj&2cCii]kU&1TYP1jEFGjY6^knj.=<aeCPmtq$B90HvIv                                                        ",
"                                                              (k7kzjWjQj3my5Y6{A{l4?3o%oJv@m@rArKv<afi jmiyilt3kejrjjJLvMv_%6jTo%os^NvOvPv                    QvRvSvTvTu,aGv~B*ElE~BGFFFIFIFFFGFGFFFCDCDCDFFGFFFFFFFGFGFFFFFGFGFFFGFGFFFCDJFfCJFCDFFFFJFcCDD8146(@3;'Gr4:a jgi2kdjeCY8Hm(nNmkj^mP,Hj1j2jXj&l.kJl)lmi*j6KoiwjwjXj}iJaeCmj0kwj7kiDrj1jGjImtjTjSl+&2k(l2jhjRlwjojG;=aJa9j%Fyjxj1m4?fidj@)u(.k9koiNjii%l_)SlwjwjZk.=<aiiniWkpj1m]kx:;a*j6K*lRlQ:6Kji46darj2mRLGm(lJFBB<a4kY=2j'2DFBBmigj!nf18j24Y8KjXjSj%*Nm(l915kSl:kIjdjdC|pUv4qY6VvWvXv                                                        ",
"                                                                kjsmljH95krj4j3k%l-j j|pVqYvZv<aFrzl.=sj4?xqyq*q?r$B3m q!l7k3mEA7roI[v]v^v                      _v`vavbvOs,E*Ehcxc~BHFGFbCbCGFHFHFGFFFFFFFGFGFFFFFFFGFGFFFCDJFJFJFGFGFFFfCDDBB'GDFGFCDcC3;P391q4dCr491zlP,YPiDYjSO6kdagiim:k7keKp5zi;a~i%*Xk,kIl{j%l;awmRjwjwj3m3jVaXamj0kwj(kb'yl+j-j_1[k+kWkni4jda0jxlIlwjoiF2ji9aPj{AXlyjUjt@mi+jq8Nj(k;k9ku(~i<a.=ZkwjwjSl_)gi-j{lSluj)k2mxl<ar44k%nEAsmKjXacCP3+jr3sj4k24CDDD%l{le$gjdacC249j{AQjimF2VamiIj:kwl^m2j249a_11m$Bmjr43;yinjcvL/dvev                                                          ",
"                                                                    .jHmfvKv&s1j jyi~i6k2j~osrkor3gjOj2m[kZq^u]q&lwjwjwjgvvt>o68hvivjvkvlv                      mvnvovpvqvkElExclE~BHFGFbCbCGFIFIFGFFFGFGFGFFFfCJFCDFFFFCDJFcCEFcCfCfCDFDDP3'2JaJas6DDY8ji2kPjzi4k~i9aKjhj1TZk0kni3j<a2k2>8kwjVlWlUl1j-jimTj9koiuH3kda5k:kwjwjQjr3fi9a4jtjpj*k[k4?-jHmP,imTjwjXjKj9a:aG;Ukwjh^sm6k;aMj:JRlXkuj;#Gj<aej^mwlwjwjXj2k&22je$,k&l^k@)&k1jF2:JeKu(7jG;9aBB/j4?SOP,hiY8fCs6,jr3P,vlr4EFdC}ieK0k^mda81,jFIWj7kkjzi;aKjImRjUk^KYks6,jWl0k{A~i'GP3vlV%rvb(svtv                                                          ",
"                                                                      (lHmdjzlKjFIiqer2mom,nZqvp*lVkoj)k*kGq+r&lxjwjwjwjvtuvvvwvxvyvzv{v|v                      }v~v w!w#wGv~J~JxcoaHFGFbCbCGFIFIFGFFFGFFFfCEFBBcCfCJFJFCDfCDD813;BB3;8191&2*jzlLjgi'2fiwm]kniJlV%@)+j2j|l3m+kqjlB5kda~iy58kwjUje${i,j j{jSj;k9kY69jVa2jZkwjwj^kJjhi=a&khFXk,k*l7jGj(lej^mUjwj3m3jVa9a}iXjwjTjHEH9Hmdj@)u(.k&l2>3kXa+jF2IlwjwjUkHjr4Gj%n*lUj*l4?2k240jejF2F2zi0j(@EF,j'k{lwm2k91'G<aG;Tlkj5kXa91yi{iWjwlFIeCeCrjImVjIlxlHm<a4?hF0khFPj91P36kJlUk7jmi46;ajJ5o$w%w&w'w                                                          ",
"                                                                          ~ptq7j;#(w)wWtXkpjwjwjwj8k*w+w,w0s>o!u-w.w/w`q$B?.x#7jdm0w1w2w3w                      4w5w6w7w,G8w9w~JxcoaHFGFbCbCGFIFIFGFCDJFDFBBP3r4&2Y8DDDDY8da,j%l%l:a'2&2*j.mP,@)p5x::a/j'ky5Tj&lUjTlyiGjJj^kwjwjQjr3YkGjhFWkpj-k$B^myifi@)Vlwjwj3m5kda&k$B8kwjVjIm}i*jyif1Tj9koiuH3k:agiIj)kwjQjr3fi9aejhFWk+k[k4?miYkY=WlVlxj^k2jq4244jV%oiVl~QMj91*jylnjQ:2myl/j91dahiH9r3&k;aBB3;zlimn@5jhi91s62k)lIl7j9jeCJa3j+&oj:k}iY8Yk{ie$oi%F9j'2fiWlWjtj]k-jDDXamj~QYjq8;a'2&kIj:w;w<w=w                                                            ",
"                                                                          HnVk7k/kXq,rSrpj8kwjwjwj>w?wvv@wAw;oBwCwDwEwJ:FwGwHwIwJwKwLwMw                          NwOwPwQwhEegeglE~BHFGFbCbCGFIFIFHFJF'G46Y8dC(l.j j91q4giG;_1%n%nvl<a;aLjHE*lzjy54?*j0jgjQ:*kxj&lY6~i*jY=Qjwjwj^kJjhigiHE7kqjujWj{l~i<awmRjwjwjZk.=(l2klBpj8kh^;#Ij j,j7jh^;k9ku(ziJa(lUl1mwj^kJj~i:aMj]kRl-kIl7jgiJa2k4?Vk8kRj2jP391.jsmf1Yj)ldj81s6,j4kIjfjMjVaP3.jwmV%V%q8/j46r4q8Zky5GmiiY8daY=imIlwm+jY8Hm{iniUjXj%lDDyiHERlojijzlP3-j[k7k;#FI;a91giJ:_1>C~iq4=aF27jRwJ)SwTwUw                                                          ",
"                                                                            gv>wVwWwXwYwZw[w]w^wZk_w682myp`wawbwcwdwewfwgwhwiwjwkwlwmwnw                          owpwqwrw8tIL,ElE~BHF2tMFMFGFIFIFFFfCDDXa~irj>CIjx::adCvl{iij:kUkJ:Hm(l3jy5pj8kUj{l j+j5j;#h^wjwjXjMjVa3j3mwjwj7k_%mjyi|i$B-k9koiNjHjda5k:kwjwjWjljdj~ijj+kvj+kUk1kgiYk4?ojwjwj3m3j9aXamjwl8kVjIm(n(lmiYPhFUjzj+&giY8(l5k2m:k{A~i813;1jJ:sm6jIjHm'GP3 j4kGmwmyir4r4Kj{l0kWjlj j(@=a1k/kIlq8Hms6 j6KJlUkmj&246yit@tjoi{AHmP3.mjj0klB^m0j913kn@ni|l4kdCeCmj{i)lH92k'21jFIRMswtwuwvwww                                                          ",
"                                                                            #uxwywRLzw{w|w}w~w x!x#x$x%x&x'x(x)x*x+x,x-x.x                                        /x0x6v1x2x8w,ElEoa2t2tMFMFGFIFHF CafcC-jkj2>wlojRLMjXaiiNmUk9k0kxlmiVa.mV%Xlyjuj;#%l1j}i%n0kwjwjZk.mVamjU&pj8kh^;#Ijyi5jij/kxjyjeKrj9a3k3m8kwj0kt@jJiikjZk+k&lUjijvldajJ:kwjwj*lP,fidC6kJl-kVjTlljYkXavlsm2>[k)lHmEF91,jY=Jjr3;a'GEF=ax:^m2m_%<aDFfiYP~QSlV%4jr4=a^mXj*k%F2j(@3;giV%UjdBPjP346Mj2m0khF~i46Y8.mTlIl~Q_1<a-j^Kijni|l4kdC9aF2JjFIP,.meC<a^KHEWjY6hj-j:a4k6j*l3x4x5x6x                                                          ",
"                                                                              7x8x=u9x:x;x<x=x>x?x@xAx                                                              BxCxDx+cEx,ElE~B2tFx:dbCGFHFGF CtLDDdj|iUkqj8k2>rjJa1j>CZkwjUj1k4k<aGjt@Sluj&l$BvldayiIj:kwjwjSlJ:=a.m;#.k&l,k*l7jgimj_%7kwjwj3m3j9ahiy5xj8kUje$Jjgi5jij/k8kpjeK4kdCMjXjwjwjRl|l3keC<aJje$;#@)zieC'G24/jY=H9vl&2JF'G-j|l;#t@HmFFcC%limwloiijYk'GMj;#h^Sj{AHj(@,j%*.k/k2m~iBBP32jXjZk_%/j8124(ny5oi|i=as6%l.=gjgjUlGjda>C^m]k%n_)ej9a(l4?Y6*lXjt@%lVa6k@))kXkhFLjXa*jY=QjgvZwGxHx                                                          ",
"                                                                              IxJxKxLxMxNxOxPx                                                                        QxRxhfSxTx*EKK2tGFbCbCGF2tGFJFtL3;0jJje$ujwjXj}iVada3j3mwjTjYjr3Hm.jhjlBTj;k:kzi9a*jY=Qjwjwjwlsj<a2k:JRjXk9koiNj%lhiJj^kwjwjQjH9Yk%le$ujvj+kZkkj.jKj7jVjwjwj$B9jr4,jimSl^ke$8j&kr4q4rj{l{lF2~is6fCs6 jUlUl6k'2DF(@3kn@Rl;#0jJF(@ziy5<kSjRLfis6ejeK-kzjOjgi81%ly5-ktj7j-j46dax:2>n@fj1jY80jr3ije$^K&2eC}i_1SOsmH9Mj<aF2Im!nNjnj5j j<aIj7kxj&lY64jXa+jylVlwjZkUl(lXaeju(9k!uUxVxWx                                                        ",
"                                                                              Xx                                                                                      YxZx[x_H]x~B^xGFGFzKzK_xxKHFCDtL816rfjn@+kwj3m5k:ada3j3mwj,k;#FI j0j8j%*Sj8kwlmj9a:aG;Ukwjwj1msmYk.jSO2>Tj;k9ku(~ifir3QjwjwjSl{iGj.j:JRjXk9k(kb'/jmiljWjwjwjy54jP39aG;8j4?wmHj<a3;81Gj)l6j^Khi91'G;ajJ1TYjxlda'GVaJ:U&/kim j3;9aJ:Uk+kUk|i1jVax:3mSjhFJj+js64j*l/k1Tfj=aY8~iGm%*6K2j'2Xa5kGmFIr3Mjs6(lsj!n3mUkn@Nmji(niDXj(koj2mvlVaKjtj8kxjy5mjJada5kojwjSl{i~i:aHjRL)kPp`xaxbx                                                        ",
"                                                                                                                                                                      cxdxUtex_HEffx*2McbCbCFxxKHFCDcCL3gx.=]kXlwjUkJ:<aVamjlBpjWku(@)/j+jF2b'(kwjojjJ:a9a(n$B8kwj/kiDji,j_)~QSjwjwjXj2kJa}iXjwjwjwl|iej,j_1ni(k-kwlWlHmeCLjimIlWjYj2k46r4&k.=FI^K%leCEF(@.m%nOjlj&ks6(@giYPVke$Nm;a(@-jNm:kSjImYks6,jljWjh^V%5j;a-jIj:koiimY==a'25kniu(hjej&2dC}iSOb'FIMjY8=afj^m{iwmKjJa*jq8RL)kXkwl:JdjMj4?VkwjwjXj}iVa6k2>;k8kIlF2jiJa2j*lvj0k%n3jYk%l1k3mqthxixjxkx                                                      ",
"                                                                                                                                                                        lxmxnxa_&^gW=WXIox[bpx2t2tqx;gvQ=azm&#UjwjQjr3fi9a4j[kXkXkQj_%ii*j3j%n0kwj1m>C1j9arjlBpj8k*kOj-jfir3imoiwjwjXjhi249j$BwjwjVlWl.=1j(nkjXjSl;#8jVa91*j9jF2lj5k1jBBq4Kj'k%*b'jJ(lBBeCGmUk2>p5Pj'2244k7jVkYjUlda&2vl'kRjoip5=a&2Hj|lRlojOj5k:aejkj7kVjImrjdCdC>C6K{i(n-jP3=axlImt@{i4k9a*j5j!nU&Zkimyi=aLjSORjpjXk[k%l(l>CZkwjwjZkUl1j2kY69k;kwl|i4k1j~i;#ujSj%*Jjdj0jwmRLtnrxsxtxux                                                      ",
"                                                                                                                                                                          vxwxxxFmyxzx>f{x|x}xWiWi{elNN0Xahi23/kwj:kNmgiVaHj2mh^qjojf1&k=aHj@)zjwj(kfjmiVa2j%*,kvj,kTlgi=aLj6jRjwjwj3mMjr4&kb'RjVjU&iD(nXadjP,Yj;#kjUl'2BB:a4j^Ksj5k<a'GdCFI1Tojy5Y=<a3;1j%nUjzj6K&k'2=a^KNjVk^mPjdCdaJ:EA1m7ksj24JajJ+&Vk*l@)&kVax:{jQ:~QGmMjY8daGm^mYPx:%lq41jIjWlNjnj5j+j*jY=HEVlvj*lPjVa/jljWjwjwjUk3kXaziJl&lxjSl8jGj%luH(k9k/k1TFI0jmi7jh^Wk^knjMj1jLj'kPp~xJl y!y                                                      ",
"                                                                                                                                                                            #y$yUt%y&y'y|_(y)yxi*y+y,y-y.y+j)Doiwj7kiD9j<aGj+&^kqjXkhFPjJa0jwmtjwjh^smzldahiEAwlXk<kU&Mj&2+jq8IlwjwjZk3ks61jY=hj_%)l3jmi(@eCGjfj6KYP3jY8EFyiIm2>*lWlyicC<a+&Vk,ky5rjr43;0j!n-kIlq8fi91fi{ihF^kIj-j911jGme$UjWjKj46:asjb'$BV%Y=+jJa.=YPNmH9Pj+j(@fi+&*llBOjP,(lYkljuHVkzjimzl;a6ksmVk8kRj9jJa=aG;UkwjwjWj(nVa.m1T*k&l1mEA>Cii|l%FXl,ktj%nhi*jIj7kpjWkni4j9aHmP,1m:s)M/y0y                                                      ",
"                                                                                                                                                                              1y2ymx3y4y5y6y7y8y9y:y;y<y=y>y6L1mwjVlHEY=Ykdj'ky5Xk8ky54keC;a.=Zkwj*k_%rj=ami6K%F.k9k%F~i(@242jf1Wj:kuHGj3;&2MjY=_1_)ziHm81dChiNm1k'kH9'2462ju(9k<kQ:&kEF+jV%Tj<kU&2j46BBgi%*Xk3mjJeC3;mikj*l^k.=Va46jismjjQjijhi3;YkYPn@e$Ojmj(l:aNmkjYPF23j~i'2 jYjTj-k$B^m.j*j.=]k.k&lJl4kda jF2Ilwj1mY=1jJaejdB'l;kRjfj1jhit@:kujXleK|liiH9WlVl&lUj1T.m:ajJ:kwjwjUkG;=aJa4kVkxj?y@yAyBy                                                    ",
"                                                                                                                                                                                    CyDyEyFyGyHyIyJyKyLyMyNyOyojwjh^{ANm jjiljij+kwjXjKjeCdCejhF+k0k{ljJVaJarj^m2>^kt@HmcC81*j5kGmYPr3;aDF'2.mYP;#1T{i6k'2Gj{ilBwl[ksmda=aY=Uk'l/kuH~i81djJl'l,ke$3k4681&k$B,kdBPj(@3;ii]k:kJl6kP3Y8gi)lYjt@_)-js6-j|lij1T{lP,%l jt@*lVj^ke$smmifihj(k&l.kV%2j:a.j5j(k8k3m.=(ldamj%F&lh^'kLj(lhi{lWjuj*kOjdj jylf1oi&l.kV%hiyiIj:k8kpj2>G;<azl%F&lxjVk4?&k;azle)XkdpPyQyRySy                                                  ",
"                                                                                                                                                                                                        TyUyVy7kWy-k3m|idj=arj_%*kwj$B9jr4P3-jgjNjHEyl%ls6'GXaGjyl{i.=JafCcC jsm~QXjb'djcC(lGm~QojSlkj4kdamj%n0kh^V%5j;adj_)Sl-k3m^mmi(@&k3m'loi!nGj3;s6ejQj^kt@djP31j6kyl{iP,Hm'2dCHj]kUk^k~Qzi&2~ib'Vj(kWjb'sj.j_1[k*k<k/kn@3k=aUl^k8kpjy5(nVada5kojwjzj@)Hj<azlHE7k*ke$Jj-j jfjn@)k&l$BPj:a.jFIWj8k;ky5Mjda5k3mwjwjVkgjzlii:JRlXkh^;#Ijmi0jiD/kXyYyZytxux                                                  ",
"                                                                                                                                                                                                          [y]y^y_y,k*lkj/j&2yifjeKSlimzl91BB=a5kgj'k3j,j46fCq4/jr34?yldafCcC%l!n(k9k3mhiBB,j|iZk+kwl|iLj;aUlHEVloif1H9=a&k)lzj*k[kJjfiP32jQ:wlY6|l j(@<a3j~Q%*)l,jq4jiLjfj_1yl-jJaeC2jTlh^<kRjxl9aGjimVl'l+kZkkjiiJ:OjojpjXk[kziVaej*lwjwj*lyljiVa4jtjpj1m:J>C+jyip5%F.kVkOj2k1j4k|iwlxjRlKjda;ax:3m8kwjIl4kVaLje$,kvjVlWlY=gigj[k*kujWj{lhi1jljwl`y~xJl y!y                                                  ",
"                                                                                                                                                                                                          aybycydyTjx8eyjiBBdCGj8j{i5kYk46cC'2Mjq8|iP,ii(@DDYk>C1TWjuHmiDFBB3k[k'l;k2>yi3;.jImWjujVk4?~i;aq8n@)k1m]kG;;aejiD7k/k1Twm:as6mj]kim)lKjXa24.mF2sm{j_)/j24=amjn@^kni9j:a242jniWkpjoip5fi/j6K%FXl9k)kRL~izl4?Vk8kpjy5(nVa6k3mwjwjRj'k2j<a2ke$XkUjhF_1dj jyl!n.kWkhFejda0jxlIlwjojUl1jVarjeKvjxjwl5j1j~iImIl,kXlU&hjiiJ:Ojojvjujni4jeaQpIl8k:s)Mfy0y                                                  ",
"                                                                                                                                                                                                          gyhyiyjykyly!DmyfCDD1jylIj3jYk46fC'2.m{if1Jj.mq4(@ii_1^k<keK%lDD91ziy58kxjU&dj81%l:JwlXkWj5j0j;a_)e$h^wl7j4kdamjSO[kQ:iD3jdCr4J:Im+&@)5kdaXa4jfj|lYjSO&k9aJaKjXjwj(kIj.jJaHjijUj&l.kEA.jji^KimoipjXk[k2k jF2Ilwjwj*lP,HmhidBqjpjoiimP,+jdjEA.kWk^knjMj1jLj'kSjwj3m5k:ada}i2>;k(k_)%l:avlijUj&lh^_%0j0j5jij/k'l1m!n%l&k4?Vkwjwj3mjJ:a?v)m&lxj?y@yAyBy                                                ",
"                                                                                                                                                                                                            nyoypyr?:rTm'2fCEF,j%nU&EAzl91DF<aFIijQj%n5kXaq4zlp5RlXk%*gi46&2KjXjxjyjJl/j3;GjNj/k<k*l^K(l=ap5U&Sj:k6KzlXarj5jIjxljJ~iq4eCyluHdBQ:_%yi24-j^KU&Vl%*}i;aXa9j$Bwj.k+&G;Ykgi|iXj-kXkni&k1j4jSORj8kpjlBMj:ajJ3mwjwjzj@)Hj%lHE7kqj*k[k4?/jjihjoipjWkni4jVajiF2oiwjZk>C1jVa9jY69k*k+&x:figi^m$B-k,k1T~i1j4k|iwl;k'lQ:~i1j>CZkwjwjIlF2jiGjV%Xlyjqyrysyty                                                ",
"                                                                                                                                                                                                            uyvy`o4raoEo24NJ8f%lni+keKrjq4'Gji'k$BVlHE.=Va242j^mwl,kijdj(@eC5k3mxj&lu(mi3;hiuHoj(k%*(nJada@)%*XjV%sjgiJaUlgj8jljP,PjeC9afjdBRj(k~Q.m24<aUl1mwjWj5jdjVa2jhFXk+ke$Jj-j,jFI1T/kyjUk2j=ayiFIWjwjwjQjLj9aziu(9k;k1m]k.=iihjU&XlWk^knjMj1jfjRjwjwj3m3jVaVa}i7k8kSl_)Gj=a3kRL)kXl[k4?/jjiF2b'(k&l2>.mdadj5jWjwjwjZk.mXaejQ:'l;kzj6Kvlgi+&Slujwyxyyyzy{y                                              ",
"                                                                                                                                                                                                            |y}y-$3mjjsm~yNJ3;vlIlvj$B(n&23;0j^mUk1mOjjJVaeCzikj7k+kNr0j469aJ:Ukxj&lQ: j(@MjYjXjni6jhir49awm|i'kGmKj/j<a_1V%$B$BV%gj,jdafjtjXk9keKmj9aVa3jojwj7kiDrj1j2k:JRj-k*l{jGjfix:njojxjzjrjVa<a.=Zkwjwj^kUl=a3kuHoi9kUje$YPiifjRL)kpjWkni4jVa9jIlwjwjZk>C1j9a4kSl;kojnjx:fiyi'klBXlRl:J&k(l.mp5RlxjVk4kJa=ax:UkwjwjSl.=:azl!n1m'l)kRLwmgiNmV%h^Xy z!z#zux                                              ",
"                                                                                                                                                                                                            $z%z&z/s$nm#/jmE(@ej7kwj3m3j2481-jiDQj1m%nKjJaJamj%n0kTjN;Hm461jJ:{AzjIlOjfi&26k%ne$n@6KMjdC=a{inj1k4?yl3k+j)l%FXl9koib'&kdaH9VkwjwjQjr3fi9a4kzjxj(kNjq8+jdj|leK-k)kRLHj<a3k)lzjwjojx:;a9arjeKyjxj0k8jYkGj_%Zk+kWk^k+&%l9jiD7kwjwj3m3jda&k2>xj8kSl_)Gj=a3k%F9k*k[kgjdjji^Kim*k+kjjLjda0jwmtjwj1mY=*jJa4j[kXkpj0k8j*jgiSOy5Tj+kQj_%iirjiD7k`y~x'z(z)z                                              ",
"                                                                                                                                                                                                            *z+z,zWkVkt@yi3;Y84k7kwj$Bmjr43;/j7j*lRl^mLj&2eC3j7jXjtj6j=a91%lY=|l_%p5Y=<a=aPj|i%*Xj;#xlyimiNjoj)kRlhF)lyi^K!noixjyj%F9j9aPjZkwjwjRlp5vl<a6k%F9kTjy5SOgi+jH9WlXlvjU&mjda1jUlUk8k)k_)%l:a3kuH(k9k.kEA.jjiF2b'(k;k'lu(2k+j^KQj8kwjtjwmmi~i%*+kvj)kRLfj,j-jImSj9koiuH3k;a~i{i)kpj$Bx:<a:aKj%F&lSjiD9j*jGjkjUk+kTj!niifi3j%n0k;k'lu(&kHmH93m*w:s-z6%.z                                              ",
"                                                                                                                                                                                                            /z0z1zWk^k{lRm_RY84kBqwj2>ej(@EFmi{j$BQ:Nmhi91dC3j_)Ijwmrj2424vl4?[kzjSlimmi244j~Q*kujSlkjKjyi_%*l,k<k/kRL~i3k)lzjwjwj3m3jVaMjXjwjwj(kb'yl+j.jimXl9k)kRL3k:aiiGm)kwjZkUl1jVarjlBpjXlYjr3Hm.jp5%FXl<kU&.m;a~i8jSlwjwj3m&k9aKj2>xj8k0k%n5kii1kXj-kXkRjEA&k(lq8RlxjvjU&mj9a=aG;ojwjVkgjzl;a&k:JRl.kJl6K.jHmY=WlVlpjIl4j9aHmP,*lwjwj*lzida4jjj-kyjqyrysy2z                                            ",
"                                                                                                                                                                                                            3z4z-wWk5zt@JnkN'2Wm2>0kuH6k(@EF j'kjjNjwm~is69aUl4?GmFIr3<aXa&ksmSlxj8kUk6k&24j%Fvjxj(kb'F2yiJje$UjpjXk[k2k/jsjtjwjwj*lyljihidBqjpj*k[k4?-j j1k/kpjXk[kzi9a*jY=1mwj:kIjyi:a2j~Q-k+ku(@)djjiF2b'(kpj:k4kVaYkY=QjwjwjIl9jVa2j%*+kvjh^V%Nmgifjn@)kvj+kjjLjdaKjtjwjwjQjH9YkJa4jtjpj1m:J>C+jdjgj[k.kVjYj&k;a6k@)zjwjojjJdaJa9jJl&lxjVkr3jm@m]kzjWkwyAl6z7z                                            ",
"                                                                                                                                                                                                            8z9z-wqjBq]kInDD9aLjOjt@fj0jP3BBYklj{lImwm6k241j5j!nU&:k%*&keC jxlIl8kwj:k5k9a.m%*,kvj*k[k4?giq8Nj(k8kpjy5&k(l.=ZkwjwjRlp5vl%lYjVjqj,k*l7j%l*j{i0k8kpjlBKj9ada5kojwj7k_%mj1j~i{l:k-k^k+&2k1jzi^mwl8kwlKj9ada5k3mwjwjwl5j(l~i{l:kuj+kUkkjgi9jiD7kxjvjeKrj9a3kUkwjwjVksm6k;aMje$Xk.kY6)l.jHmUl]k*kqjdBej9a*jY=QjwjoiF2jiVaPjijSj<koidq6r@r:zjjSjXy;z<z=z                                            ",
"                                                                                                                                                                                                            >z?z@zUk[k|l+j3;=a4j7jImFI~iXaP3 jYPb'b''kJ:<aHmFIV%h^wj0krjXa;aJ:UkwjwjRjwm<a&k!nVl'l,kIl{jii(n{jVjwjwjUk3kVaKj2>xj8kVlWlY=ii^m$B-k9koiNjHj;ar3VkwjwjQjY=*j9a4kVkxj)kRLxlji-j4?[kTjSjijPj=agiIj:kwj1mY=*j9aziQ:'l;k/k1k jmi{ie$Uj9koiuH%lgiNm:kwjwjQjY=*jhiQ:'l;k1m]k.=fidj]k*kqj7kHEzl;azlgjh^wjUkJ:;aXaziY6<k/k6Kvl<ahi{j*l,k-kb'ii*j(n7jVj`yAz'zBz                                            ",
"                                                                                                                                                                                                            CzDzEzFI ufq=aY8;a4k2mSl~QP,0jr4~iuHojVju(hj/jYkr3imoiwjoj3jda:a5k3mwjwjoj_1YkiikjZk+k<k/kn@%l~i{iSlwjwjQjLjVa9j%F&lxjUje$Jjii8jjjSj;k9ku(4kVa4jQjwjwjSl{i~i;a.my5<k*kdBgj/j+j^Kf1Xl&l%Fmjda(l.=Zkwj/kJjhi=azlim0kqjTj!nyifi.=]k1m;k9ku(~i;aJ:UkwjwjSl{i~i%lim0kqjUjniYP/j+j6KVlpjqjdBzi9a*jY=1mwjWjlj/jVavl2m/kUjRLwm,jmiFIij/k&l2>Pj:a/js^m^vt`yFzGz                                            ",
"                                                                                                                                                                                                            HzIzJzr^_)oqfi'2:arjeK9kRlp5HjJaMj;#-k'lojim2k<arjkj7kwj1m.=<aVamjlBpj8k)k|iji-j_1hFUjpjXk[khi+j^K*lwjwj:kG;=aPjV%Xlyj,k*l_%%l>CWlVlwjwjXj(nJa&kXjwjwj7kkjmj*jhiV%ujuj:kt@hi1jej6jUjwjUkG;=aJa9jeKvj*k%n5kYkgi6j2>Tj'lu(zl;a6k@)zjwjwjUk3kXaziY6&lxj0k%n5kiiSOlBTjWk^knjMj<aylzjwjwjUkG;:aXa4kVkxjRjSO4j(l~i7jQj.k*l7j~i*j9j1kwlxjRj(nda:a3jy5pj8krvKzLz                                          ",
"                                                                                                                                                                                                            MzNzi0:kSlf1zl'2Xamj^k;k0k%n3j(liiImWjWkXlV%.m:a%l_)SlwjVlP,HmVaejdBqjpj*kOj-jjixluH(k8kpjlBMj;ax:Ukwjwj7kNm1j~it@Sluj9k(kuHGj.mp5Rlwjwj3m3jVaMj$B8kwj(kb'F2+j/j]k*kvj+k%*Ljda-jfj(kwjQjH9Yk9a4j%*+kTj~QGm0j j5jij/k;k:kzi9afir3QjwjwjWj}ida.mTlSj<kUje$JjiiwmRL)kpjWkhFejVaej*lwjwjIlF2jiVaPjy5<k)kn@sj0jmiFIijXl+k%*2jVa0jwmtjwjojUl1jVazisqvqOzElPzQz                                          ",
"                                                                                                                                                                                                            RzSzTzwjwjXjKjeCeCKj0kwj(kNjq8jidj@)u(,k'lQ:ziVa+j^K*lwj)k_)%l:a3k2mh^<k,kTl%l1j}iImVjwjwjUk3kVaKj2>xj8k(kSO+j/j)lY6.kpjWkhFhidjljWjwjwjIlF2 jhihFWkpj*k[k4?-jHm|loi8kxj2>Kj9a;ax:ojwj^kJjhi=a6kYjVj-kQj_%%l*j(n{jVjwjoj5kdaJamjy5;k8kRjfj1j2k{lWjujWk^k+&iizi^mwlwjwj3mjJ:a2kU&vjxjzj6Kvl<ahi1T,k+kQj7j~i*j9j1kUj8kXj}iVada}ilBvj(k{i~i=a<jUz7kqjwyVzWzXz                                        ",
"                                                                                                                                                                                                            YzZzwlwjwj*lP,+jda9jRlxjXl%Flqdjjifjn@-kxj$B3j:a=aG;UkwjXlOjJ:YkgiiDUk+k&l$B.m:agiIj:kwjwjtjKjdaLje$,kvjTjf1.jHmr3imoi8k;k2>zl;aG;Xj8kwjVj{j(nii7j*l,kXkRl:J&k;ar3Vkwj8kUk.=(l9a9jVkxj/kTllj,jmi{i%*TjXl{ALjda0jxlIlwjoiwmmida2jV%XlyjUjt@-j jq8b'(k;k9kY62kfiH9Zk8kwjWjlj/jGjRL(k9kUjhF_1djji|loi;k'lu(rj:afiY=0k8ktjsj-jdavlRL(k.k~Q8j-j jq8b'(k[z3m]z^z                                        ",
"                                                                                                                                                                                                              _z`zwjwj^kYP2k:a3k2>&l,razLoco1jKj7j*kwjZk>C*jdaKj$B8kujhFYPmi,jNm{Ah^8kwlKjda(l.=Zkwjwj7kIj1j~i{l:kuj9keKHj=azlgjVkwjwjQj2jJaziY6&lxj*k[k_1iiFI1T/k;k'lu(rjdaPjZkwjwj^kJjhi:a&khFqj,kIlIm~i1j4k|iSjpjy5(nVaVa3j3mwj.k%n5kYkgi6j2>Tj9k%F3k=aGj8jSlwjwjZkvlJa4kJl&lxjVlWlY=yigj[k*k&lUj1T.m:a3jWjwjwjZkUl(l9azitjpjoiim^Kji/jYPniXlSjTlvlda.jFIWjvtgtW&bz                                        ",
"                                                                                                                                                                                                              czdzwjwjwl1k4k<ahie$Xk<k1vJ*Hj=azlgjh^wjtjwm0jdaejdB'lXkUk1kgifiH9HEVlwjojG;=aVa}iXj8kwj(k'k+j/j)lY6.kpjtj4jda0jxlIlwjwj:kjJdavlijUj&l,ktjImiijJt@0kwjwjUkG;:aMjy5;k8k0k%n3j*j.jimXl9koiuH3k=aiiNm)kwj*lP,fi9a4j[kXk-k{AGm0j jwmRL)k;kSl4kVaYkY=Qjwjwj:k5kda3kn@/k<kXl%F|lgiJ:OjojxjyjeKKjda3kXj8kwjSl_)%l:a6kQ:'l-k$B^mgiYk5k{l*kyjeKmjVa;aG;]r:sYwezfzLz                                      ",
"                                                                                                                                                                                                              gzhzwjwjVlHEH9fiyiNj-k;k9ku(ejVa,jq8oiwj^kYP2k=aHjNjoiWk7kHEMj(lzi|iwlwj1m>C1jVamjy5;k8kUj+&mi j5j1T/k8kwlKjVa;ax:Ukwjwj7kNm1jGj{jIl,k<k/kn@GjhiJj^kwjwjQjY=Ykhiu('l;kUje${imi jiD/k;k9kY69jVa1jUl1mwj^k_1Mj=aMj:JRlTjZk_%Gj*j9j1kwl8kwlKj9aVa3j3mwjwj0k{iYkgiSOy5Tj9koiNj%lhiJj^k8kxjXjJ:<a2keKvjxjoj+&x:fi.jEA.k9k)kRLHjdayiIj(kxjXjx:;aWa4kizjzXwkzlzQz                                      ",
"                                                                                                                                                                                                              mznzozgvh^;#7p jmiyp*kwj8k$BKjVa<aJ:1mwj7kiDrj1jGjImtjWkXlV%.m:aGj8jSlwj(kFI.j:aLjniWkpj+k2miiYkJ:OjojwjojG;:a9amjy5;k8k(k6jji-j_1[k*kpjXk[khiHmP,*lwjwj:kNmiiGjn@/k<kujWj%nGj1j_)VjwjwjUkG;:a9amjRj8k0kt@jJ*jdj6KJlTjoiuH3k:agiIj:kwjVlP,fi9a4jhFWkpjSjImmijiF2b'(k;k'lQ:~iYkH9Qjwjwj:kIjyi%lTlSj<k*kQ:smdjHmgj1m;k'lu(rjVa<ax:Vj8k:kNmgiea<jy>7opzqzrzsztz                                    ",
"                                                                                                                                                                                                              uzvzwzoz*kQ:tq@r6riD/kwjwj3m3jda:a5kojwj(kb'ylHm/jp5%FWk&l%F9jVaYkY=QjwjUj|izi(lMjHE7kqj9k%F6k<avl6Kzjwj1mY=*j9aziY6<k;k*kOj-j+jq8Nj(k8kpjy5&k:ajJ3mwjwj7k_%mjgikjUk+k<k/kn@3kdajJ:kwjwjQjY=*j9a4j*lvjUje$JjmijixluHXl9ku(4kJa;aJ:Ukwjh^sm6k;a2kOjVkWk+kn@Gj(l4jSORj8kpjy5Mjda3j3mwjwj0k%n3jgiSOy5Tj'lVlb'6k=aUl^k8k;kXjJ:(l9a9jVkxjoj+&x:fi.jsmdBpz;zxzyzzz                                    ",
"                                                                                                                                                                                                              {z|z}z~z+kUkPqQm|p@)VlwjwjUkx:;aVaKj7k8kUjniYPmi,jNm{A,kwjXj(n9aVa3j3mwjTjWlY=Yk.j^m$B-kpjtj4j:a/jljWjwj)kNmgi:avlijUj&l,k1TGj1jmj_%7kwjwjUkHjJa9jeKvjxj)kRLxlyiGm~QSjpjXk[kejJaPjZkwjwjSl8jGj=a6kQ:'luj:k{l~i(l4k1kUjwjUkG;:aXa4kJl&l.k]k.=fidjgjdB*k9k%F3kdadjljWjwjwj*lzi9aLje$ujvjSjjj8jyi^Kf1oi;k'lQ:ejJa2jZk8kwj:kGmiidaHjeK9k.ku(@).jfiG;+&XwAz {!{#{                                    ",
"                                                                                                                                                                                                              ${%{&{*uqj7kWl2kVo5jwlwjwjQjH9YkVa9jVkxjTj2>6jyiHmr3imTjwj3m3jVa9a}iXjwj+kn@wm+j0jJje$Uj8kRjrj9a(l.=Zkwj*k_%mj1jGjImtj,k<klB3kdagiNm:kwjwjQj2jXa2jjj+kvj*kQ:smyi>CEA1m8kpjlBmjJazl3mwjwjojOjJ:Ykyif1Tj&l*k;#Pj:a/jsj(kwjIlF2 jVaPj;#*kTjniYP/j+jr3YjVl;kSlziXa=ax:UkwjwjRjxl;a~i{lWjujuj:kt@givl6Kzj8k;ky5Kj9a&k2>xj8koj+&G;Yk.jHEXl'lVlb'Hj:aiiGm(k`yFzW&'{                                    ",
"                                                                                                                                                                                                              ({){*{+{&l*k1T3k:a>C^kwjwj:kIjgi:aPjUkyjWk^knjhi1jrjiD*kwjQjY=YkVarjeKyj,k[k_1miHm^K!noiwjojjJ:aVa}iXj8k-kNjq8+j-jgjdB*k;k:kzi9a*jY=QjwjwjSlx:da&kYjVjqjWk^k+&iiPj|lRlwjwjQjY=*jhiu('l;kUje$Jj0j+j^m)kxj&lJlrj9a;ax:ojwjzj@)Hj<aMjnj^k-k^knj2k<a.mp5Rlwj1m.=<aXaejQ:'l;k(k'k+j0jGm~QSj&l*k;#%l,jxlIlwjwjIlF2 j%l{AXlyj*k[kgjdjHm@)1m;k'lu(9jVa<aJ:0k8krvezfz,{                                  ",
"                                                                                                                                                                                                              -{Tp.{/{xjyj%F4k9aLjQjwjwjVjIm}i*j~i;#ujyjXlV%Pjda/jlj(kwjzj@)6k;a6kuH(kWkRl]k2k<aPj|lRlwjoixl0jdaejdB'lujlB'kyifi>CEA1m8kVj3jdaVa(ny5pj8k(k'k+j-j_1hFUj;k<kY62kfir3QjwjwjRlp5.miiOjzjWkXkRl]kMj<aF2Rlwj8kUkUl1jVa9j^k;kh^;#Ij0j,jfjn@Tj<kY69j9a(l.=3mxjh^p5.m<a2k+&^kWkujV%~i<aLj'kRj8kpj2>3kdamjJl<k;k1mEA>Cgi_1hFUj9k)kRLvl:a3jtj8kxjQjF2,jdaLj3myj0{1{2{3{4{                                ",
"                                                                                                                                                                                                              5{6{7{%qwj8kXj}ida6k3mwjwj)kn@fjji-jOj*k8kpjlBKjda;ax:ojwj1m]k.=Ykyi6j$BWk'lQ:ej9afiP,*lwjUj|izi(l2k:JRjWk)kRLHj:a~i{iSlwjVlH9YkJaLjjj-kyj+kn@ii*jjJt@0kwjwj3m&k9a(nXjwjwj(kb'yl.j{i%*Sj;k9kY69jVa2jZkwjwjzj@)6k;a2kjjWkXkwlWl&k;azlgjh^wjZkUl(l9a4ku('lTjTllj,j,jljTl/k;kSlziJa(lUlZkwjwj^kUlda2kOjzjWk,ktj%niiLj'kRjxjvjU&Kj9a&k2>xj8koj+&G;Yk.jHEXlXy8{9{:{;{                                ",
"                                                                                                                                                                                                                <{={YwwjwjUkx:;a&k$B8kwj*k[k_1-j j|i)kwjwj3m5k:ada3j0kwj/kTlljji0j8j%*ujwjXjKjJada5k3mwjTjHEH9fidj'klBujXk[k4j9aHmP,*lwj)k_)%l:azlHE7kqj9kJlHj;a6ksmVkwjwjQj4j9a4j[kXkpj.ku(@).j.=]k1mwjwj3mjJ:a2kU&pj8k1m]k.=fidjOj*kyj-kjjLjVajiF2oiwj:kGmii:a3kuH(k+k3m1k%l*jmjkj7kwjojG;:aXaziY6<k;k0kJj*j/j4?[k*k&lUj1TGjmiwmtjwjwj*lyl+j%l{AXlyj*k[k4?djHmgj1m`yAz'z>{?{                                ",
"                                                                                                                                                                                                                @{A{B{wjwjQjY=Yk2kU&pj8k+kZkkjiifism1mwjwjUkG;:a9aKjVjwj*kQ:sm/j+jylb'-kwj3m3jVa9a}iXjwj,k;#Ij,j0jGm~Q,kpjlBKjVa=aG;Ukwj.k%n}i1j.j'klBTj;kSl4kda+j^K*lwjwj^kUl=a&kWlwlXkXkRjEAgi6k@)zjwjwjQjH9Yk~ihFWkpjUjniYP-j+jp5oixjyjeKrjJadajJojwj0k{l5kYkgiSOlB+kUjijPj:a/jsjtjwjoiF2ji9avl2m/k<kUj+&/jfiJ:Ojojxj&lJlhidajJ3mwjwjRj'k2jyi1kXj-kXkRjEAzl=aJ:Slvt`yFzW&'{                                ",
"                                                                                                                                                                                                                C{D{E{wjwjWjljdj~ie$ujvjqjVjYj&k(lsjwlwjwj*lP,HmVazi:k;k,k*l7j%l1jKj7j*kwjQjH9fida9j%F&luj%Fp5.jHmY=WlTjwjUkG;=aJarjlBpj+k;#Ij jji5j1T/kwj0k(n9aVa3j3mwjwjVj_)*jyihjU&XlyjTj~QGj,jq8Ilwjwj:kGmii%lb'Vl'lWk^k+&hi<awmRjwjwjZk>C1jJazi:k;kSj~Q_)mijiF2b'Tj&l%Frj9a:ajJXj8kh^@)Hj<ahi{j*l,kWkjj2k=aMj4?VkwjwjQjPjeCLjhFWkpj)kRLfj.jq8b'(kvj+k%*4j9a.mUk8kwjrvF{G{H{                              ",
"                                                                                                                                                                                                                I{J{SlwjwjRlp5.m%limoj'l&l.k;#.m:ajJ:kwjwj^kJjhi=a6kY6'l9k)kRLHj:a2kYP/kwjSl_)Gj=a.m;#.kWktjImGj<a4j6jUjwjQjH9YkJaejdBqjWk3m1kgiYkJ:Ojojwjoj3jVaXaKjXjwjwjh^_%0j0jIj;#h^xjyjeK2k=aG;UkwjwjVj7jKjgi6jy5Tjvj+k%*LjdamjtjwjwjSl8jGj=a6kQ:'l+kUkkjGj(l4jSOSjxj2>}iVa9aKjlBpjTjb'F2jimiNmV%h^pjtjej9a*jY=QjwjwjSl.=da2kOjVkWk,kIlImgi.mp5RlxjvjU&mjJa2kU&vjxjapK{L{M{                              ",
"                                                                                                                                                                                                                N{O{P{wjwj0k{l5k,lM2*l,k;k'lQ:zi9a4jQjwjwj7kiDrj1jGjij,kpjXk[k4jVa jF2oiwjwl^mzi(lMjEARjWkoiNj6kVagiNm)kwj:k                                                                                              ;ky5mj9aHj3m8kwjVj7jKj*jiib'-k9koiuH3kdadjlj(kwjIlq8,jVaPj;#.k,k2>6jii*jKj7jVjwjojG;:aXa4kJl&lxj0kJjYk/jYPniUj&l*k1T%l,jxlIlwjwjIlq8 jiiTlSj<k                                      ",
"                                                                                                                                                                                                                Q{R{hzwjwj%rLlylgi6K%FXl8k;ky5(ndavlUkwjwjoif1^KHm/jHEXl8kpjlBKjda(l.=1mwjVlYjr3Hm.j'klBWk9ku(ziJa1j>C1m                                                                                                                                                      rj1jiiiDUk+k(kRLvl:adjljWjwjoiF2ji9a.mTlSj<k.k:J.jfijJt@0kxj&l%F~idajJ3m                                                        ",
"                                                                                                                                                                                                                S{T{U{gvwjSj~QkpgiGm~QSjwjwj3m5k:a6k3mwjwjSj%*8j0j,j{jh^wjwj3m5k:ada}i0kwjh^{ANm,j,jNm{A,kwjXj                                                                                                                                                                     jsj2mTj'lu(4k9a;ax:3m8kh^@)Hj;a~iImIl,kqjdBzl=ahiJj^kwjwj                                                                  ",
"                                                                                                                                                                                                                V{W{X{Y{6u-k9p>kgi.=]k1mwjwjZk>C1j2keKyjxj+kQj_%ii*jJj0kwjwjQjY=*j9a4k^k;k-k$B^mgi*j5k{l                                                                                                                                                                          <aHj@)            ziniuj-k%*{i-j+j                                                                                          ",
"                                                                                                                                                                                                                Z{[{]{^{_{9k%r1q%lHj@)zjwjwjSl{i~i%ln@/k<k<k/kn@3k:ax:Slwjwj^kJj~i:azlQ:'l9k)kRL                                                                                                                                                                                                              RL                                                                                              ",
"                                                                                                                                                                                                                `{a{Vpb{c{vjWqKl~idjljWjwjwjwl|iziii+&^kWkpjWkni4j9aej*lwjwj7kiD9j(liin@+kpj                                                                                                                                                                                                                                                                                                                  ",
"                                                                                                                                                                                                                d{e{f{g{h{i{Ozir2k*jY=QjwjwjVlWlY=ii'klBTj8kpjlBKjVavlUkwjwjoif1P,fimi                                                                                                                                                                                                                                                                                                                        ",
"                                                                                                                                                                                                                  j{k{l{m{wjwjXj&kda5k3mwjwjh^;#Ijgi{i%*Sjwjwj3m3jdazlXj8kwjUj                                                                                                                                                                                                                                                                                                                                ",
"                                                                                                                                                                                                                  n{o{p{tnwjwj3m6kVa}iXjwjwj.ku(smyiq8Nj(kwjwjUkG;:a2k                                                                                                                                                                                                                                                                                                                                        ",
"                                                                                                                                                                                                                  q{r{s{tpwjwjUkvl9arjlBpj8k+kQj_%gi3j%n0kwjwj*l                                                                                                                                                                                                                                                                                                                                              ",
"                                                                                                                                                                                                                  t{u{v{aqwjwjQj4j9a4j[kXkpj'lVl!n%l3k)lzj                                                                                                                                                                                                                                                                                                                                                    ",
"                                                                                                                                                                                                                  w{x{y{$nwj                                                                                                                                                                                                                                                                                                                                                                                  ",
"                                                                                                                                                                                                                                                                                                                                                                                                                                                                                                                                                                                                              ",
"                                                                                                                                                                                                                                                                                                                                                                                                                                                                                                                                                                                                              ",
"                                                                                                                                                                                                                                                                                                                                                                                                                                                                                                                                                                                                              ",
"                                                                                                                                                                                                                                                                                                                                                                                                                                                                                                                                                                                                              ",
"                                                                                                                                                                                                                                                                                                                                                                                                                                                                                                                                                                                                              "
};
